PJH-02/HYFE38_ML/pilot/out_20260506_02/A2/trade_history.csv
strategy,decision_date,execution_date,ticker,ETF_id,name,open,close,prev_qty,target_qty,delta_qty,side,prev_value_open,target_value_open,delta_value_open,trade_turnover_value,day_turnover_value,commission_allocated,day_commission,nav_open_pre,nav_open_post,nav_close,daily_return,stock_ratio,cash_weight,target_sleeve_weight,target_portfolio_weight,prev_portfolio_weight_open,actual_portfolio_weight_open,cash_after_rebalance,rebalanced
A2,2026-03-31,2026-04-01,139260,ETF_003,TIGER 200 IT,77999.0,80021.0,0.0,304.0,304.0,BUY,0.0,23711696.0,23711696.0,23711696.0,94942657.0,3556.7544,14241.398549999998,100000000.0,99985758.60145,101557732.60145,0.0155773260145,0.95,0.05,0.25,0.2375,0.0,0.2371507335811335,5043101.601449996,True
A2,2026-03-31,2026-04-01,227550,ETF_005,TIGER 200 산업재,13416.0,13848.0,0.0,1770.0,1770.0,BUY,0.0,23746320.0,23746320.0,23746320.0,94942657.0,3561.9479999999994,14241.398549999998,100000000.0,99985758.60145,101557732.60145,0.0155773260145,0.95,0.05,0.25,0.2375,0.0,0.2374970228975752,5043101.601449996,True
A2,2026-03-31,2026-04-01,266390,ETF_006,KODEX 경기소비재,10604.0,10668.0,0.0,2239.0,2239.0,BUY,0.0,23742356.0,23742356.0,23742356.0,94942657.0,3561.3533999999995,14241.398549999998,100000000.0,99985758.60145,101557732.60145,0.0155773260145,0.95,0.05,0.25,0.2375,0.0,0.2374573772514807,5043101.601449996,True
A2,2026-03-31,2026-04-01,476800,ETF_010,KODEX 한국부동산리츠인프라,4811.0,4821.0,0.0,4935.0,4935.0,BUY,0.0,23742285.0,23742285.0,23742285.0,94942657.0,3561.34275,14241.398549999998,100000000.0,99985758.60145,101557732.60145,0.0155773260145,0.95,0.05,0.25,0.2375,0.0,0.2374566671503524,5043101.601449996,True
A2,2026-04-01,2026-04-02,139260,ETF_003,TIGER 200 IT,80904.0,76098.0,304.0,303.0,-1.0,SELL,24594816.0,24513912.0,-80904.0,80904.0,516684.0,12.135599999999998,77.50259999999999,102657389.60145,102657312.09885,99551110.09885,-0.0197584413436515,0.95,0.05,0.2520486660721938,0.2394462327685841,0.2395815449378288,0.2387936280310481,5211516.098849997,True
A2,2026-04-01,2026-04-02,227550,ETF_005,TIGER 200 산업재,14124.0,13853.0,1770.0,1753.0,-17.0,SELL,24999480.0,24759372.0,-240108.0,240108.0,516684.0,36.01619999999999,77.50259999999999,102657389.60145,102657312.09885,99551110.09885,-0.0197584413436515,0.95,0.05,0.2539610807816278,0.2412630267425464,0.2435234335984605,0.2411846900507086,5211516.098849997,True
A2,2026-04-01,2026-04-02,266390,ETF_006,KODEX 경기소비재,10788.0,10285.0,2239.0,2237.0,-2.0,SELL,24154332.0,24132756.0,-21576.0,21576.0,516684.0,3.2364,77.50259999999999,102657389.60145,102657312.09885,99551110.09885,-0.0197584413436515,0.95,0.05,0.2474821874416118,0.2351080780695312,0.2352907286438426,0.2350807312854857,5211516.098849997,True
A2,2026-04-01,2026-04-02,476800,ETF_010,KODEX 한국부동산리츠인프라,4836.0,4826.0,4935.0,4971.0,36.0,BUY,23865660.0,24039756.0,174096.0,174096.0,516684.0,26.1144,77.50259999999999,102657389.60145,102657312.09885,99551110.09885,-0.0197584413436515,0.95,0.05,0.2465080657045666,0.2341826624193382,0.2324787342894106,0.2341748045852965,5211516.098849997,True
A2,2026-04-02,2026-04-03,139260,ETF_003,TIGER 200 IT,78364.0,78568.0,303.0,299.0,-4.0,SELL,23744292.0,23430836.0,-313456.0,313456.0,693546.0,47.0184,104.0319,101197109.09885,101197005.06695,100905544.06695,0.0136054130059937,0.95,0.05,0.244411630603371,0.2321910490732024,0.234634093912766,0.2315368521479327,5144778.066949993,True
A2,2026-04-02,2026-04-03,227550,ETF_005,TIGER 200 산업재,14079.0,14070.0,1753.0,1757.0,4.0,BUY,24680487.0,24736803.0,56316.0,56316.0,693546.0,8.4474,104.0319,101197109.09885,101197005.06695,100905544.06695,0.0136054130059937,0.95,0.05,0.2574137535508156,0.2445430658732748,0.2438852969198155,0.2444420463197958,5144778.066949993,True
A2,2026-04-02,2026-04-03,266390,ETF_006,KODEX 경기소비재,10459.0,10320.0,2237.0,2241.0,4.0,BUY,23396783.0,23438619.0,41836.0,41836.0,693546.0,6.275399999999999,104.0319,101197109.09885,101197005.06695,100905544.06695,0.0136054130059937,0.95,0.05,0.2438800510419835,0.2316860484898843,0.2312001124176963,0.2316137615386291,5144778.066949993,True
A2,2026-04-02,2026-04-03,476800,ETF_010,KODEX 한국부동산리츠인프라,4861.0,4856.0,4971.0,5029.0,58.0,BUY,24164031.0,24445969.0,281938.0,281938.0,693546.0,42.2907,104.0319,101197109.09885,101197005.06695,100905544.06695,0.0136054130059937,0.95,0.05,0.2542945648038299,0.2415798365636383,0.2387818309749977,0.2415681075129349,5144778.066949993,True
A2,2026-04-03,2026-04-06,139260,ETF_003,TIGER 200 IT,79127.0,79766.0,299.0,298.0,-1.0,SELL,23658973.0,23579846.0,-79127.0,79127.0,268284.0,11.869049999999998,40.2426,101199073.06695,101199032.82435,101541599.82435,0.006303476813702,0.95,0.05,0.245317920702514,0.2330520246673883,0.2337864595296045,0.2330046576722454,5091243.824349999,True
A2,2026-04-03,2026-04-06,227550,ETF_005,TIGER 200 산업재,14134.0,14163.0,1757.0,1755.0,-2.0,SELL,24833438.0,24805170.0,-28268.0,28268.0,268284.0,4.2402,40.2426,101199073.06695,101199032.82435,101541599.82435,0.006303476813702,0.95,0.05,0.2581536367409592,0.2452459549039113,0.245391951204642,0.2451127180538775,5091243.824349999,True
A2,2026-04-03,2026-04-06,266390,ETF_006,KODEX 경기소비재,10315.0,10360.0,2241.0,2250.0,9.0,BUY,23115915.0,23208750.0,92835.0,92835.0,268284.0,13.925249999999998,40.2426,101199073.06695,101199032.82435,101541599.82435,0.006303476813702,0.95,0.05,0.2415093463224803,0.2294338790063563,0.2284202246072675,0.2293376661048052,5091243.824349999,True
A2,2026-04-03,2026-04-06,476800,ETF_010,KODEX 한국부동산리츠인프라,4861.0,4861.0,5029.0,5043.0,14.0,BUY,24445969.0,24514023.0,68054.0,68054.0,268284.0,10.208099999999998,40.2426,101199073.06695,101199032.82435,101541599.82435,0.006303476813702,0.95,0.05,0.2550190962340464,0.242268141422344,0.2415631710759578,0.2422357439181134,5091243.824349999,True
A2,2026-04-06,2026-04-07,139260,ETF_003,TIGER 200 IT,81708.0,80600.0,298.0,292.0,-6.0,SELL,24348984.0,23858736.0,-490248.0,490248.0,902642.0,73.5372,135.3963,102122505.82435,102122370.42805,101954171.42805,0.004063079608886,0.95,0.05,0.2464508062572625,0.2341282659443994,0.2384291670425722,0.2336288895370833,5168962.4280499965,True
A2,2026-04-06,2026-04-07,227550,ETF_005,TIGER 200 산업재,14065.0,14306.0,1755.0,1777.0,22.0,BUY,24684075.0,24993505.0,309430.0,309430.0,902642.0,46.4145,135.3963,102122505.82435,102122370.42805,101954171.42805,0.004063079608886,0.95,0.05,0.2577083800499399,0.2448229610474429,0.2417104320026815,0.2447407448068305,5168962.4280499965,True
A2,2026-04-06,2026-04-07,266390,ETF_006,KODEX 경기소비재,10415.0,10305.0,2250.0,2251.0,1.0,BUY,23433750.0,23444165.0,10415.0,10415.0,902642.0,1.56225,135.3963,102122505.82435,102122370.42805,101954171.42805,0.004063079608886,0.95,0.05,0.2416787347057588,0.2295947979704709,0.2294670485299869,0.2295693382530472,5168962.4280499965,True
A2,2026-04-06,2026-04-07,476800,ETF_010,KODEX 한국부동산리츠인프라,4871.0,4866.0,5043.0,5062.0,19.0,BUY,24564453.0,24657002.0,92549.0,92549.0,902642.0,13.88235,135.3963,102122505.82435,102122370.42805,101954171.42805,0.004063079608886,0.95,0.05,0.2541620789870387,0.2414539750376867,0.2405390741415089,0.2414456489469368,5168962.4280499965,True
A2,2026-04-07,2026-04-08,139260,ETF_003,TIGER 200 IT,83365.0,88810.0,292.0,289.0,-3.0,SELL,24342580.0,24092485.0,-250095.0,250095.0,1620293.0,37.51425,243.04395,104549913.42805,104549670.3841,105818859.3841,0.0379061288215887,0.95,0.05,0.2431693875868987,0.2310109182075538,0.2328321392322555,0.2304405639107974,5307448.38409999,True
A2,2026-04-07,2026-04-08,227550,ETF_005,TIGER 200 산업재,14591.0,14453.0,1777.0,1787.0,10.0,BUY,25928207.0,26074117.0,145910.0,145910.0,1620293.0,21.8865,243.04395,104549913.42805,104549670.3841,105818859.3841,0.0379061288215887,0.95,0.05,0.2626616428549532,0.2495285607122055,0.247998359346739,0.2493945404534281,5307448.38409999,True
A2,2026-04-07,2026-04-08,266390,ETF_006,KODEX 경기소비재,10852.0,10802.0,2251.0,2193.0,-58.0,SELL,24427852.0,23798436.0,-629416.0,629416.0,1620293.0,94.4124,243.04395,104549913.42805,104549670.3841,105818859.3841,0.0379061288215887,0.95,0.05,0.2396704541909911,0.2276869314814415,0.233647749663714,0.2276280347185034,5307448.38409999,True
A2,2026-04-07,2026-04-08,476800,ETF_010,KODEX 한국부동산리츠인프라,4876.0,4886.0,5062.0,5184.0,122.0,BUY,24682312.0,25277184.0,594872.0,594872.0,1620293.0,89.23079999999999,243.04395,104549913.42805,104549670.3841,105818859.3841,0.0379061288215887,0.95,0.05,0.2544985153671569,0.2417735895987991,0.2360816110764747,0.2417720104437955,5307448.38409999,True
A2,2026-04-08,2026-04-09,139260,ETF_003,TIGER 200 IT,88281.0,87857.0,289.0,290.0,1.0,BUY,25513209.0,25601490.0,88281.0,88281.0,255509.0,13.24215,38.32635,105831062.3841,105831024.05775,105670400.05775,-0.0014029571591877,0.95,0.05,0.2553549865099396,0.2425872371844426,0.2410748642719199,0.2419091209589897,5386357.057749987,True
A2,2026-04-08,2026-04-09,227550,ETF_005,TIGER 200 산업재,14507.0,14507.0,1787.0,1780.0,-7.0,SELL,25924009.0,25822460.0,-101549.0,101549.0,255509.0,15.23235,38.32635,105831062.3841,105831024.05775,105670400.05775,-0.0014029571591877,0.95,0.05,0.2569609832658702,0.2441129341025766,0.2449565223668662,0.2439970720297402,5386357.057749987,True
A2,2026-04-08,2026-04-09,266390,ETF_006,KODEX 경기소비재,10812.0,10783.0,2193.0,2191.0,-2.0,SELL,23710716.0,23689092.0,-21624.0,21624.0,255509.0,3.2436,38.32635,105831062.3841,105831024.05775,105670400.05775,-0.0014029571591877,0.95,0.05,0.2356825534963388,0.2238984258215219,0.2240430688860049,0.2238388243042353,5386357.057749987,True
A2,2026-04-08,2026-04-09,476800,ETF_010,KODEX 한국부동산리츠인프라,4895.0,4900.0,5184.0,5175.0,-9.0,SELL,25375680.0,25331625.0,-44055.0,44055.0,255509.0,6.60825,38.32635,105831062.3841,105831024.05775,105670400.05775,-0.0014029571591877,0.95,0.05,0.2520014767278513,0.2394014028914587,0.23977534977304,0.2393591598072131,5386357.057749987,True
A2,2026-04-09,2026-04-10,139260,ETF_003,TIGER 200 IT,89084.0,88910.0,290.0,288.0,-2.0,SELL,25834360.0,25656192.0,-178168.0,178168.0,414129.0,26.7252,62.11935,106367869.05775,106367806.9384,107112643.9384,0.0136485134896982,0.95,0.05,0.2540636499866683,0.2413604674873349,0.2428774800966806,0.2412026038560528,5350235.938399985,True
A2,2026-04-09,2026-04-10,227550,ETF_005,TIGER 200 산업재,14581.0,14797.0,1780.0,1784.0,4.0,BUY,25954180.0,26012504.0,58324.0,58324.0,414129.0,8.7486,62.11935,106367869.05775,106367806.9384,107112643.9384,0.0136485134896982,0.95,0.05,0.257493208565594,0.2446185481373143,0.2440039480898952,0.2445524143885417,5350235.938399985,True
A2,2026-04-09,2026-04-10,266390,ETF_006,KODEX 경기소비재,10867.0,10947.0,2191.0,2190.0,-1.0,SELL,23809597.0,23798730.0,-10867.0,10867.0,414129.0,1.63005,62.11935,106367869.05775,106367806.9384,107112643.9384,0.0136485134896982,0.95,0.05,0.2355863634257346,0.2238070452544479,0.2238420042717329,0.2237399706264733,5350235.938399985,True
A2,2026-04-09,2026-04-10,476800,ETF_010,KODEX 한국부동산리츠인프라,4905.0,4950.0,5175.0,5209.0,34.0,BUY,25383375.0,25550145.0,166770.0,166770.0,414129.0,25.0155,62.11935,106367869.05775,106367806.9384,107112643.9384,0.0136485134896982,0.95,0.05,0.2528567780220029,0.2402139391209028,0.2386376189055614,0.2402056198714021,5350235.938399985,True
A2,2026-04-10,2026-04-13,139260,ETF_003,TIGER 200 IT,86843.0,89354.0,288.0,292.0,4.0,BUY,25010784.0,25358156.0,347372.0,347372.0,1013097.0,52.10579999999999,151.96454999999995,106154842.9384,106154690.97384998,107047947.97384998,-0.0006039993241807,0.95,0.05,0.2516261211114423,0.2390448150558701,0.2356066224365606,0.2388792786015146,5345246.973849982,True
A2,2026-04-10,2026-04-13,227550,ETF_005,TIGER 200 산업재,14822.0,14827.0,1784.0,1764.0,-20.0,SELL,26442448.0,26146008.0,-296440.0,296440.0,1013097.0,44.466,151.96454999999995,106154842.9384,106154690.97384998,107047947.97384998,-0.0006039993241807,0.95,0.05,0.2594066759898213,0.2464363421903302,0.2490931856528123,0.2463010137389102,5345246.973849982,True
A2,2026-04-10,2026-04-13,266390,ETF_006,KODEX 경기소비재,10773.0,10783.0,2190.0,2205.0,15.0,BUY,23592870.0,23754465.0,161595.0,161595.0,1013097.0,24.239249999999995,151.96454999999995,106154842.9384,106154690.97384998,107047947.97384998,-0.0006039993241807,0.95,0.05,0.2355872907409974,0.2238079262039475,0.2222495869895505,0.2237721647727432,5345246.973849982,True
A2,2026-04-10,2026-04-13,476800,ETF_010,KODEX 한국부동산리츠인프라,4945.0,4970.0,5209.0,5167.0,-42.0,SELL,25758505.0,25550815.0,-207690.0,207690.0,1013097.0,31.1535,151.96454999999995,106154842.9384,106154690.97384998,107047947.97384998,-0.0006039993241807,0.95,0.05,0.253379912157739,0.240710916549852,0.2426503048471115,0.2406941677809995,5345246.973849982,True
A2,2026-04-13,2026-04-14,139260,ETF_003,TIGER 200 IT,91899.0,92932.0,292.0,287.0,-5.0,SELL,26834508.0,26375013.0,-459495.0,459495.0,850965.0,68.92425,127.64475,108404150.97384998,108404023.32909998,108902577.32909998,0.0173252209907195,0.95,0.05,0.2565454775876601,0.2437182037082771,0.2475413326789784,0.2433028977156043,5478736.329099983,True
A2,2026-04-13,2026-04-14,227550,ETF_005,TIGER 200 산업재,14959.0,14856.0,1764.0,1770.0,6.0,BUY,26387676.0,26477430.0,89754.0,89754.0,850965.0,13.463099999999995,127.64475,108404150.97384998,108404023.32909998,108902577.32909998,0.0173252209907195,0.95,0.05,0.2571694531495284,0.244310980492052,0.2434194240990404,0.2442476689229337,5478736.329099983,True
A2,2026-04-13,2026-04-14,266390,ETF_006,KODEX 경기소비재,10932.0,11071.0,2205.0,2202.0,-3.0,SELL,24105060.0,24072264.0,-32796.0,32796.0,850965.0,4.9194,127.64475,108404150.97384998,108404023.32909998,108902577.32909998,0.0173252209907195,0.95,0.05,0.2337844989977208,0.2220952740478347,0.2223628872460317,0.2220606141796034,5478736.329099983,True
A2,2026-04-13,2026-04-14,476800,ETF_010,KODEX 한국부동산리츠인프라,4980.0,4995.0,5167.0,5221.0,54.0,BUY,25731660.0,26000580.0,268920.0,268920.0,850965.0,40.338,127.64475,108404150.97384998,108404023.32909998,108902577.32909998,0.0173252209907195,0.95,0.05,0.2525005702650906,0.239875541751836,0.2373678477146799,0.2398488469479195,5478736.329099983,True
A2,2026-04-14,2026-04-15,139260,ETF_003,TIGER 200 IT,96646.0,96177.0,287.0,279.0,-8.0,SELL,27737402.0,26964234.0,-773168.0,773168.0,1551857.0,115.9752,232.77855,110362653.32909998,110362420.55054998,109876609.55054998,0.0089440695100035,0.95,0.05,0.2578852587770358,0.2449909958381839,0.2513296043842606,0.2443244164588561,5607982.550549984,True
A2,2026-04-14,2026-04-15,227550,ETF_005,TIGER 200 산업재,14856.0,14856.0,1770.0,1794.0,24.0,BUY,26295120.0,26651664.0,356544.0,356544.0,1551857.0,53.48159999999999,232.77855,110362653.32909998,110362420.55054998,109876609.55054998,0.0089440695100035,0.95,0.05,0.2542462138879564,0.2415339031935586,0.2382610349317019,0.2414922023914161,5607982.550549984,True
A2,2026-04-14,2026-04-15,266390,ETF_006,KODEX 경기소비재,11250.0,11245.0,2202.0,2196.0,-6.0,SELL,24772500.0,24705000.0,-67500.0,67500.0,1551857.0,10.124999999999998,232.77855,110362653.32909998,110362420.55054998,109876609.55054998,0.0089440695100035,0.95,0.05,0.2357129822706932,0.2239273331571586,0.2244645199506823,0.2238533721601749,5607982.550549984,True
A2,2026-04-14,2026-04-15,476800,ETF_010,KODEX 한국부동산리츠인프라,4995.0,4930.0,5221.0,5292.0,71.0,BUY,26078895.0,26433540.0,354645.0,354645.0,1551857.0,53.19674999999999,232.77855,110362653.32909998,110362420.55054998,109876609.55054998,0.0089440695100035,0.95,0.05,0.2521555450643145,0.2395477678110988,0.2363018123733676,0.2395157687565622,5607982.550549984,True
A2,2026-04-15,2026-04-16,139260,ETF_003,TIGER 200 IT,96596.0,98622.0,279.0,279.0,0.0,HOLD,26950284.0,26950284.0,0.0,0.0,259687.0,0.0,38.95305,110426212.55054998,110426173.59749998,111479045.59749998,0.0145839597117598,0.95,0.05,0.2573485790697138,0.2444811501162281,0.2440569442482954,0.2440570303398627,5588400.5974999815,True
A2,2026-04-15,2026-04-16,227550,ETF_005,TIGER 200 산업재,15009.0,14989.0,1794.0,1786.0,-8.0,SELL,26926146.0,26806074.0,-120072.0,120072.0,259687.0,18.0108,38.95305,110426212.55054998,110426173.59749998,111479045.59749998,0.0145839597117598,0.95,0.05,0.2556057825524067,0.2428254934247863,0.2438383548441813,0.2427510899518018,5588400.5974999815,True
A2,2026-04-15,2026-04-16,266390,ETF_006,KODEX 경기소비재,11305.0,11519.0,2196.0,2197.0,1.0,BUY,24825780.0,24837085.0,11305.0,11305.0,259687.0,1.69575,38.95305,110426212.55054998,110426173.59749998,111479045.59749998,0.0145839597117598,0.95,0.05,0.2368307774878439,0.2249892386134517,0.2248178165907434,0.2249202719866977,5588400.5974999815,True
A2,2026-04-15,2026-04-16,476800,ETF_010,KODEX 한국부동산리츠인프라,4935.0,4945.0,5292.0,5318.0,26.0,BUY,26116020.0,26244330.0,128310.0,128310.0,259687.0,19.2465,38.95305,110426212.55054998,110426173.59749998,111479045.59749998,0.0145839597117598,0.95,0.05,0.2502148608900355,0.2377041178455337,0.2365019989075947,0.2376640351196065,5588400.5974999815,True
A2,2026-04-16,2026-04-17,139260,ETF_003,TIGER 200 IT,98188.0,99216.0,279.0,280.0,1.0,BUY,27394452.0,27492640.0,98188.0,98188.0,337322.0,14.728199999999998,50.5983,111548792.59749998,111548741.9992,111623464.9992,0.0012954847337089,0.95,0.05,0.2598486202440263,0.2468561892318249,0.2455826850483898,0.2464630215210959,5643679.999199986,True
A2,2026-04-16,2026-04-17,227550,ETF_005,TIGER 200 산업재,15102.0,14876.0,1786.0,1773.0,-13.0,SELL,26972172.0,26775846.0,-196326.0,196326.0,337322.0,29.4489,50.5983,111548792.59749998,111548741.9992,111623464.9992,0.0012954847337089,0.95,0.05,0.2528113224732931,0.2401707563496284,0.2417970770631586,0.2400371848226852,5643679.999199986,True
A2,2026-04-16,2026-04-17,266390,ETF_006,KODEX 경기소비재,11514.0,11563.0,2197.0,2199.0,2.0,BUY,25296258.0,25319286.0,23028.0,23028.0,337322.0,3.4541999999999997,50.5983,111548792.59749998,111548741.9992,111623464.9992,0.0012954847337089,0.95,0.05,0.2389941339955007,0.2270444272957257,0.2267730327774694,0.2269795745449248,5643679.999199986,True
A2,2026-04-16,2026-04-17,476800,ETF_010,KODEX 한국부동산리츠인프라,4945.0,4960.0,5318.0,5322.0,4.0,BUY,26297510.0,26317290.0,19780.0,19780.0,337322.0,2.967,50.5983,111548792.59749998,111548741.9992,111623464.9992,0.0012954847337089,0.95,0.05,0.2483459232871799,0.2359286271228209,0.2357489434680746,0.235926371990719,5643679.999199986,True
A2,2026-04-17,2026-04-20,117460,ETF_001,KODEX 에너지화학,16903.0,16833.0,0.0,640.0,640.0,BUY,0.0,10817920.0,10817920.0,10817920.0,122172124.0,1622.688,18325.8186,111560043.9992,111541718.1806,111508515.1806,-0.0010297997701542,0.95,0.05,0.1022222222222222,0.0971111111111111,0.0,0.0969854165459817,5739730.180599988,True
A2,2026-04-17,2026-04-20,117680,ETF_002,KODEX 철강,16327.0,16227.0,0.0,800.0,800.0,BUY,0.0,13061600.0,13061600.0,13061600.0,122172124.0,1959.24,18325.8186,111560043.9992,111541718.1806,111508515.1806,-0.0010297997701542,0.95,0.05,0.1233333333333333,0.1171666666666666,0.0,0.1171005809579841,5739730.180599988,True
A2,2026-04-17,2026-04-20,139260,ETF_003,TIGER 200 IT,99311.0,101417.0,280.0,138.0,-142.0,SELL,27807080.0,13704918.0,-14102162.0,14102162.0,122172124.0,2115.3243,18325.8186,111560043.9992,111541718.1806,111508515.1806,-0.0010297997701542,0.95,0.05,0.13,0.1235,0.2492566245330578,0.1228680911819022,5739730.180599988,True
A2,2026-04-17,2026-04-20,139270,ETF_004,TIGER 200 금융,17200.0,17003.0,0.0,636.0,636.0,BUY,0.0,10939200.0,10939200.0,10939200.0,122172124.0,1640.88,18325.8186,111560043.9992,111541718.1806,111508515.1806,-0.0010297997701542,0.95,0.05,0.1033333333333333,0.0981666666666667,0.0,0.0980727227304143,5739730.180599988,True
A2,2026-04-17,2026-04-20,227550,ETF_005,TIGER 200 산업재,14886.0,15033.0,1773.0,759.0,-1014.0,SELL,26392878.0,11298474.0,-15094404.0,15094404.0,122172124.0,2264.1606,18325.8186,111560043.9992,111541718.1806,111508515.1806,-0.0010297997701542,0.95,0.05,0.1066666666666666,0.1013333333333333,0.2365800250149531,0.1012937059271971,5739730.180599988,True
A2,2026-04-17,2026-04-20,266390,ETF_006,KODEX 경기소비재,11514.0,11494.0,2199.0,1073.0,-1126.0,SELL,25319286.0,12354522.0,-12964764.0,12964764.0,122172124.0,1944.7146,18325.8186,111560043.9992,111541718.1806,111508515.1806,-0.0010297997701542,0.95,0.05,0.1166666666666666,0.1108333333333333,0.2269565795454649,0.1107614460447568,5739730.180599988,True
A2,2026-04-17,2026-04-20,266410,ETF_007,KODEX 필수소비재,10077.0,10057.0,0.0,1296.0,1296.0,BUY,0.0,13059792.0,13059792.0,13059792.0,122172124.0,1958.9688,18325.8186,111560043.9992,111541718.1806,111508515.1806,-0.0010297997701542,0.95,0.05,0.1233333333333333,0.1171666666666667,0.0,0.117084371776079,5739730.180599988,True
A2,2026-04-17,2026-04-20,266420,ETF_008,KODEX 헬스케어,22275.0,22170.0,0.0,274.0,274.0,BUY,0.0,6103350.0,6103350.0,6103350.0,122172124.0,915.5025,18325.8186,111560043.9992,111541718.1806,111508515.1806,-0.0010297997701542,0.95,0.05,0.0577777777777777,0.0548888888888888,0.0,0.0547180920247069,5739730.180599988,True
A2,2026-04-17,2026-04-20,315270,ETF_009,TIGER 200 커뮤니케이션서비스,23412.0,22950.0,0.0,301.0,301.0,BUY,0.0,7047012.0,7047012.0,7047012.0,122172124.0,1057.0518,18325.8186,111560043.9992,111541718.1806,111508515.1806,-0.0010297997701542,0.95,0.05,0.0666666666666666,0.0633333333333333,0.0,0.0631782629400598,5739730.180599988,True
A2,2026-04-17,2026-04-20,476800,ETF_010,KODEX 한국부동산리츠인프라,4960.0,4980.0,5322.0,1495.0,-3827.0,SELL,26397120.0,7415200.0,-18981920.0,18981920.0,122172124.0,2847.288,18325.8186,111560043.9992,111541718.1806,111508515.1806,-0.0010297997701542,0.95,0.05,0.0699999999999999,0.0664999999999999,0.236618049381455,0.066479162424178,5739730.180599988,True
A2,2026-04-20,2026-04-21,117460,ETF_001,KODEX 에너지화학,16928.0,17312.0,640.0,640.0,0.0,HOLD,10833920.0,10833920.0,0.0,0.0,302828.0,0.0,45.4242,112093792.1806,112093746.7564,112850018.7564,0.0120305034429639,0.95,0.05,0.1018553820014099,0.0967626129013394,0.0966504905333644,0.0966505296994315,5717346.756399989,True
A2,2026-04-20,2026-04-21,117680,ETF_002,KODEX 철강,16426.0,16624.0,800.0,795.0,-5.0,SELL,13140800.0,13058670.0,-82130.0,82130.0,302828.0,12.3195,45.4242,112093792.1806,112093746.7564,112850018.7564,0.0120305034429639,0.95,0.05,0.1227356445476801,0.1165988623202961,0.117230399153846,0.1164977563679698,5717346.756399989,True
A2,2026-04-20,2026-04-21,139260,ETF_003,TIGER 200 IT,101961.0,106144.0,138.0,138.0,0.0,HOLD,14070618.0,14070618.0,0.0,0.0,302828.0,0.0,45.4242,112093792.1806,112093746.7564,112850018.7564,0.0120305034429639,0.95,0.05,0.1323220834956173,0.1257059793208365,0.1255253990990876,0.1255254499662501,5717346.756399989,True
A2,2026-04-20,2026-04-21,139270,ETF_004,TIGER 200 금융,17067.0,16983.0,636.0,637.0,1.0,BUY,10854612.0,10871679.0,17067.0,17067.0,302828.0,2.56005,45.4242,112093792.1806,112093746.7564,112850018.7564,0.0120305034429639,0.95,0.05,0.1022410156266804,0.0971289648453463,0.0968350859475927,0.0969873816746096,5717346.756399989,True
A2,2026-04-20,2026-04-21,227550,ETF_005,TIGER 200 산업재,15068.0,15235.0,759.0,762.0,3.0,BUY,11436612.0,11481816.0,45204.0,45204.0,302828.0,6.7806,45.4242,112093792.1806,112093746.7564,112850018.7564,0.0120305034429639,0.95,0.05,0.1078772626536269,0.1024833995209456,0.1020271665140375,0.102430477455197,5717346.756399989,True
A2,2026-04-20,2026-04-21,266390,ETF_006,KODEX 경기소비재,11623.0,11598.0,1073.0,1068.0,-5.0,SELL,12471479.0,12413364.0,-58115.0,58115.0,302828.0,8.71725,45.4242,112093792.1806,112093746.7564,112850018.7564,0.0120305034429639,0.95,0.05,0.1166039867055294,0.1107737873702529,0.1112593191593212,0.1107409142721983,5717346.756399989,True
A2,2026-04-20,2026-04-21,266410,ETF_007,KODEX 필수소비재,10072.0,9928.0,1296.0,1302.0,6.0,BUY,13053312.0,13113744.0,60432.0,60432.0,302828.0,9.0648,45.4242,112093792.1806,112093746.7564,112850018.7564,0.0120305034429639,0.95,0.05,0.1232298546305509,0.1170683618990234,0.1164499099019609,0.116989077263146,5717346.756399989,True
A2,2026-04-20,2026-04-21,266420,ETF_008,KODEX 헬스케어,22255.0,21785.0,274.0,274.0,0.0,HOLD,6097870.0,6097870.0,0.0,0.0,302828.0,0.0,45.4242,112093792.1806,112093746.7564,112850018.7564,0.0120305034429639,0.95,0.05,0.0574326347797225,0.0545610030407364,0.0543997118964037,0.0543997339410179,5717346.756399989,True
A2,2026-04-20,2026-04-21,315270,ETF_009,TIGER 200 커뮤니케이션서비스,23064.0,23014.0,301.0,301.0,0.0,HOLD,6942264.0,6942264.0,0.0,0.0,302828.0,0.0,45.4242,112093792.1806,112093746.7564,112850018.7564,0.0120305034429639,0.95,0.05,0.0653118025322877,0.0620462124056733,0.0619326357414598,0.061932660838671,5717346.756399989,True
A2,2026-04-20,2026-04-21,476800,ETF_010,KODEX 한국부동산리츠인프라,4985.0,5025.0,1495.0,1503.0,8.0,BUY,7452575.0,7492455.0,39880.0,39880.0,302828.0,5.981999999999999,45.4242,112093792.1806,112093746.7564,112850018.7564,0.0120305034429639,0.95,0.05,0.0703903330268944,0.0668708163755497,0.0664851715248671,0.0668409721042018,5717346.756399989,True
A2,2026-04-21,2026-04-22,117460,ETF_001,KODEX 에너지화학,17466.0,17731.0,640.0,638.0,-2.0,SELL,11178240.0,11143308.0,-34932.0,34932.0,915282.0,5.2398,137.29229999999998,113053305.7564,113053168.4641,114025492.4641,0.0104162473400859,0.95,0.05,0.1038355200067007,0.0986437440063657,0.0988758349453854,0.0985669676612253,5777327.464099988,True
A2,2026-04-21,2026-04-22,117680,ETF_002,KODEX 철강,16644.0,16828.0,795.0,799.0,4.0,BUY,13231980.0,13298556.0,66576.0,66576.0,915282.0,9.9864,137.29229999999998,113053305.7564,113053168.4641,114025492.4641,0.0104162473400859,0.95,0.05,0.1238572358813754,0.1176643740873066,0.1170419556639185,0.1176309888583348,5777327.464099988,True
A2,2026-04-21,2026-04-22,139260,ETF_003,TIGER 200 IT,106488.0,107716.0,138.0,138.0,0.0,HOLD,14695344.0,14695344.0,0.0,0.0,915282.0,0.0,137.29229999999998,113053305.7564,113053168.4641,114025492.4641,0.0104162473400859,0.95,0.05,0.1372755716872321,0.1304117931028705,0.1299859734456999,0.1299861313012779,5777327.464099988,True
A2,2026-04-21,2026-04-22,139270,ETF_004,TIGER 200 금융,16914.0,16757.0,637.0,643.0,6.0,BUY,10774218.0,10875702.0,101484.0,101484.0,915282.0,15.222599999999998,137.29229999999998,113053305.7564,113053168.4641,114025492.4641,0.0104162473400859,0.95,0.05,0.1013847341535504,0.0963154974458729,0.0953021048603001,0.0961998867236841,5777327.464099988,True
A2,2026-04-21,2026-04-22,227550,ETF_005,TIGER 200 산업재,15407.0,15697.0,762.0,758.0,-4.0,SELL,11740134.0,11678506.0,-61628.0,61628.0,915282.0,9.2442,137.29229999999998,113053305.7564,113053168.4641,114025492.4641,0.0104162473400859,0.95,0.05,0.1087968082331068,0.1033569678214515,0.1038460036303307,0.103301005700769,5777327.464099988,True
A2,2026-04-21,2026-04-22,266390,ETF_006,KODEX 경기소비재,11539.0,11747.0,1068.0,1080.0,12.0,BUY,12323652.0,12462120.0,138468.0,138468.0,915282.0,20.7702,137.29229999999998,113053305.7564,113053168.4641,114025492.4641,0.0104162473400859,0.95,0.05,0.1160841917445521,0.1102799821573245,0.1090074449176587,0.110232381536103,5777327.464099988,True
A2,2026-04-21,2026-04-22,266410,ETF_007,KODEX 필수소비재,9963.0,10097.0,1302.0,1305.0,3.0,BUY,12971826.0,13001715.0,29889.0,29889.0,915282.0,4.483349999999999,137.29229999999998,113053305.7564,113053168.4641,114025492.4641,0.0104162473400859,0.95,0.05,0.121141090130738,0.1150840356242011,0.1147407934090035,0.1150053127801428,5777327.464099988,True
A2,2026-04-21,2026-04-22,266420,ETF_008,KODEX 헬스케어,21730.0,21400.0,274.0,256.0,-18.0,SELL,5954020.0,5562880.0,-391140.0,391140.0,915282.0,58.67099999999999,137.29229999999998,113053305.7564,113053168.4641,114025492.4641,0.0104162473400859,0.95,0.05,0.051924501185006,0.0493282761257557,0.0526655984109773,0.0492058743295327,5777327.464099988,True
A2,2026-04-21,2026-04-22,315270,ETF_009,TIGER 200 커뮤니케이션서비스,22970.0,22895.0,301.0,303.0,2.0,BUY,6913970.0,6959910.0,45940.0,45940.0,915282.0,6.890999999999999,137.29229999999998,113053305.7564,113053168.4641,114025492.4641,0.0104162473400859,0.95,0.05,0.0649198233060609,0.0616738321407579,0.0611567256148863,0.0615631573582134,5777327.464099988,True
A2,2026-04-21,2026-04-22,476800,ETF_010,KODEX 한국부동산리츠인프라,5025.0,5075.0,1503.0,1512.0,9.0,BUY,7552575.0,7597800.0,45225.0,45225.0,915282.0,6.78375,137.29229999999998,113053305.7564,113053168.4641,114025492.4641,0.0104162473400859,0.95,0.05,0.0707805236716771,0.0672414974880933,0.0668054326184305,0.067205546763713,5777327.464099988,True
A2,2026-04-22,2026-04-23,117460,ETF_001,KODEX 에너지화학,17975.0,17801.0,638.0,634.0,-4.0,SELL,11468050.0,11396150.0,-71900.0,71900.0,634347.0,10.785,95.15205,114966243.4641,114966148.31204998,113839841.31204998,-0.0016281547927403,0.95,0.05,0.104504108683967,0.0992789032497687,0.0997514544656847,0.0991261355391996,5902365.312049985,True
A2,2026-04-22,2026-04-23,117680,ETF_002,KODEX 철강,16863.0,16674.0,799.0,804.0,5.0,BUY,13473537.0,13557852.0,84315.0,84315.0,634347.0,12.64725,95.15205,114966243.4641,114966148.31204998,113839841.31204998,-0.0016281547927403,0.95,0.05,0.1242106228775332,0.1180000917336566,0.1171955923236486,0.1179290791164041,5902365.312049985,True
A2,2026-04-22,2026-04-23,139260,ETF_003,TIGER 200 IT,107960.0,107391.0,138.0,138.0,0.0,HOLD,14898480.0,14898480.0,0.0,0.0,634347.0,0.0,95.15205,114966243.4641,114966148.31204998,113839841.31204998,-0.0016281547927403,0.95,0.05,0.1373215703009838,0.1304554917859346,0.1295900392244466,0.1295901464800003,5902365.312049985,True
A2,2026-04-22,2026-04-23,139270,ETF_004,TIGER 200 금융,16939.0,16850.0,643.0,641.0,-2.0,SELL,10891777.0,10857899.0,-33878.0,33878.0,634347.0,5.0817,95.15205,114966243.4641,114966148.31204998,113839841.31204998,-0.0016281547927403,0.95,0.05,0.0995374933145517,0.0945606186488241,0.0947389135437927,0.0944443139082006,5902365.312049985,True
A2,2026-04-22,2026-04-23,227550,ETF_005,TIGER 200 산업재,15707.0,15594.0,758.0,764.0,6.0,BUY,11905906.0,12000148.0,94242.0,94242.0,634347.0,14.1363,95.15205,114966243.4641,114966148.31204998,113839841.31204998,-0.0016281547927403,0.95,0.05,0.1099171149922033,0.1044212592425931,0.1035600158903844,0.1043798385541131,5902365.312049985,True
A2,2026-04-22,2026-04-23,266390,ETF_006,KODEX 경기소비재,11951.0,11628.0,1080.0,1071.0,-9.0,SELL,12907080.0,12799521.0,-107559.0,107559.0,634347.0,16.133849999999995,95.15205,114966243.4641,114966148.31204998,113839841.31204998,-0.0016281547927403,0.95,0.05,0.1172006934251495,0.111340658753892,0.1122684329859872,0.1113329548560551,5902365.312049985,True
A2,2026-04-22,2026-04-23,266410,ETF_007,KODEX 필수소비재,10221.0,10141.0,1305.0,1300.0,-5.0,SELL,13338405.0,13287300.0,-51105.0,51105.0,634347.0,7.665749999999999,95.15205,114966243.4641,114966148.31204998,113839841.31204998,-0.0016281547927403,0.95,0.05,0.1217257123942932,0.1156394267745785,0.1160201864312034,0.1155757603006285,5902365.312049985,True
A2,2026-04-22,2026-04-23,266420,ETF_008,KODEX 헬스케어,21670.0,21550.0,256.0,255.0,-1.0,SELL,5547520.0,5525850.0,-21670.0,21670.0,634347.0,3.2505,95.15205,114966243.4641,114966148.31204998,113839841.31204998,-0.0016281547927403,0.95,0.05,0.0506096338907915,0.048079152196252,0.0482534684342565,0.0480650181042972,5902365.312049985,True
A2,2026-04-22,2026-04-23,315270,ETF_009,TIGER 200 커뮤니케이션서비스,23407.0,22841.0,303.0,299.0,-4.0,SELL,7092321.0,6998693.0,-93628.0,93628.0,634347.0,14.044199999999998,95.15205,114966243.4641,114966148.31204998,113839841.31204998,-0.0016281547927403,0.95,0.05,0.0640859362373486,0.0608816394254812,0.0616904648381825,0.0608761196470078,5902365.312049985,True
A2,2026-04-22,2026-04-23,476800,ETF_010,KODEX 한국부동산리츠인프라,5070.0,5075.0,1512.0,1527.0,15.0,BUY,7665840.0,7741890.0,76050.0,76050.0,634347.0,11.4075,95.15205,114966243.4641,114966148.31204998,113839841.31204998,-0.0016281547927403,0.95,0.05,0.0708871138831776,0.0673427581890187,0.0666790509023962,0.0673406051578449,5902365.312049985,True
A2,2026-04-23,2026-04-24,117460,ETF_001,KODEX 에너지화학,17896.0,18245.0,634.0,633.0,-1.0,SELL,11346064.0,11328168.0,-17896.0,17896.0,210196.0,2.6844,31.5294,114062212.31204998,114062180.78264998,114931968.78264998,0.009593543508255,0.95,0.05,0.1045589948758853,0.0993310451320911,0.0994725928071566,0.0993157234262097,5797255.782649979,True
A2,2026-04-23,2026-04-24,117680,ETF_002,KODEX 철강,16704.0,16783.0,804.0,805.0,1.0,BUY,13430016.0,13446720.0,16704.0,16704.0,210196.0,2.5056,31.5294,114062212.31204998,114062180.78264998,114931968.78264998,0.009593543508255,0.95,0.05,0.1242005695964208,0.1179905411165997,0.1177429029980439,0.1178893819821248,5797255.782649979,True
A2,2026-04-23,2026-04-24,139260,ETF_003,TIGER 200 IT,107706.0,107092.0,138.0,138.0,0.0,HOLD,14863428.0,14863428.0,0.0,0.0,210196.0,0.0,31.5294,114062212.31204998,114062180.78264998,114931968.78264998,0.009593543508255,0.95,0.05,0.1373013206275084,0.130436254596133,0.1303098344203321,0.1303098704409558,5797255.782649979,True
A2,2026-04-23,2026-04-24,139270,ETF_004,TIGER 200 금융,16845.0,16796.0,641.0,643.0,2.0,BUY,10797645.0,10831335.0,33690.0,33690.0,210196.0,5.0535000000000005,31.5294,114062212.31204998,114062180.78264998,114931968.78264998,0.009593543508255,0.95,0.05,0.1000658010569007,0.0950625110040557,0.0946645236939639,0.0949599150715831,5797255.782649979,True
A2,2026-04-23,2026-04-24,227550,ETF_005,TIGER 200 산업재,15594.0,15844.0,764.0,766.0,2.0,BUY,11913816.0,11945004.0,31188.0,31188.0,210196.0,4.6782,31.5294,114062212.31204998,114062180.78264998,114931968.78264998,0.009593543508255,0.95,0.05,0.1103770112245352,0.1048581606633084,0.10445015714237,0.1047236158211079,5797255.782649979,True
A2,2026-04-23,2026-04-24,266390,ETF_006,KODEX 경기소비재,11678.0,11867.0,1071.0,1070.0,-1.0,SELL,12507138.0,12495460.0,-11678.0,11678.0,210196.0,1.7517,31.5294,114062212.31204998,114062180.78264998,114931968.78264998,0.009593543508255,0.95,0.05,0.1153777951969156,0.1096089054370698,0.1096518973854647,0.1095495449434777,5797255.782649979,True
A2,2026-04-23,2026-04-24,266410,ETF_007,KODEX 필수소비재,10136.0,10295.0,1300.0,1305.0,5.0,BUY,13176800.0,13227480.0,50680.0,50680.0,210196.0,7.601999999999999,31.5294,114062212.31204998,114062180.78264998,114931968.78264998,0.009593543508255,0.95,0.05,0.1221383016219501,0.1160313865408525,0.1155229215084052,0.1159672724932858,5797255.782649979,True
A2,2026-04-23,2026-04-24,266420,ETF_008,KODEX 헬스케어,21580.0,21970.0,255.0,255.0,0.0,HOLD,5502900.0,5502900.0,0.0,0.0,210196.0,0.0,31.5294,114062212.31204998,114062180.78264998,114931968.78264998,0.009593543508255,0.95,0.05,0.0509114183844728,0.0483658474652492,0.0482447244223637,0.0482447377583109,5797255.782649979,True
A2,2026-04-23,2026-04-24,315270,ETF_009,TIGER 200 커뮤니케이션서비스,22985.0,22885.0,299.0,298.0,-1.0,SELL,6872515.0,6849530.0,-22985.0,22985.0,210196.0,3.44775,31.5294,114062212.31204998,114062180.78264998,114931968.78264998,0.009593543508255,0.95,0.05,0.0632723614919437,0.0601087434173465,0.0602523382695599,0.0600508420319619,5797255.782649979,True
A2,2026-04-23,2026-04-24,476800,ETF_010,KODEX 한국부동산리츠인프라,5075.0,5095.0,1527.0,1532.0,5.0,BUY,7749525.0,7774900.0,25375.0,25375.0,210196.0,3.80625,31.5294,114062212.31204998,114062180.78264998,114931968.78264998,0.009593543508255,0.95,0.05,0.071796425923467,0.0682066046272936,0.0679412124569261,0.0681636976134568,5797255.782649979,True
A2,2026-04-24,2026-04-27,117460,ETF_001,KODEX 에너지화학,18459.0,18050.0,633.0,631.0,-2.0,SELL,11684547.0,11647629.0,-36918.0,36918.0,546961.0,5.537699999999999,82.04414999999999,115994046.78264998,115993964.73849998,116035497.73849998,0.0096015840286953,0.95,0.05,0.105824120323659,0.1005329143074761,0.100734023202885,0.1004158192735177,5925862.738499984,True
A2,2026-04-24,2026-04-27,117680,ETF_002,KODEX 철강,17155.0,17155.0,805.0,795.0,-10.0,SELL,13809775.0,13638225.0,-171550.0,171550.0,546961.0,25.732499999999995,82.04414999999999,115994046.78264998,115993964.73849998,116035497.73849998,0.0096015840286953,0.95,0.05,0.1237948460999755,0.1176051037949767,0.1190558945311805,0.1175770224834231,5925862.738499984,True
A2,2026-04-24,2026-04-27,139260,ETF_003,TIGER 200 IT,108549.0,111219.0,138.0,137.0,-1.0,SELL,14979762.0,14871213.0,-108549.0,108549.0,546961.0,16.282349999999997,82.04414999999999,115994046.78264998,115993964.73849998,116035497.73849998,0.0096015840286953,0.95,0.05,0.1354170052199615,0.1286461549589634,0.1291425070121842,0.1282067824263622,5925862.738499984,True
A2,2026-04-24,2026-04-27,139270,ETF_004,TIGER 200 금융,16806.0,16727.0,643.0,648.0,5.0,BUY,10806258.0,10890288.0,84030.0,84030.0,546961.0,12.604499999999998,82.04414999999999,115994046.78264998,115993964.73849998,116035497.73849998,0.0096015840286953,0.95,0.05,0.0989586878741322,0.0940107534804256,0.0931621777128683,0.0938866778504499,5925862.738499984,True
A2,2026-04-24,2026-04-27,227550,ETF_005,TIGER 200 산업재,15997.0,15928.0,766.0,766.0,0.0,HOLD,12253702.0,12253702.0,0.0,0.0,546961.0,0.0,82.04414999999999,115994046.78264998,115993964.73849998,116035497.73849998,0.0096015840286953,0.95,0.05,0.111206633218525,0.1056463015575988,0.1056407836426383,0.1056408583638389,5925862.738499984,True
A2,2026-04-24,2026-04-27,266390,ETF_006,KODEX 경기소비재,11951.0,11966.0,1070.0,1072.0,2.0,BUY,12787570.0,12811472.0,23902.0,23902.0,546961.0,3.5853,82.04414999999999,115994046.78264998,115993964.73849998,116035497.73849998,0.0096015840286953,0.95,0.05,0.1163487734649561,0.1105313347917082,0.1102433301940175,0.1104494706158422,5925862.738499984,True
A2,2026-04-24,2026-04-27,266410,ETF_007,KODEX 필수소비재,10404.0,10439.0,1305.0,1303.0,-2.0,SELL,13577220.0,13556412.0,-20808.0,20808.0,546961.0,3.1211999999999995,82.04414999999999,115994046.78264998,115993964.73849998,116035497.73849998,0.0096015840286953,0.95,0.05,0.1231045066293435,0.1169492812978763,0.1170510071559192,0.116871701304132,5925862.738499984,True
A2,2026-04-24,2026-04-27,266420,ETF_008,KODEX 헬스케어,22035.0,22180.0,255.0,256.0,1.0,BUY,5618925.0,5640960.0,22035.0,22035.0,546961.0,3.30525,82.04414999999999,115994046.78264998,115993964.73849998,116035497.73849998,0.0096015840286953,0.95,0.05,0.0513342624541469,0.0487675493314395,0.0484414946788498,0.0486314957223605,5925862.738499984,True
A2,2026-04-24,2026-04-27,315270,ETF_009,TIGER 200 커뮤니케이션서비스,23014.0,22836.0,298.0,299.0,1.0,BUY,6858172.0,6881186.0,23014.0,23014.0,546961.0,3.4521,82.04414999999999,115994046.78264998,115993964.73849998,116035497.73849998,0.0096015840286953,0.95,0.05,0.0624891000538023,0.0593646450511122,0.0591252067690238,0.0593236554635677,5925862.738499984,True
A2,2026-04-24,2026-04-27,476800,ETF_010,KODEX 한국부동산리츠인프라,5105.0,5100.0,1532.0,1543.0,11.0,BUY,7820860.0,7877015.0,56155.0,56155.0,546961.0,8.42325,82.04414999999999,115994046.78264998,115993964.73849998,116035497.73849998,0.0096015840286953,0.95,0.05,0.0715220646614977,0.0679459614284228,0.0674246671870561,0.0679088348929029,5925862.738499984,True
A2,2026-04-27,2026-04-28,117460,ETF_001,KODEX 에너지화학,18075.0,18280.0,631.0,676.0,45.0,BUY,11405325.0,12218700.0,813375.0,813375.0,2033274.0,122.00625,304.9911,116955376.73849998,116955071.7474,117256506.7474,0.0105227196219874,0.95,0.05,0.1099959013146779,0.104496106248944,0.0975186034029125,0.1044734513642127,5952191.747399986,True
A2,2026-04-27,2026-04-28,117680,ETF_002,KODEX 철강,17448.0,17890.0,795.0,782.0,-13.0,SELL,13871160.0,13644336.0,-226824.0,226824.0,2033274.0,34.023599999999995,304.9911,116955376.73849998,116955071.7474,117256506.7474,0.0105227196219874,0.95,0.05,0.1229544742469845,0.1168067505346353,0.118602157393879,0.1166630552753547,5952191.747399986,True
A2,2026-04-27,2026-04-28,139260,ETF_003,TIGER 200 IT,112812.0,114074.0,137.0,135.0,-2.0,SELL,15455244.0,15229620.0,-225624.0,225624.0,2033274.0,33.843599999999995,304.9911,116955376.73849998,116955071.7474,117256506.7474,0.0105227196219874,0.95,0.05,0.137368146732051,0.1304997393954484,0.1321465026319936,0.1302176961841637,5952191.747399986,True
A2,2026-04-27,2026-04-28,139270,ETF_004,TIGER 200 금융,16776.0,16900.0,648.0,647.0,-1.0,SELL,10870848.0,10854072.0,-16776.0,16776.0,2033274.0,2.5163999999999995,304.9911,116955376.73849998,116955071.7474,117256506.7474,0.0105227196219874,0.95,0.05,0.0977191203395305,0.092833164322554,0.0929486809683498,0.0928054836599362,5952191.747399986,True
A2,2026-04-27,2026-04-28,227550,ETF_005,TIGER 200 산업재,16252.0,15790.0,766.0,751.0,-15.0,SELL,12449032.0,12205252.0,-243780.0,243780.0,2033274.0,36.567,304.9911,116955376.73849998,116955071.7474,117256506.7474,0.0105227196219874,0.95,0.05,0.1099959013146779,0.104496106248944,0.1064425796159396,0.1043584670390434,5952191.747399986,True
A2,2026-04-27,2026-04-28,266390,ETF_006,KODEX 경기소비재,12250.0,12275.0,1072.0,1048.0,-24.0,SELL,13132000.0,12838000.0,-294000.0,294000.0,2033274.0,44.1,304.9911,116955376.73849998,116955071.7474,117256506.7474,0.0105227196219874,0.95,0.05,0.11564590788287,0.1098636124887265,0.1122821401307763,0.109768647123979,5952191.747399986,True
A2,2026-04-27,2026-04-28,266410,ETF_007,KODEX 필수소비재,10365.0,10330.0,1303.0,1314.0,11.0,BUY,13505595.0,13619610.0,114015.0,114015.0,2033274.0,17.102249999999998,304.9911,116955376.73849998,116955071.7474,117256506.7474,0.0105227196219874,0.95,0.05,0.1226280435271852,0.116496641350826,0.1154764780946933,0.1164516407583904,5952191.747399986,True
A2,2026-04-27,2026-04-28,266420,ETF_008,KODEX 헬스케어,21910.0,21850.0,256.0,259.0,3.0,BUY,5608960.0,5674690.0,65730.0,65730.0,2033274.0,9.8595,304.9911,116955376.73849998,116955071.7474,117256506.7474,0.0105227196219874,0.95,0.05,0.0511903375352964,0.0486308206585316,0.0479581200660919,0.0485202558146107,5952191.747399986,True
A2,2026-04-27,2026-04-28,315270,ETF_009,TIGER 200 커뮤니케이션서비스,22950.0,22960.0,299.0,298.0,-1.0,SELL,6862050.0,6839100.0,-22950.0,22950.0,2033274.0,3.4424999999999994,304.9911,116955376.73849998,116955071.7474,117256506.7474,0.0105227196219874,0.95,0.05,0.061557037209559,0.058479185349081,0.0586723773746873,0.058476301179748,5952191.747399986,True
A2,2026-04-27,2026-04-28,476800,ETF_010,KODEX 한국부동산리츠인프라,5100.0,5065.0,1543.0,1545.0,2.0,BUY,7869300.0,7879500.0,10200.0,10200.0,2033274.0,1.5299999999999998,304.9911,116955376.73849998,116955071.7474,117256506.7474,0.0105227196219874,0.95,0.05,0.0709451298971673,0.067397873402309,0.0672846364096191,0.0673720248491504,5952191.747399986,True
A2,2026-04-28,2026-04-29,117460,ETF_001,KODEX 에너지화학,18325.0,19240.0,676.0,1526.0,850.0,BUY,12387700.0,27963950.0,15576250.0,15576250.0,128651765.0,2336.4375,19297.76475,117803706.7474,117784408.98264998,119065668.98264998,0.0154290988656806,0.95,0.05,0.25,0.2375,0.1051554347654124,0.2374163969708349,5916768.982649982,True
A2,2026-04-28,2026-04-29,117680,ETF_002,KODEX 철강,18185.0,17980.0,782.0,1538.0,756.0,BUY,14220670.0,27968530.0,13747860.0,13747860.0,128651765.0,2062.179,19297.76475,117803706.7474,117784408.98264998,119065668.98264998,0.0154290988656806,0.95,0.05,0.25,0.2375,0.1207149621403051,0.2374552815739802,5916768.982649982,True
A2,2026-04-28,2026-04-29,139260,ETF_003,TIGER 200 IT,112795.0,114730.0,135.0,248.0,113.0,BUY,15227325.0,27973160.0,12745835.0,12745835.0,128651765.0,1911.87525,19297.76475,117803706.7474,117784408.98264998,119065668.98264998,0.0154290988656806,0.95,0.05,0.25,0.2375,0.1292601516576309,0.2374945906815267,5916768.982649982,True
A2,2026-04-28,2026-04-29,139270,ETF_004,TIGER 200 금융,16900.0,16865.0,647.0,0.0,-647.0,SELL,10934300.0,0.0,-10934300.0,10934300.0,128651765.0,1640.145,19297.76475,117803706.7474,117784408.98264998,119065668.98264998,0.0154290988656806,0.95,0.05,0.0,0.0,0.0928179622008483,0.0,5916768.982649982,True
A2,2026-04-28,2026-04-29,227550,ETF_005,TIGER 200 산업재,16030.0,16145.0,751.0,0.0,-751.0,SELL,12038530.0,0.0,-12038530.0,12038530.0,128651765.0,1805.7795,19297.76475,117803706.7474,117784408.98264998,119065668.98264998,0.0154290988656806,0.95,0.05,0.0,0.0,0.1021914363510951,0.0,5916768.982649982,True
A2,2026-04-28,2026-04-29,266390,ETF_006,KODEX 경기소비재,12340.0,12220.0,1048.0,0.0,-1048.0,SELL,12932320.0,0.0,-12932320.0,12932320.0,128651765.0,1939.848,19297.76475,117803706.7474,117784408.98264998,119065668.98264998,0.0154290988656806,0.95,0.05,0.0,0.0,0.1097785490547429,0.0,5916768.982649982,True
A2,2026-04-28,2026-04-29,266410,ETF_007,KODEX 필수소비재,10465.0,10330.0,1314.0,0.0,-1314.0,SELL,13751010.0,0.0,-13751010.0,13751010.0,128651765.0,2062.6515,19297.76475,117803706.7474,117784408.98264998,119065668.98264998,0.0154290988656806,0.95,0.05,0.0,0.0,0.1167281605958761,0.0,5916768.982649982,True
A2,2026-04-28,2026-04-29,266420,ETF_008,KODEX 헬스케어,22000.0,21780.0,259.0,1271.0,1012.0,BUY,5698000.0,27962000.0,22264000.0,22264000.0,128651765.0,3339.5999999999995,19297.76475,117803706.7474,117784408.98264998,119065668.98264998,0.0154290988656806,0.95,0.05,0.25,0.2375,0.0483685968576346,0.23739984129919,5916768.982649982,True
A2,2026-04-28,2026-04-29,315270,ETF_009,TIGER 200 커뮤니케이션서비스,23070.0,22895.0,298.0,0.0,-298.0,SELL,6874860.0,0.0,-6874860.0,6874860.0,128651765.0,1031.2289999999998,19297.76475,117803706.7474,117784408.98264998,119065668.98264998,0.0154290988656806,0.95,0.05,0.0,0.0,0.05835860508822,0.0,5916768.982649982,True
A2,2026-04-28,2026-04-29,476800,ETF_010,KODEX 한국부동산리츠인프라,5040.0,4880.0,1545.0,0.0,-1545.0,SELL,7786800.0,0.0,-7786800.0,7786800.0,128651765.0,1168.02,19297.76475,117803706.7474,117784408.98264998,119065668.98264998,0.0154290988656806,0.95,0.05,0.0,0.0,0.0660997876467232,0.0,5916768.982649982,True
A2,2026-04-29,2026-04-30,117460,ETF_001,KODEX 에너지화학,19150.0,18925.0,1526.0,1969.0,443.0,BUY,29222900.0,37706350.0,8483450.0,8483450.0,55029260.0,1272.5174999999997,8254.389,119084568.98264998,119076314.59364998,116997199.59364998,-0.0173725088572879,0.95,0.05,0.3333333333333333,0.3166666666666666,0.2453961940632092,0.3166570121747014,6040654.593649983,True
A2,2026-04-29,2026-04-30,117680,ETF_002,KODEX 철강,17980.0,17385.0,1538.0,2097.0,559.0,BUY,27653240.0,37704060.0,10050820.0,10050820.0,55029260.0,1507.6229999999998,8254.389,119084568.98264998,119076314.59364998,116997199.59364998,-0.0173725088572879,0.95,0.05,0.3333333333333333,0.3166666666666666,0.2322151411912062,0.3166377808102792,6040654.593649983,True
A2,2026-04-29,2026-04-30,139260,ETF_003,TIGER 200 IT,115770.0,114575.0,248.0,325.0,77.0,BUY,28710960.0,37625250.0,8914290.0,8914290.0,55029260.0,1337.1435,8254.389,119084568.98264998,119076314.59364998,116997199.59364998,-0.0173725088572879,0.95,0.05,0.3333333333333333,0.3166666666666666,0.2410972323725926,0.3159759363429816,6040654.593649983,True
A2,2026-04-29,2026-04-30,266420,ETF_008,KODEX 헬스케어,21700.0,21120.0,1271.0,0.0,-1271.0,SELL,27580700.0,0.0,-27580700.0,27580700.0,55029260.0,4137.105,8254.389,119084568.98264998,119076314.59364998,116997199.59364998,-0.0173725088572879,0.95,0.05,0.0,0.0,0.2316059942578989,0.0,6040654.593649983,True
A2,2026-04-30,2026-05-04,117460,ETF_001,KODEX 에너지화학,19255.0,18975.0,1969.0,1964.0,-5.0,SELL,37913095.0,37816820.0,-96275.0,96275.0,1117605.0,14.441249999999998,167.64075,119442314.59364998,119442146.95289998,121038706.95289998,0.0345436247473169,0.95,0.05,0.3333333333333333,0.3166666666666666,0.3174176181111581,0.3166120248567906,6056351.952899978,True
A2,2026-04-30,2026-05-04,117680,ETF_002,KODEX 철강,17770.0,17765.0,2097.0,2128.0,31.0,BUY,37263690.0,37814560.0,550870.0,550870.0,1117605.0,82.6305,167.64075,119442314.59364998,119442146.95289998,121038706.95289998,0.0345436247473169,0.95,0.05,0.3333333333333333,0.3166666666666666,0.3119806420929914,0.3165931035626104,6056351.952899978,True
A2,2026-04-30,2026-05-04,139260,ETF_003,TIGER 200 IT,117615.0,124335.0,325.0,321.0,-4.0,SELL,38224875.0,37754415.0,-470460.0,470460.0,1117605.0,70.569,167.64075,119442314.59364998,119442146.95289998,121038706.95289998,0.0345436247473169,0.95,0.05,0.3333333333333333,0.3166666666666666,0.3200279158189738,0.3160895543420516,6056351.952899978,True
