PJH-02/HYFE38_ML/testing/backtest_state/out_2024_kofr_decision_regime_a0_a6_k10/A2b_k10/trade_history.csv
strategy,decision_date,execution_date,ticker,ETF_id,name,open,close,prev_qty,target_qty,delta_qty,side,prev_value_open,target_value_open,delta_value_open,trade_turnover_value,day_turnover_value,commission_allocated,day_commission,nav_open_pre,nav_open_post,nav_close,daily_return,stock_ratio,cash_weight,target_sleeve_weight,target_portfolio_weight,prev_portfolio_weight_open,actual_portfolio_weight_open,cash_after_rebalance,rebalanced
A2b_LLM_SEMANTIC,2024-01-05,2024-01-08,117460,ETF_001,KODEX 에너지화학,15298.0,15175.0,0.0,0.0,0.0,HOLD,0.0,0.0,0.0,0.0,949839216.0,0.0,142475.88239999997,1000000000.0,999857524.1176,998072116.4680238,-0.0019278835319762,0.95,0.05,0.0,0.0,0.0,0.0,50018308.11759997,True
A2b_LLM_SEMANTIC,2024-01-05,2024-01-08,117680,ETF_002,KODEX 철강,8836.0,8724.0,0.0,0.0,0.0,HOLD,0.0,0.0,0.0,0.0,949839216.0,0.0,142475.88239999997,1000000000.0,999857524.1176,998072116.4680238,-0.0019278835319762,0.95,0.05,0.0,0.0,0.0,0.0,50018308.11759997,True
A2b_LLM_SEMANTIC,2024-01-05,2024-01-08,139260,ETF_003,TIGER 200 IT,31194.0,31155.0,0.0,7612.0,7612.0,BUY,0.0,237448728.0,237448728.0,237448728.0,949839216.0,35617.3092,142475.88239999997,1000000000.0,999857524.1176,998072116.4680238,-0.0019278835319762,0.95,0.05,0.25,0.2375,0.0,0.2374825635377946,50018308.11759997,True
A2b_LLM_SEMANTIC,2024-01-05,2024-01-08,139270,ETF_004,TIGER 200 금융,5704.0,5695.0,0.0,41631.0,41631.0,BUY,0.0,237463224.0,237463224.0,237463224.0,949839216.0,35619.48359999999,142475.88239999997,1000000000.0,999857524.1176,998072116.4680238,-0.0019278835319762,0.95,0.05,0.25,0.2375,0.0,0.2374970616034193,50018308.11759997,True
A2b_LLM_SEMANTIC,2024-01-05,2024-01-08,266390,ETF_006,KODEX 경기소비재,7956.0,7985.0,0.0,29847.0,29847.0,BUY,0.0,237462732.0,237462732.0,237462732.0,949839216.0,35619.409799999994,142475.88239999997,1000000000.0,999857524.1176,998072116.4680238,-0.0019278835319762,0.95,0.05,0.25,0.2375,0.0,0.2374965695333112,50018308.11759997,True
A2b_LLM_SEMANTIC,2024-01-05,2024-01-08,266410,ETF_007,KODEX 필수소비재,6217.0,6165.0,0.0,38196.0,38196.0,BUY,0.0,237464532.0,237464532.0,237464532.0,949839216.0,35619.67979999999,142475.88239999997,1000000000.0,999857524.1176,998072116.4680238,-0.0019278835319762,0.95,0.05,0.25,0.2375,0.0,0.2374983697898043,50018308.11759997,True
A2b_LLM_SEMANTIC,2024-01-05,2024-01-08,266420,ETF_008,KODEX 헬스케어,13995.0,13701.0,0.0,0.0,0.0,HOLD,0.0,0.0,0.0,0.0,949839216.0,0.0,142475.88239999997,1000000000.0,999857524.1176,998072116.4680238,-0.0019278835319762,0.95,0.05,0.0,0.0,0.0,0.0,50018308.11759997,True
A2b_LLM_SEMANTIC,2024-01-05,2024-01-08,315270,ETF_009,TIGER 200 커뮤니케이션서비스,17691.0,17643.0,0.0,0.0,0.0,HOLD,0.0,0.0,0.0,0.0,949839216.0,0.0,142475.88239999997,1000000000.0,999857524.1176,998072116.4680238,-0.0019278835319762,0.95,0.05,0.0,0.0,0.0,0.0,50018308.11759997,True
A2b_LLM_SEMANTIC,2024-01-08,2024-01-09,117460,ETF_001,KODEX 에너지화학,15244.0,15170.0,0.0,0.0,0.0,HOLD,0.0,0.0,0.0,0.0,2737846.0,0.0,410.6769,1007082318.4680238,1007081907.7911236,1000259655.7402143,0.0021917647393376,0.95,0.05,0.0,0.0,0.0,0.0,50378207.79112375,True
A2b_LLM_SEMANTIC,2024-01-08,2024-01-09,117680,ETF_002,KODEX 철강,8780.0,8672.0,0.0,0.0,0.0,HOLD,0.0,0.0,0.0,0.0,2737846.0,0.0,410.6769,1007082318.4680238,1007081907.7911236,1000259655.7402143,0.0021917647393376,0.95,0.05,0.0,0.0,0.0,0.0,50378207.79112375,True
A2b_LLM_SEMANTIC,2024-01-08,2024-01-09,139260,ETF_003,TIGER 200 IT,31511.0,31004.0,7612.0,7590.0,-22.0,SELL,239861732.0,239168490.0,-693242.0,693242.0,2737846.0,103.9863,410.6769,1007082318.4680238,1007081907.7911236,1000259655.7402143,0.0021917647393376,0.95,0.05,0.25,0.2375,0.2381749014965115,0.2374866315735714,50378207.79112375,True
A2b_LLM_SEMANTIC,2024-01-08,2024-01-09,139270,ETF_004,TIGER 200 금융,5744.0,5731.0,41631.0,41640.0,9.0,BUY,239128464.0,239180160.0,51696.0,51696.0,2737846.0,7.754399999999999,410.6769,1007082318.4680238,1007081907.7911236,1000259655.7402143,0.0021917647393376,0.95,0.05,0.25,0.2375,0.237446790212505,0.237498219508882,50378207.79112375,True
A2b_LLM_SEMANTIC,2024-01-08,2024-01-09,266390,ETF_006,KODEX 경기소비재,8042.0,8009.0,29847.0,29741.0,-106.0,SELL,240029574.0,239177122.0,-852452.0,852452.0,2737846.0,127.8678,410.6769,1007082318.4680238,1007081907.7911236,1000259655.7402143,0.0021917647393376,0.95,0.05,0.25,0.2375,0.238341563145636,0.2374952028724232,50378207.79112375,True
A2b_LLM_SEMANTIC,2024-01-08,2024-01-09,266410,ETF_007,KODEX 필수소비재,6232.0,6194.0,38196.0,38379.0,183.0,BUY,238037472.0,239177928.0,1140456.0,1140456.0,2737846.0,171.0684,410.6769,1007082318.4680238,1007081907.7911236,1000259655.7402143,0.0021917647393376,0.95,0.05,0.25,0.2375,0.2363634706268135,0.2374960032045449,50378207.79112375,True
A2b_LLM_SEMANTIC,2024-01-08,2024-01-09,266420,ETF_008,KODEX 헬스케어,13885.0,13890.0,0.0,0.0,0.0,HOLD,0.0,0.0,0.0,0.0,2737846.0,0.0,410.6769,1007082318.4680238,1007081907.7911236,1000259655.7402143,0.0021917647393376,0.95,0.05,0.0,0.0,0.0,0.0,50378207.79112375,True
A2b_LLM_SEMANTIC,2024-01-08,2024-01-09,315270,ETF_009,TIGER 200 커뮤니케이션서비스,17682.0,17825.0,0.0,0.0,0.0,HOLD,0.0,0.0,0.0,0.0,2737846.0,0.0,410.6769,1007082318.4680238,1007081907.7911236,1000259655.7402143,0.0021917647393376,0.95,0.05,0.0,0.0,0.0,0.0,50378207.79112375,True
A2b_LLM_SEMANTIC,2024-01-09,2024-01-10,117460,ETF_001,KODEX 에너지화학,15264.0,15038.0,0.0,0.0,0.0,HOLD,0.0,0.0,0.0,0.0,482899340.0,0.0,72434.901,1005667571.7402143,1005595136.8392144,995347831.957952,-0.0049105487300972,0.95,0.05,0.0,0.0,0.0,0.0,50315133.83921445,True
A2b_LLM_SEMANTIC,2024-01-09,2024-01-10,117680,ETF_002,KODEX 철강,8658.0,8579.0,0.0,0.0,0.0,HOLD,0.0,0.0,0.0,0.0,482899340.0,0.0,72434.901,1005667571.7402143,1005595136.8392144,995347831.957952,-0.0049105487300972,0.95,0.05,0.0,0.0,0.0,0.0,50315133.83921445,True
A2b_LLM_SEMANTIC,2024-01-09,2024-01-10,139260,ETF_003,TIGER 200 IT,31185.0,30425.0,7590.0,7658.0,68.0,BUY,236694150.0,238814730.0,2120580.0,2120580.0,482899340.0,318.087,72434.901,1005667571.7402143,1005595136.8392144,995347831.957952,-0.0049105487300972,0.95,0.05,0.25,0.2375,0.2353602290172514,0.2374859635366199,50315133.83921445,True
A2b_LLM_SEMANTIC,2024-01-09,2024-01-10,139270,ETF_004,TIGER 200 금융,5790.0,5695.0,41640.0,0.0,-41640.0,SELL,241095600.0,0.0,-241095600.0,241095600.0,482899340.0,36164.34,72434.901,1005667571.7402143,1005595136.8392144,995347831.957952,-0.0049105487300972,0.95,0.05,0.0,0.0,0.2397368740674479,0.0,50315133.83921445,True
A2b_LLM_SEMANTIC,2024-01-09,2024-01-10,266390,ETF_006,KODEX 경기소비재,8013.0,7942.0,29741.0,29805.0,64.0,BUY,238314633.0,238827465.0,512832.0,512832.0,482899340.0,76.92479999999999,72434.901,1005667571.7402143,1005595136.8392144,995347831.957952,-0.0049105487300972,0.95,0.05,0.25,0.2375,0.2369715795723815,0.2374986276790102,50315133.83921445,True
A2b_LLM_SEMANTIC,2024-01-09,2024-01-10,266410,ETF_007,KODEX 필수소비재,6232.0,6175.0,38379.0,38322.0,-57.0,SELL,239177928.0,238822704.0,-355224.0,355224.0,482899340.0,53.28359999999999,72434.901,1005667571.7402143,1005595136.8392144,995347831.957952,-0.0049105487300972,0.95,0.05,0.25,0.2375,0.2378300093599764,0.2374938931692403,50315133.83921445,True
A2b_LLM_SEMANTIC,2024-01-09,2024-01-10,266420,ETF_008,KODEX 헬스케어,13920.0,13880.0,0.0,0.0,0.0,HOLD,0.0,0.0,0.0,0.0,482899340.0,0.0,72434.901,1005667571.7402143,1005595136.8392144,995347831.957952,-0.0049105487300972,0.95,0.05,0.0,0.0,0.0,0.0,50315133.83921445,True
A2b_LLM_SEMANTIC,2024-01-09,2024-01-10,315270,ETF_009,TIGER 200 커뮤니케이션서비스,17854.0,17844.0,0.0,13376.0,13376.0,BUY,0.0,238815104.0,238815104.0,238815104.0,482899340.0,35822.2656,72434.901,1005667571.7402143,1005595136.8392144,995347831.957952,-0.0049105487300972,0.95,0.05,0.25,0.2375,0.0,0.2374863354556818,50315133.83921445,True
A2b_LLM_SEMANTIC,2024-01-10,2024-01-11,117460,ETF_001,KODEX 에너지화학,14994.0,14974.0,0.0,0.0,0.0,HOLD,0.0,0.0,0.0,0.0,6841825.0,0.0,1026.2737499999998,997189047.957952,997188021.684202,997859015.1584886,0.002522920249494,0.95,0.05,0.0,0.0,0.0,0.0,49903636.68420196,True
A2b_LLM_SEMANTIC,2024-01-10,2024-01-11,117680,ETF_002,KODEX 철강,8579.0,8560.0,0.0,0.0,0.0,HOLD,0.0,0.0,0.0,0.0,6841825.0,0.0,1026.2737499999998,997189047.957952,997188021.684202,997859015.1584886,0.002522920249494,0.95,0.05,0.0,0.0,0.0,0.0,49903636.68420196,True
A2b_LLM_SEMANTIC,2024-01-10,2024-01-11,139260,ETF_003,TIGER 200 IT,30469.0,30727.0,7658.0,7772.0,114.0,BUY,233331602.0,236805068.0,3473466.0,3473466.0,6841825.0,521.0198999999999,1026.2737499999998,997189047.957952,997188021.684202,997859015.1584886,0.002522920249494,0.95,0.05,0.25,0.2375,0.2339893347984692,0.2374728364667355,49903636.68420196,True
A2b_LLM_SEMANTIC,2024-01-10,2024-01-11,139270,ETF_004,TIGER 200 금융,5771.0,5785.0,0.0,0.0,0.0,HOLD,0.0,0.0,0.0,0.0,6841825.0,0.0,1026.2737499999998,997189047.957952,997188021.684202,997859015.1584886,0.002522920249494,0.95,0.05,0.0,0.0,0.0,0.0,49903636.68420196,True
A2b_LLM_SEMANTIC,2024-01-10,2024-01-11,266390,ETF_006,KODEX 경기소비재,7942.0,7932.0,29805.0,29820.0,15.0,BUY,236711310.0,236830440.0,119130.0,119130.0,6841825.0,17.869499999999995,1026.2737499999998,997189047.957952,997188021.684202,997859015.1584886,0.002522920249494,0.95,0.05,0.25,0.2375,0.2373785697754487,0.2374982800134371,49903636.68420196,True
A2b_LLM_SEMANTIC,2024-01-10,2024-01-11,266410,ETF_007,KODEX 필수소비재,6179.0,6127.0,38322.0,38328.0,6.0,BUY,236791638.0,236828712.0,37074.0,37074.0,6841825.0,5.561099999999999,1026.2737499999998,997189047.957952,997188021.684202,997859015.1584886,0.002522920249494,0.95,0.05,0.25,0.2375,0.2374591242101013,0.2374965471406363,49903636.68420196,True
A2b_LLM_SEMANTIC,2024-01-10,2024-01-11,266420,ETF_008,KODEX 헬스케어,13885.0,13841.0,0.0,0.0,0.0,HOLD,0.0,0.0,0.0,0.0,6841825.0,0.0,1026.2737499999998,997189047.957952,997188021.684202,997859015.1584886,0.002522920249494,0.95,0.05,0.0,0.0,0.0,0.0,49903636.68420196,True
A2b_LLM_SEMANTIC,2024-01-10,2024-01-11,315270,ETF_009,TIGER 200 커뮤니케이션서비스,17945.0,18017.0,13376.0,13197.0,-179.0,SELL,240032320.0,236820165.0,-3212155.0,3212155.0,6841825.0,481.8232499999999,1026.2737499999998,997189047.957952,997188021.684202,997859015.1584886,0.002522920249494,0.95,0.05,0.25,0.2375,0.2407089412900585,0.2374879760388841,49903636.68420196,True
A2b_LLM_SEMANTIC,2024-01-11,2024-01-12,117460,ETF_001,KODEX 에너지화학,15028.0,14783.0,0.0,0.0,0.0,HOLD,0.0,0.0,0.0,0.0,3131439.0,0.0,469.71584999999993,995437093.1584886,995436623.4426386,987295941.001418,-0.010585738061797,0.95,0.05,0.0,0.0,0.0,0.0,49820573.44263864,True
A2b_LLM_SEMANTIC,2024-01-11,2024-01-12,117680,ETF_002,KODEX 철강,8560.0,8443.0,0.0,0.0,0.0,HOLD,0.0,0.0,0.0,0.0,3131439.0,0.0,469.71584999999993,995437093.1584886,995436623.4426386,987295941.001418,-0.010585738061797,0.95,0.05,0.0,0.0,0.0,0.0,49820573.44263864,True
A2b_LLM_SEMANTIC,2024-01-11,2024-01-12,139260,ETF_003,TIGER 200 IT,30557.0,30090.0,7772.0,7736.0,-36.0,SELL,237489004.0,236388952.0,-1100052.0,1100052.0,3131439.0,165.00779999999995,469.71584999999993,995437093.1584886,995436623.4426386,987295941.001418,-0.010585738061797,0.95,0.05,0.25,0.2375,0.2385776114153585,0.2374726290283228,49820573.44263864,True
A2b_LLM_SEMANTIC,2024-01-11,2024-01-12,139270,ETF_004,TIGER 200 금융,5830.0,5762.0,0.0,0.0,0.0,HOLD,0.0,0.0,0.0,0.0,3131439.0,0.0,469.71584999999993,995437093.1584886,995436623.4426386,987295941.001418,-0.010585738061797,0.95,0.05,0.0,0.0,0.0,0.0,49820573.44263864,True
A2b_LLM_SEMANTIC,2024-01-11,2024-01-12,266390,ETF_006,KODEX 경기소비재,7942.0,7894.0,29820.0,29767.0,-53.0,SELL,236830440.0,236409514.0,-420926.0,420926.0,3131439.0,63.13889999999999,469.71584999999993,995437093.1584886,995436623.4426386,987295941.001418,-0.010585738061797,0.95,0.05,0.25,0.2375,0.2379160286749461,0.2374932852906259,49820573.44263864,True
A2b_LLM_SEMANTIC,2024-01-11,2024-01-12,266410,ETF_007,KODEX 필수소비재,6127.0,6079.0,38328.0,38585.0,257.0,BUY,234835656.0,236410295.0,1574639.0,1574639.0,3131439.0,236.19585,469.71584999999993,995437093.1584886,995436623.4426386,987295941.001418,-0.010585738061797,0.95,0.05,0.25,0.2375,0.2359121009393715,0.2374940698709615,49820573.44263864,True
A2b_LLM_SEMANTIC,2024-01-11,2024-01-12,266420,ETF_008,KODEX 헬스케어,13667.0,13562.0,0.0,0.0,0.0,HOLD,0.0,0.0,0.0,0.0,3131439.0,0.0,469.71584999999993,995437093.1584886,995436623.4426386,987295941.001418,-0.010585738061797,0.95,0.05,0.0,0.0,0.0,0.0,49820573.44263864,True
A2b_LLM_SEMANTIC,2024-01-11,2024-01-12,315270,ETF_009,TIGER 200 커뮤니케이션서비스,17911.0,17816.0,13197.0,13199.0,2.0,BUY,236371467.0,236407289.0,35822.0,35822.0,3131439.0,5.373299999999999,469.71584999999993,995437093.1584886,995436623.4426386,987295941.001418,-0.010585738061797,0.95,0.05,0.25,0.2375,0.2374549518242295,0.2374910500905664,49820573.44263864,True
A2b_LLM_SEMANTIC,2024-01-12,2024-01-15,117460,ETF_001,KODEX 에너지화학,14876.0,14636.0,0.0,0.0,0.0,HOLD,0.0,0.0,0.0,0.0,1410247800.0,0.0,211537.17,989953592.001418,989742054.8314182,986283643.4706402,-0.001025323298454,0.95,0.05,0.0,0.0,0.0,0.0,49514308.83141816,True
A2b_LLM_SEMANTIC,2024-01-12,2024-01-15,117680,ETF_002,KODEX 철강,8424.0,8373.0,0.0,0.0,0.0,HOLD,0.0,0.0,0.0,0.0,1410247800.0,0.0,211537.17,989953592.001418,989742054.8314182,986283643.4706402,-0.001025323298454,0.95,0.05,0.0,0.0,0.0,0.0,49514308.83141816,True
A2b_LLM_SEMANTIC,2024-01-12,2024-01-15,139260,ETF_003,TIGER 200 IT,30187.0,30177.0,7736.0,0.0,-7736.0,SELL,233526632.0,0.0,-233526632.0,233526632.0,1410247800.0,35028.9948,211537.17,989953592.001418,989742054.8314182,986283643.4706402,-0.001025323298454,0.95,0.05,0.0,0.0,0.2358965449358816,0.0,49514308.83141816,True
A2b_LLM_SEMANTIC,2024-01-12,2024-01-15,139270,ETF_004,TIGER 200 금융,5848.0,5871.0,0.0,40195.0,40195.0,BUY,0.0,235060360.0,235060360.0,235060360.0,1410247800.0,35259.054,211537.17,989953592.001418,989742054.8314182,986283643.4706402,-0.001025323298454,0.95,0.05,0.25,0.2375,0.0,0.237496586966831,49514308.83141816,True
A2b_LLM_SEMANTIC,2024-01-12,2024-01-15,227550,ETF_005,TIGER 200 산업재,6209.0,6209.0,0.0,37858.0,37858.0,BUY,0.0,235060322.0,235060322.0,235060322.0,1410247800.0,35259.048299999995,211537.17,989953592.001418,989742054.8314182,986283643.4706402,-0.001025323298454,0.95,0.05,0.25,0.2375,0.0,0.2374965485729891,49514308.83141816,True
A2b_LLM_SEMANTIC,2024-01-12,2024-01-15,266390,ETF_006,KODEX 경기소비재,7889.0,7870.0,29767.0,0.0,-29767.0,SELL,234831863.0,0.0,-234831863.0,234831863.0,1410247800.0,35224.779449999995,211537.17,989953592.001418,989742054.8314182,986283643.4706402,-0.001025323298454,0.95,0.05,0.0,0.0,0.2372150218933329,0.0,49514308.83141816,True
A2b_LLM_SEMANTIC,2024-01-12,2024-01-15,266410,ETF_007,KODEX 필수소비재,6108.0,6051.0,38585.0,0.0,-38585.0,SELL,235677180.0,0.0,-235677180.0,235677180.0,1410247800.0,35351.577,211537.17,989953592.001418,989742054.8314182,986283643.4706402,-0.001025323298454,0.95,0.05,0.0,0.0,0.2380689174767521,0.0,49514308.83141816,True
A2b_LLM_SEMANTIC,2024-01-12,2024-01-15,266420,ETF_008,KODEX 헬스케어,13547.0,13319.0,0.0,17351.0,17351.0,BUY,0.0,235053997.0,235053997.0,235053997.0,1410247800.0,35258.09955,211537.17,989953592.001418,989742054.8314182,986283643.4706402,-0.001025323298454,0.95,0.05,0.25,0.2375,0.0,0.2374901580190371,49514308.83141816,True
A2b_LLM_SEMANTIC,2024-01-12,2024-01-15,315270,ETF_009,TIGER 200 커뮤니케이션서비스,17887.0,17854.0,13199.0,13141.0,-58.0,SELL,236090513.0,235053067.0,-1037446.0,1037446.0,1410247800.0,155.6169,211537.17,989953592.001418,989742054.8314182,986283643.4706402,-0.001025323298454,0.95,0.05,0.25,0.2375,0.2384864451299064,0.2374892183802742,49514308.83141816,True
A2b_LLM_SEMANTIC,2024-01-15,2024-01-16,117460,ETF_001,KODEX 에너지화학,14720.0,14519.0,0.0,6371.0,6371.0,BUY,0.0,93781120.0,93781120.0,93781120.0,937795208.0,14067.168,140669.2812,987322939.4706402,987182270.18944,975779636.6799616,-0.0106500871835569,0.95,0.05,0.1,0.095,0.0,0.0949987888072619,49403870.18944013,True
A2b_LLM_SEMANTIC,2024-01-15,2024-01-16,117680,ETF_002,KODEX 철강,8368.0,8340.0,0.0,5603.0,5603.0,BUY,0.0,46885904.0,46885904.0,46885904.0,937795208.0,7032.8856000000005,140669.2812,987322939.4706402,987182270.18944,975779636.6799616,-0.0106500871835569,0.95,0.05,0.05,0.0475,0.0,0.0474946779493949,49403870.18944013,True
A2b_LLM_SEMANTIC,2024-01-15,2024-01-16,139260,ETF_003,TIGER 200 IT,30075.0,29686.0,0.0,4677.0,4677.0,BUY,0.0,140660775.0,140660775.0,140660775.0,937795208.0,21099.11625,140669.2812,987322939.4706402,987182270.18944,975779636.6799616,-0.0106500871835569,0.95,0.05,0.15,0.1425,0.0,0.1424871366186583,49403870.18944013,True
A2b_LLM_SEMANTIC,2024-01-15,2024-01-16,139270,ETF_004,TIGER 200 금융,5907.0,5794.0,40195.0,15876.0,-24319.0,SELL,237431865.0,93779532.0,-143652333.0,143652333.0,937795208.0,21547.84995,140669.2812,987322939.4706402,987182270.18944,975779636.6799616,-0.0106500871835569,0.95,0.05,0.1,0.095,0.2404804502236124,0.0949971801884202,49403870.18944013,True
A2b_LLM_SEMANTIC,2024-01-15,2024-01-16,227550,ETF_005,TIGER 200 산업재,6185.0,6175.0,37858.0,0.0,-37858.0,SELL,234151730.0,0.0,-234151730.0,234151730.0,937795208.0,35122.7595,140669.2812,987322939.4706402,987182270.18944,975779636.6799616,-0.0106500871835569,0.95,0.05,0.0,0.0,0.2371581988417508,0.0,49403870.18944013,True
A2b_LLM_SEMANTIC,2024-01-15,2024-01-16,266390,ETF_006,KODEX 경기소비재,7832.0,7775.0,0.0,5987.0,5987.0,BUY,0.0,46890184.0,46890184.0,46890184.0,937795208.0,7033.527599999999,140669.2812,987322939.4706402,987182270.18944,975779636.6799616,-0.0106500871835569,0.95,0.05,0.05,0.0475,0.0,0.0474990135215878,49403870.18944013,True
A2b_LLM_SEMANTIC,2024-01-15,2024-01-16,266410,ETF_007,KODEX 필수소비재,6022.0,5922.0,0.0,23359.0,23359.0,BUY,0.0,140667898.0,140667898.0,140667898.0,937795208.0,21100.1847,140669.2812,987322939.4706402,987182270.18944,975779636.6799616,-0.0106500871835569,0.95,0.05,0.15,0.1425,0.0,0.1424943521048102,49403870.18944013,True
A2b_LLM_SEMANTIC,2024-01-15,2024-01-16,266420,ETF_008,KODEX 헬스케어,13413.0,13309.0,17351.0,13983.0,-3368.0,SELL,232728963.0,187553979.0,-45174984.0,45174984.0,937795208.0,6776.247600000001,140669.2812,987322939.4706402,987182270.18944,975779636.6799616,-0.0106500871835569,0.95,0.05,0.2,0.19,0.235717163752702,0.1899892093524009,49403870.18944013,True
A2b_LLM_SEMANTIC,2024-01-15,2024-01-16,315270,ETF_009,TIGER 200 커뮤니케이션서비스,17768.0,17557.0,13141.0,10556.0,-2585.0,SELL,233489288.0,187559008.0,-45930280.0,45930280.0,937795208.0,6889.542,140669.2812,987322939.4706402,987182270.18944,975779636.6799616,-0.0106500871835569,0.95,0.05,0.2,0.19,0.2364872511978571,0.1899943036497277,49403870.18944013,True
A2b_LLM_SEMANTIC,2024-01-16,2024-01-17,117460,ETF_001,KODEX 에너지화학,14519.0,14014.0,6371.0,0.0,-6371.0,SELL,92500549.0,0.0,-92500549.0,92500549.0,467725962.0,13875.08235,70158.8943,975501481.6799616,975431322.7856616,956153101.6758088,-0.0201136960297011,0.95,0.05,0.0,0.0,0.0948235863678033,0.0,48794984.7856617,True
A2b_LLM_SEMANTIC,2024-01-16,2024-01-17,117680,ETF_002,KODEX 철강,8363.0,8134.0,5603.0,0.0,-5603.0,SELL,46857889.0,0.0,-46857889.0,46857889.0,467725962.0,7028.68335,70158.8943,975501481.6799616,975431322.7856616,956153101.6758088,-0.0201136960297011,0.95,0.05,0.0,0.0,0.0480346671737531,0.0,48794984.7856617,True
A2b_LLM_SEMANTIC,2024-01-16,2024-01-17,139260,ETF_003,TIGER 200 IT,29978.0,29038.0,4677.0,3091.0,-1586.0,SELL,140207106.0,92661998.0,-47545108.0,47545108.0,467725962.0,7131.7662,70158.8943,975501481.6799616,975431322.7856616,956153101.6758088,-0.0201136960297011,0.95,0.05,0.1,0.095,0.1437282347931876,0.0949959221479309,48794984.7856617,True
A2b_LLM_SEMANTIC,2024-01-16,2024-01-17,139270,ETF_004,TIGER 200 금융,5880.0,5717.0,15876.0,23639.0,7763.0,BUY,93350880.0,138997320.0,45646440.0,45646440.0,467725962.0,6846.966,70158.8943,975501481.6799616,975431322.7856616,956153101.6758088,-0.0201136960297011,0.95,0.05,0.15,0.1425,0.0956952723836314,0.1424983151074623,48794984.7856617,True
A2b_LLM_SEMANTIC,2024-01-16,2024-01-17,227550,ETF_005,TIGER 200 산업재,6052.0,6019.0,0.0,30623.0,30623.0,BUY,0.0,185330396.0,185330396.0,185330396.0,467725962.0,27799.5594,70158.8943,975501481.6799616,975431322.7856616,956153101.6758088,-0.0201136960297011,0.95,0.05,0.2,0.19,0.0,0.1899984054958669,48794984.7856617,True
A2b_LLM_SEMANTIC,2024-01-16,2024-01-17,266390,ETF_006,KODEX 경기소비재,7727.0,7622.0,5987.0,0.0,-5987.0,SELL,46261549.0,0.0,-46261549.0,46261549.0,467725962.0,6939.232349999999,70158.8943,975501481.6799616,975431322.7856616,956153101.6758088,-0.0201136960297011,0.95,0.05,0.0,0.0,0.0474233508290839,0.0,48794984.7856617,True
A2b_LLM_SEMANTIC,2024-01-16,2024-01-17,266410,ETF_007,KODEX 필수소비재,5927.0,5793.0,23359.0,23451.0,92.0,BUY,138448793.0,138994077.0,545284.0,545284.0,467725962.0,81.79260000000001,70158.8943,975501481.6799616,975431322.7856616,956153101.6758088,-0.0201136960297011,0.95,0.05,0.15,0.1425,0.1419257639276674,0.1424949904243972,48794984.7856617,True
A2b_LLM_SEMANTIC,2024-01-16,2024-01-17,266420,ETF_008,KODEX 헬스케어,13284.0,12901.0,13983.0,13951.0,-32.0,SELL,185750172.0,185325084.0,-425088.0,425088.0,467725962.0,63.7632,70158.8943,975501481.6799616,975431322.7856616,956153101.6758088,-0.0201136960297011,0.95,0.05,0.2,0.19,0.1904150588065842,0.1899929596998627,48794984.7856617,True
A2b_LLM_SEMANTIC,2024-01-16,2024-01-17,315270,ETF_009,TIGER 200 커뮤니케이션서비스,17309.0,17026.0,10556.0,10707.0,151.0,BUY,182713804.0,185327463.0,2613659.0,2613659.0,467725962.0,392.04885,70158.8943,975501481.6799616,975431322.7856616,956153101.6758088,-0.0201136960297011,0.95,0.05,0.2,0.19,0.1873024361637453,0.1899953986209271,48794984.7856617,True
A2b_LLM_SEMANTIC,2024-01-17,2024-01-18,117460,ETF_001,KODEX 에너지화학,14048.0,13980.0,0.0,0.0,0.0,HOLD,0.0,0.0,0.0,0.0,640951539.0,0.0,96142.73085,957098764.6758088,957002621.9449588,957385216.4110136,0.0012886165751546,0.95,0.05,0.0,0.0,0.0,0.0,47879755.94495869,True
A2b_LLM_SEMANTIC,2024-01-17,2024-01-18,117680,ETF_002,KODEX 철강,8111.0,8106.0,0.0,0.0,0.0,HOLD,0.0,0.0,0.0,0.0,640951539.0,0.0,96142.73085,957098764.6758088,957002621.9449588,957385216.4110136,0.0012886165751546,0.95,0.05,0.0,0.0,0.0,0.0,47879755.94495869,True
A2b_LLM_SEMANTIC,2024-01-17,2024-01-18,139260,ETF_003,TIGER 200 IT,29092.0,29262.0,3091.0,6250.0,3159.0,BUY,89923372.0,181825000.0,91901628.0,91901628.0,640951539.0,13785.244199999996,96142.73085,957098764.6758088,957002621.9449588,957385216.4110136,0.0012886165751546,0.95,0.05,0.2,0.19,0.0939541198033612,0.1899942548020077,47879755.94495869,True
A2b_LLM_SEMANTIC,2024-01-17,2024-01-18,139270,ETF_004,TIGER 200 금융,5717.0,5631.0,23639.0,0.0,-23639.0,SELL,135144163.0,0.0,-135144163.0,135144163.0,640951539.0,20271.62445,96142.73085,957098764.6758088,957002621.9449588,957385216.4110136,0.0012886165751546,0.95,0.05,0.0,0.0,0.1412018988926147,0.0,47879755.94495869,True
A2b_LLM_SEMANTIC,2024-01-17,2024-01-18,227550,ETF_005,TIGER 200 산업재,6028.0,6009.0,30623.0,0.0,-30623.0,SELL,184595444.0,0.0,-184595444.0,184595444.0,640951539.0,27689.3166,96142.73085,957098764.6758088,957002621.9449588,957385216.4110136,0.0012886165751546,0.95,0.05,0.0,0.0,0.1928697965277666,0.0,47879755.94495869,True
A2b_LLM_SEMANTIC,2024-01-17,2024-01-18,266390,ETF_006,KODEX 경기소비재,7660.0,7607.0,0.0,23737.0,23737.0,BUY,0.0,181825420.0,181825420.0,181825420.0,640951539.0,27273.813,96142.73085,957098764.6758088,957002621.9449588,957385216.4110136,0.0012886165751546,0.95,0.05,0.2,0.19,0.0,0.1899946936722787,47879755.94495869,True
A2b_LLM_SEMANTIC,2024-01-17,2024-01-18,266410,ETF_007,KODEX 필수소비재,5803.0,5865.0,23451.0,31333.0,7882.0,BUY,136086153.0,181825399.0,45739246.0,45739246.0,640951539.0,6860.8869,96142.73085,957098764.6758088,957002621.9449588,957385216.4110136,0.0012886165751546,0.95,0.05,0.2,0.19,0.1421861128888777,0.1899946717287652,47879755.94495869,True
A2b_LLM_SEMANTIC,2024-01-17,2024-01-18,266420,ETF_008,KODEX 헬스케어,12931.0,12797.0,13951.0,14061.0,110.0,BUY,180400381.0,181822791.0,1422410.0,1422410.0,640951539.0,213.3615,96142.73085,957098764.6758088,957002621.9449588,957385216.4110136,0.0012886165751546,0.95,0.05,0.2,0.19,0.1884866929706107,0.1899919465533683,47879755.94495869,True
A2b_LLM_SEMANTIC,2024-01-17,2024-01-18,315270,ETF_009,TIGER 200 커뮤니케이션서비스,17012.0,17060.0,10707.0,10688.0,-19.0,SELL,182147484.0,181824256.0,-323228.0,323228.0,640951539.0,48.4842,96142.73085,957098764.6758088,957002621.9449588,957385216.4110136,0.0012886165751546,0.95,0.05,0.2,0.19,0.1903121085541235,0.1899934773746706,47879755.94495869,True
A2b_LLM_SEMANTIC,2024-01-18,2024-01-19,117460,ETF_001,KODEX 에너지화학,14014.0,13720.0,0.0,6552.0,6552.0,BUY,0.0,91819728.0,91819728.0,91819728.0,827048552.0,13772.959199999998,124057.2828,966730739.4110136,966606682.1282138,960997040.5381548,0.0037725923329803,0.95,0.05,0.1,0.095,0.0,0.0949918200418779,48390566.12821376,True
A2b_LLM_SEMANTIC,2024-01-18,2024-01-19,117680,ETF_002,KODEX 철강,8115.0,8106.0,0.0,0.0,0.0,HOLD,0.0,0.0,0.0,0.0,827048552.0,0.0,124057.2828,966730739.4110136,966606682.1282138,960997040.5381548,0.0037725923329803,0.95,0.05,0.0,0.0,0.0,0.0,48390566.12821376,True
A2b_LLM_SEMANTIC,2024-01-18,2024-01-19,139260,ETF_003,TIGER 200 IT,29729.0,29905.0,6250.0,3088.0,-3162.0,SELL,185806250.0,91803152.0,-94003098.0,94003098.0,827048552.0,14100.4647,124057.2828,966730739.4110136,966606682.1282138,960997040.5381548,0.0037725923329803,0.95,0.05,0.1,0.095,0.1922006225985981,0.0949746713915463,48390566.12821376,True
A2b_LLM_SEMANTIC,2024-01-18,2024-01-19,139270,ETF_004,TIGER 200 금융,5631.0,5663.0,0.0,24461.0,24461.0,BUY,0.0,137739891.0,137739891.0,137739891.0,827048552.0,20660.98365,124057.2828,966730739.4110136,966606682.1282138,960997040.5381548,0.0037725923329803,0.95,0.05,0.15,0.1425,0.0,0.1424983848619098,48390566.12821376,True
A2b_LLM_SEMANTIC,2024-01-18,2024-01-19,227550,ETF_005,TIGER 200 산업재,6033.0,5971.0,0.0,30441.0,30441.0,BUY,0.0,183650553.0,183650553.0,183650553.0,827048552.0,27547.58295,124057.2828,966730739.4110136,966606682.1282138,960997040.5381548,0.0037725923329803,0.95,0.05,0.2,0.19,0.0,0.1899951204513192,48390566.12821376,True
A2b_LLM_SEMANTIC,2024-01-18,2024-01-19,266390,ETF_006,KODEX 경기소비재,7684.0,7650.0,23737.0,11950.0,-11787.0,SELL,182395108.0,91823800.0,-90571308.0,90571308.0,827048552.0,13585.696199999997,124057.2828,966730739.4110136,966606682.1282138,960997040.5381548,0.0037725923329803,0.95,0.05,0.1,0.095,0.1886720888911893,0.09499603271708,48390566.12821376,True
A2b_LLM_SEMANTIC,2024-01-18,2024-01-19,266410,ETF_007,KODEX 필수소비재,5898.0,5869.0,31333.0,23353.0,-7980.0,SELL,184802034.0,137735994.0,-47066040.0,47066040.0,827048552.0,7059.905999999999,124057.2828,966730739.4110136,966606682.1282138,960997040.5381548,0.0037725923329803,0.95,0.05,0.15,0.1425,0.1911618473129257,0.1424943532324249,48390566.12821376,True
A2b_LLM_SEMANTIC,2024-01-18,2024-01-19,266420,ETF_008,KODEX 헬스케어,12916.0,12737.0,14061.0,0.0,-14061.0,SELL,181611876.0,0.0,-181611876.0,181611876.0,827048552.0,27241.7814,124057.2828,966730739.4110136,966606682.1282138,960997040.5381548,0.0037725923329803,0.95,0.05,0.0,0.0,0.1878619025920786,0.0,48390566.12821376,True
A2b_LLM_SEMANTIC,2024-01-18,2024-01-19,315270,ETF_009,TIGER 200 커뮤니케이션서비스,17237.0,17045.0,10688.0,10654.0,-34.0,SELL,184229056.0,183642998.0,-586058.0,586058.0,827048552.0,87.9087,124057.2828,966730739.4110136,966606682.1282138,960997040.5381548,0.0037725923329803,0.95,0.05,0.2,0.19,0.1905691507360598,0.1899873044490716,48390566.12821376,True
A2b_LLM_SEMANTIC,2024-01-19,2024-01-22,117460,ETF_001,KODEX 에너지화학,13818.0,13240.0,6552.0,3320.0,-3232.0,SELL,90535536.0,45875760.0,-44659776.0,44659776.0,455322485.0,6698.9664,68298.37275,966028379.5381548,965960081.1654048,958553999.512257,-0.0025421941201084,0.95,0.05,0.05,0.0475,0.0937193336320862,0.0474923973510915,48336978.16540468,True
A2b_LLM_SEMANTIC,2024-01-19,2024-01-22,117680,ETF_002,KODEX 철강,8144.0,7999.0,0.0,5633.0,5633.0,BUY,0.0,45875152.0,45875152.0,45875152.0,455322485.0,6881.2728,68298.37275,966028379.5381548,965960081.1654048,958553999.512257,-0.0025421941201084,0.95,0.05,0.05,0.0475,0.0,0.0474917679254952,48336978.16540468,True
A2b_LLM_SEMANTIC,2024-01-19,2024-01-22,139260,ETF_003,TIGER 200 IT,30260.0,29856.0,3088.0,6065.0,2977.0,BUY,93442880.0,183526900.0,90084020.0,90084020.0,455322485.0,13512.602999999996,68298.37275,966028379.5381548,965960081.1654048,958553999.512257,-0.0025421941201084,0.95,0.05,0.2,0.19,0.0967289180931452,0.1899942902180592,48336978.16540468,True
A2b_LLM_SEMANTIC,2024-01-19,2024-01-22,139270,ETF_004,TIGER 200 금융,5717.0,5663.0,24461.0,16051.0,-8410.0,SELL,139843537.0,91763567.0,-48079970.0,48079970.0,455322485.0,7211.9955,68298.37275,966028379.5381548,965960081.1654048,958553999.512257,-0.0025421941201084,0.95,0.05,0.1,0.095,0.1447613133962558,0.0949972662320473,48336978.16540468,True
A2b_LLM_SEMANTIC,2024-01-19,2024-01-22,227550,ETF_005,TIGER 200 산업재,5909.0,5933.0,30441.0,23294.0,-7147.0,SELL,179875869.0,137644246.0,-42231623.0,42231623.0,455322485.0,6334.74345,68298.37275,966028379.5381548,965960081.1654048,958553999.512257,-0.0025421941201084,0.95,0.05,0.15,0.1425,0.1862014334257925,0.1424947559260792,48336978.16540468,True
A2b_LLM_SEMANTIC,2024-01-19,2024-01-22,266390,ETF_006,KODEX 경기소비재,7650.0,7679.0,11950.0,17993.0,6043.0,BUY,91417500.0,137646450.0,46228950.0,46228950.0,455322485.0,6934.3425,68298.37275,966028379.5381548,965960081.1654048,958553999.512257,-0.0025421941201084,0.95,0.05,0.15,0.1425,0.0946323130213891,0.1424970375938654,48336978.16540468,True
A2b_LLM_SEMANTIC,2024-01-19,2024-01-22,266410,ETF_007,KODEX 필수소비재,5912.0,5888.0,23353.0,31044.0,7691.0,BUY,138062936.0,183532128.0,45469192.0,45469192.0,455322485.0,6820.3788,68298.37275,966028379.5381548,965960081.1654048,958553999.512257,-0.0025421941201084,0.95,0.05,0.2,0.19,0.142918095290333,0.1899997024499951,48336978.16540468,True
A2b_LLM_SEMANTIC,2024-01-19,2024-01-22,266420,ETF_008,KODEX 헬스케어,12836.0,13000.0,0.0,0.0,0.0,HOLD,0.0,0.0,0.0,0.0,455322485.0,0.0,68298.37275,966028379.5381548,965960081.1654048,958553999.512257,-0.0025421941201084,0.95,0.05,0.0,0.0,0.0,0.0,48336978.16540468,True
A2b_LLM_SEMANTIC,2024-01-19,2024-01-22,315270,ETF_009,TIGER 200 커뮤니케이션서비스,17313.0,16993.0,10654.0,5300.0,-5354.0,SELL,184452702.0,91758900.0,-92693802.0,92693802.0,455322485.0,13904.0703,68298.37275,966028379.5381548,965960081.1654048,958553999.512257,-0.0025421941201084,0.95,0.05,0.1,0.095,0.1909392165975334,0.0949924347694527,48336978.16540468,True
A2b_LLM_SEMANTIC,2024-01-22,2024-01-23,117460,ETF_001,KODEX 에너지화학,13264.0,13343.0,3320.0,0.0,-3320.0,SELL,44036480.0,0.0,-44036480.0,44036480.0,275893924.0,6605.471999999999,41384.0886,961952728.512257,961911344.423657,965488200.8943248,0.007234022690006,0.95,0.05,0.0,0.0,0.0457782162207764,0.0,48127310.42365694,True
A2b_LLM_SEMANTIC,2024-01-22,2024-01-23,117680,ETF_002,KODEX 철강,7999.0,8055.0,5633.0,0.0,-5633.0,SELL,45058367.0,0.0,-45058367.0,45058367.0,275893924.0,6758.755049999999,41384.0886,961952728.512257,961911344.423657,965488200.8943248,0.007234022690006,0.95,0.05,0.0,0.0,0.0468405210198703,0.0,48127310.42365694,True
A2b_LLM_SEMANTIC,2024-01-22,2024-01-23,139260,ETF_003,TIGER 200 IT,29953.0,29885.0,6065.0,6101.0,36.0,BUY,181664945.0,182743253.0,1078308.0,1078308.0,275893924.0,161.7462,41384.0886,961952728.512257,961911344.423657,965488200.8943248,0.007234022690006,0.95,0.05,0.2,0.19,0.1888501790321449,0.1899793094856296,48127310.42365694,True
A2b_LLM_SEMANTIC,2024-01-22,2024-01-23,139270,ETF_004,TIGER 200 금융,5762.0,5839.0,16051.0,23789.0,7738.0,BUY,92485862.0,137072218.0,44586356.0,44586356.0,275893924.0,6687.953399999999,41384.0886,961952728.512257,961911344.423657,965488200.8943248,0.007234022690006,0.95,0.05,0.15,0.1425,0.0961438740789658,0.1424998455363147,48127310.42365694,True
A2b_LLM_SEMANTIC,2024-01-22,2024-01-23,227550,ETF_005,TIGER 200 산업재,5933.0,5881.0,23294.0,23103.0,-191.0,SELL,138203302.0,137070099.0,-1133203.0,1133203.0,275893924.0,169.98045,41384.0886,961952728.512257,961911344.423657,965488200.8943248,0.007234022690006,0.95,0.05,0.15,0.1425,0.1436695358344098,0.1424976426305976,48127310.42365694,True
A2b_LLM_SEMANTIC,2024-01-22,2024-01-23,266390,ETF_006,KODEX 경기소비재,7650.0,7755.0,17993.0,11945.0,-6048.0,SELL,137646450.0,91379250.0,-46267200.0,46267200.0,275893924.0,6940.079999999999,41384.0886,961952728.512257,961911344.423657,965488200.8943248,0.007234022690006,0.95,0.05,0.1,0.095,0.143090659156279,0.0949975801093719,48127310.42365694,True
A2b_LLM_SEMANTIC,2024-01-22,2024-01-23,266410,ETF_007,KODEX 필수소비재,5931.0,5931.0,31044.0,30814.0,-230.0,SELL,184121964.0,182757834.0,-1364130.0,1364130.0,275893924.0,204.6195,41384.0886,961952728.512257,961911344.423657,965488200.8943248,0.007234022690006,0.95,0.05,0.2,0.19,0.1914043783469074,0.1899944678472442,48127310.42365694,True
A2b_LLM_SEMANTIC,2024-01-22,2024-01-23,266420,ETF_008,KODEX 헬스케어,13075.0,13085.0,0.0,0.0,0.0,HOLD,0.0,0.0,0.0,0.0,275893924.0,0.0,41384.0886,961952728.512257,961911344.423657,965488200.8943248,0.007234022690006,0.95,0.05,0.0,0.0,0.0,0.0,48127310.42365694,True
A2b_LLM_SEMANTIC,2024-01-22,2024-01-23,315270,ETF_009,TIGER 200 커뮤니케이션서비스,17055.0,17251.0,5300.0,10716.0,5416.0,BUY,90391500.0,182761380.0,92369880.0,92369880.0,275893924.0,13855.481999999998,41384.0886,961952728.512257,961911344.423657,965488200.8943248,0.007234022690006,0.95,0.05,0.2,0.19,0.0939666756180402,0.1899981542576609,48127310.42365694,True
A2b_LLM_SEMANTIC,2024-01-23,2024-01-24,117460,ETF_001,KODEX 에너지화학,13470.0,13504.0,0.0,0.0,0.0,HOLD,0.0,0.0,0.0,0.0,462665512.0,0.0,69399.8268,963758036.8943248,963688637.0675248,963177780.446838,-0.0023930074394972,0.95,0.05,0.0,0.0,0.0,0.0,48223453.06752479,True
A2b_LLM_SEMANTIC,2024-01-23,2024-01-24,117680,ETF_002,KODEX 철강,8055.0,8017.0,0.0,22731.0,22731.0,BUY,0.0,183098205.0,183098205.0,183098205.0,462665512.0,27464.730749999995,69399.8268,963758036.8943248,963688637.0675248,963177780.446838,-0.0023930074394972,0.95,0.05,0.2,0.19,0.0,0.1899972646322387,48223453.06752479,True
A2b_LLM_SEMANTIC,2024-01-23,2024-01-24,139260,ETF_003,TIGER 200 IT,29905.0,29710.0,6101.0,6122.0,21.0,BUY,182450405.0,183078410.0,628005.0,628005.0,462665512.0,94.20075,69399.8268,963758036.8943248,963688637.0675248,963177780.446838,-0.0023930074394972,0.95,0.05,0.2,0.19,0.1893114225931021,0.1899767237653668,48223453.06752479,True
A2b_LLM_SEMANTIC,2024-01-23,2024-01-24,139270,ETF_004,TIGER 200 금융,5839.0,5902.0,23789.0,15679.0,-8110.0,SELL,138903971.0,91549681.0,-47354290.0,47354290.0,462665512.0,7103.143499999999,69399.8268,963758036.8943248,963688637.0675248,963177780.446838,-0.0023930074394972,0.95,0.05,0.1,0.095,0.1441274320758071,0.0949992326137443,48223453.06752479,True
A2b_LLM_SEMANTIC,2024-01-23,2024-01-24,227550,ETF_005,TIGER 200 산업재,5838.0,5885.0,23103.0,23522.0,419.0,BUY,134875314.0,137321436.0,2446122.0,2446122.0,462665512.0,366.9183,69399.8268,963758036.8943248,963688637.0675248,963177780.446838,-0.0023930074394972,0.95,0.05,0.15,0.1425,0.1399472780892502,0.1424956471603369,48223453.06752479,True
A2b_LLM_SEMANTIC,2024-01-23,2024-01-24,266390,ETF_006,KODEX 경기소비재,7722.0,7765.0,11945.0,17783.0,5838.0,BUY,92239290.0,137320326.0,45081036.0,45081036.0,462665512.0,6762.1554,69399.8268,963758036.8943248,963688637.0675248,963177780.446838,-0.0023930074394972,0.95,0.05,0.15,0.1425,0.0957079333908724,0.1424944953360263,48223453.06752479,True
A2b_LLM_SEMANTIC,2024-01-23,2024-01-24,266410,ETF_007,KODEX 필수소비재,5974.0,5931.0,30814.0,30649.0,-165.0,SELL,184082836.0,183097126.0,-985710.0,985710.0,462665512.0,147.85649999999998,69399.8268,963758036.8943248,963688637.0675248,963177780.446838,-0.0023930074394972,0.95,0.05,0.2,0.19,0.191005240893451,0.1899961449759945,48223453.06752479,True
A2b_LLM_SEMANTIC,2024-01-23,2024-01-24,266420,ETF_008,KODEX 헬스케어,13115.0,12851.0,0.0,0.0,0.0,HOLD,0.0,0.0,0.0,0.0,462665512.0,0.0,69399.8268,963758036.8943248,963688637.0675248,963177780.446838,-0.0023930074394972,0.95,0.05,0.0,0.0,0.0,0.0,48223453.06752479,True
A2b_LLM_SEMANTIC,2024-01-23,2024-01-24,315270,ETF_009,TIGER 200 커뮤니케이션서비스,17084.0,17213.0,10716.0,0.0,-10716.0,SELL,183072144.0,0.0,-183072144.0,183072144.0,462665512.0,27460.8216,69399.8268,963758036.8943248,963688637.0675248,963177780.446838,-0.0023930074394972,0.95,0.05,0.0,0.0,0.1899565419863509,0.0,48223453.06752479,True
A2b_LLM_SEMANTIC,2024-01-24,2024-01-25,117460,ETF_001,KODEX 에너지화학,13549.0,13553.0,0.0,0.0,0.0,HOLD,0.0,0.0,0.0,0.0,454764096.0,0.0,68214.61439999999,961665927.446838,961597712.832438,961337624.0379728,-0.001910505460385,0.95,0.05,0.0,0.0,0.0,0.0,48116516.83243787,True
A2b_LLM_SEMANTIC,2024-01-24,2024-01-25,117680,ETF_002,KODEX 철강,8003.0,8050.0,22731.0,0.0,-22731.0,SELL,181916193.0,0.0,-181916193.0,181916193.0,454764096.0,27287.42895,68214.61439999999,961665927.446838,961597712.832438,961337624.0379728,-0.001910505460385,0.95,0.05,0.0,0.0,0.1891677637815202,0.0,48116516.83243787,True
A2b_LLM_SEMANTIC,2024-01-24,2024-01-25,139260,ETF_003,TIGER 200 IT,29764.0,29355.0,6122.0,6138.0,16.0,BUY,182215208.0,182691432.0,476224.0,476224.0,454764096.0,71.4336,68214.61439999999,961665927.446838,961597712.832438,961337624.0379728,-0.001910505460385,0.95,0.05,0.2,0.19,0.1894786981626455,0.1899873820018483,48116516.83243787,True
A2b_LLM_SEMANTIC,2024-01-24,2024-01-25,139270,ETF_004,TIGER 200 금융,5920.0,5907.0,15679.0,23146.0,7467.0,BUY,92819680.0,137024320.0,44204640.0,44204640.0,454764096.0,6630.695999999999,68214.61439999999,961665927.446838,961597712.832438,961337624.0379728,-0.001910505460385,0.95,0.05,0.15,0.1425,0.0965196721136105,0.1424965119731696,48116516.83243787,True
A2b_LLM_SEMANTIC,2024-01-24,2024-01-25,227550,ETF_005,TIGER 200 산업재,5781.0,5852.0,23522.0,15802.0,-7720.0,SELL,135980682.0,91351362.0,-44629320.0,44629320.0,454764096.0,6694.397999999999,68214.61439999999,961665927.446838,961597712.832438,961337624.0379728,-0.001910505460385,0.95,0.05,0.1,0.095,0.1414011644990065,0.0949995624791157,48116516.83243787,True
A2b_LLM_SEMANTIC,2024-01-24,2024-01-25,266390,ETF_006,KODEX 경기소비재,7751.0,7765.0,17783.0,17678.0,-105.0,SELL,137836033.0,137022178.0,-813855.0,813855.0,454764096.0,122.07824999999998,68214.61439999999,961665927.446838,961597712.832438,961337624.0379728,-0.001910505460385,0.95,0.05,0.15,0.1425,0.1433304737809999,0.1424942844304338,48116516.83243787,True
A2b_LLM_SEMANTIC,2024-01-24,2024-01-25,266410,ETF_007,KODEX 필수소비재,5960.0,5970.0,30649.0,30654.0,5.0,BUY,182668040.0,182697840.0,29800.0,29800.0,454764096.0,4.469999999999999,68214.61439999999,961665927.446838,961597712.832438,961337624.0379728,-0.001910505460385,0.95,0.05,0.2,0.19,0.1899495810202739,0.1899940459112092,48116516.83243787,True
A2b_LLM_SEMANTIC,2024-01-24,2024-01-25,266420,ETF_008,KODEX 헬스케어,12831.0,12966.0,0.0,0.0,0.0,HOLD,0.0,0.0,0.0,0.0,454764096.0,0.0,68214.61439999999,961665927.446838,961597712.832438,961337624.0379728,-0.001910505460385,0.95,0.05,0.0,0.0,0.0,0.0,48116516.83243787,True
A2b_LLM_SEMANTIC,2024-01-24,2024-01-25,315270,ETF_009,TIGER 200 커뮤니케이션서비스,17036.0,17117.0,0.0,10724.0,10724.0,BUY,0.0,182694064.0,182694064.0,182694064.0,454764096.0,27404.1096,68214.61439999999,961665927.446838,961597712.832438,961337624.0379728,-0.001910505460385,0.95,0.05,0.2,0.19,0.0,0.1899901191131838,48116516.83243787,True
A2b_LLM_SEMANTIC,2024-01-25,2024-01-26,117460,ETF_001,KODEX 에너지화학,13460.0,13823.0,0.0,0.0,0.0,HOLD,0.0,0.0,0.0,0.0,7816995.0,0.0,1172.5492499999998,960302740.0379728,960301567.4887228,966170256.8322378,0.0050269880980693,0.95,0.05,0.0,0.0,0.0,0.0,48034556.48872268,True
A2b_LLM_SEMANTIC,2024-01-25,2024-01-26,117680,ETF_002,KODEX 철강,7984.0,8148.0,0.0,0.0,0.0,HOLD,0.0,0.0,0.0,0.0,7816995.0,0.0,1172.5492499999998,960302740.0379728,960301567.4887228,966170256.8322378,0.0050269880980693,0.95,0.05,0.0,0.0,0.0,0.0,48034556.48872268,True
A2b_LLM_SEMANTIC,2024-01-25,2024-01-26,139260,ETF_003,TIGER 200 IT,29160.0,29306.0,6138.0,6257.0,119.0,BUY,178984080.0,182454120.0,3470040.0,3470040.0,7816995.0,520.5059999999999,1172.5492499999998,960302740.0379728,960301567.4887228,966170256.8322378,0.0050269880980693,0.95,0.05,0.2,0.19,0.1863829733453874,0.1899966908073829,48034556.48872268,True
A2b_LLM_SEMANTIC,2024-01-25,2024-01-26,139270,ETF_004,TIGER 200 금융,5979.0,5988.0,23146.0,22887.0,-259.0,SELL,138389934.0,136841373.0,-1548561.0,1548561.0,7816995.0,232.28415,1172.5492499999998,960302740.0379728,960301567.4887228,966170256.8322378,0.0050269880980693,0.95,0.05,0.15,0.1425,0.144110735323454,0.142498333474403,48034556.48872268,True
A2b_LLM_SEMANTIC,2024-01-25,2024-01-26,227550,ETF_005,TIGER 200 산업재,5833.0,5885.0,15802.0,15640.0,-162.0,SELL,92173066.0,91228120.0,-944946.0,944946.0,7816995.0,141.7419,1172.5492499999998,960302740.0379728,960301567.4887228,966170256.8322378,0.0050269880980693,0.95,0.05,0.1,0.095,0.095983341666145,0.094999449223612,48034556.48872268,True
A2b_LLM_SEMANTIC,2024-01-25,2024-01-26,266390,ETF_006,KODEX 경기소비재,7717.0,7798.0,17678.0,17732.0,54.0,BUY,136421126.0,136837844.0,416718.0,416718.0,7816995.0,62.50769999999999,1172.5492499999998,960302740.0379728,960301567.4887228,966170256.8322378,0.0050269880980693,0.95,0.05,0.15,0.1425,0.1420605401944449,0.142494658587139,48034556.48872268,True
A2b_LLM_SEMANTIC,2024-01-25,2024-01-26,266410,ETF_007,KODEX 필수소비재,5950.0,5965.0,30654.0,30665.0,11.0,BUY,182391300.0,182456750.0,65450.0,65450.0,7816995.0,9.8175,1172.5492499999998,960302740.0379728,960301567.4887228,966170256.8322378,0.0050269880980693,0.95,0.05,0.2,0.19,0.1899310419470299,0.1899994295303935,48034556.48872268,True
A2b_LLM_SEMANTIC,2024-01-25,2024-01-26,266420,ETF_008,KODEX 헬스케어,12916.0,13274.0,0.0,0.0,0.0,HOLD,0.0,0.0,0.0,0.0,7816995.0,0.0,1172.5492499999998,960302740.0379728,960301567.4887228,966170256.8322378,0.0050269880980693,0.95,0.05,0.0,0.0,0.0,0.0,48034556.48872268,True
A2b_LLM_SEMANTIC,2024-01-25,2024-01-26,315270,ETF_009,TIGER 200 커뮤니케이션서비스,17141.0,17332.0,10724.0,10644.0,-80.0,SELL,183820084.0,182448804.0,-1371280.0,1371280.0,7816995.0,205.69199999999995,1172.5492499999998,960302740.0379728,960301567.4887228,966170256.8322378,0.0050269880980693,0.95,0.05,0.2,0.19,0.1914188894147394,0.189991155046347,48034556.48872268,True
A2b_LLM_SEMANTIC,2024-01-26,2024-01-29,117460,ETF_001,KODEX 에너지화학,13798.0,13990.0,0.0,0.0,0.0,HOLD,0.0,0.0,0.0,0.0,185135592.0,0.0,27770.3388,970681055.8322378,970653285.493438,967776440.8304996,0.0016624233533415,0.95,0.05,0.0,0.0,0.0,0.0,48576903.493437886,True
A2b_LLM_SEMANTIC,2024-01-26,2024-01-29,117680,ETF_002,KODEX 철강,8195.0,8363.0,0.0,0.0,0.0,HOLD,0.0,0.0,0.0,0.0,185135592.0,0.0,27770.3388,970681055.8322378,970653285.493438,967776440.8304996,0.0016624233533415,0.95,0.05,0.0,0.0,0.0,0.0,48576903.493437886,True
A2b_LLM_SEMANTIC,2024-01-26,2024-01-29,139260,ETF_003,TIGER 200 IT,29311.0,29569.0,6257.0,6291.0,34.0,BUY,183398927.0,184395501.0,996574.0,996574.0,185135592.0,149.4861,27770.3388,970681055.8322378,970653285.493438,967776440.8304996,0.0016624233533415,0.95,0.05,0.2,0.19,0.1889384014430551,0.1899705113615943,48576903.493437886,True
A2b_LLM_SEMANTIC,2024-01-26,2024-01-29,139270,ETF_004,TIGER 200 금융,6024.0,6065.0,22887.0,22961.0,74.0,BUY,137871288.0,138317064.0,445776.0,445776.0,185135592.0,66.86639999999998,27770.3388,970681055.8322378,970653285.493438,967776440.8304996,0.0016624233533415,0.95,0.05,0.15,0.1425,0.1420356224854853,0.1424989397008898,48576903.493437886,True
A2b_LLM_SEMANTIC,2024-01-26,2024-01-29,227550,ETF_005,TIGER 200 산업재,5885.0,5828.0,15640.0,0.0,-15640.0,SELL,92041400.0,0.0,-92041400.0,92041400.0,185135592.0,13806.21,27770.3388,970681055.8322378,970653285.493438,967776440.8304996,0.0016624233533415,0.95,0.05,0.0,0.0,0.0948214652454363,0.0,48576903.493437886,True
A2b_LLM_SEMANTIC,2024-01-26,2024-01-29,266390,ETF_006,KODEX 경기소비재,7846.0,7918.0,17732.0,17629.0,-103.0,SELL,139125272.0,138317134.0,-808138.0,808138.0,185135592.0,121.2207,27770.3388,970681055.8322378,970653285.493438,967776440.8304996,0.0016624233533415,0.95,0.05,0.15,0.1425,0.1433274824558283,0.1424990118172686,48576903.493437886,True
A2b_LLM_SEMANTIC,2024-01-26,2024-01-29,266410,ETF_007,KODEX 필수소비재,6003.0,5979.0,30665.0,30721.0,56.0,BUY,184081995.0,184418163.0,336168.0,336168.0,185135592.0,50.4252,27770.3388,970681055.8322378,970653285.493438,967776440.8304996,0.0016624233533415,0.95,0.05,0.2,0.19,0.1896421011762434,0.1899938585241071,48576903.493437886,True
A2b_LLM_SEMANTIC,2024-01-26,2024-01-29,266420,ETF_008,KODEX 헬스케어,13503.0,13299.0,0.0,0.0,0.0,HOLD,0.0,0.0,0.0,0.0,185135592.0,0.0,27770.3388,970681055.8322378,970653285.493438,967776440.8304996,0.0016624233533415,0.95,0.05,0.0,0.0,0.0,0.0,48576903.493437886,True
A2b_LLM_SEMANTIC,2024-01-26,2024-01-29,315270,ETF_009,TIGER 200 커뮤니케이션서비스,17486.0,17108.0,10644.0,15820.0,5176.0,BUY,186120984.0,276628520.0,90507536.0,90507536.0,185135592.0,13576.1304,27770.3388,970681055.8322378,970653285.493438,967776440.8304996,0.0016624233533415,0.95,0.05,0.3,0.285,0.191742676836754,0.2849921018496054,48576903.493437886,True
A2b_LLM_SEMANTIC,2024-01-29,2024-01-30,117460,ETF_001,KODEX 에너지화학,13994.0,13911.0,0.0,0.0,0.0,HOLD,0.0,0.0,0.0,0.0,177694650.0,0.0,26654.1975,971385411.8304996,971358757.6329997,969996198.4327056,0.0022936677403524,0.95,0.05,0.0,0.0,0.0,0.0,48596059.63299966,True
A2b_LLM_SEMANTIC,2024-01-29,2024-01-30,117680,ETF_002,KODEX 철강,8448.0,8331.0,0.0,0.0,0.0,HOLD,0.0,0.0,0.0,0.0,177694650.0,0.0,26654.1975,971385411.8304996,971358757.6329997,969996198.4327056,0.0022936677403524,0.95,0.05,0.0,0.0,0.0,0.0,48596059.63299966,True
A2b_LLM_SEMANTIC,2024-01-29,2024-01-30,139260,ETF_003,TIGER 200 IT,29729.0,29613.0,6291.0,6208.0,-83.0,SELL,187025139.0,184557632.0,-2467507.0,2467507.0,177694650.0,370.12605,26654.1975,971385411.8304996,971358757.6329997,969996198.4327056,0.0022936677403524,0.95,0.05,0.2,0.19,0.192534432494272,0.1899994523647769,48596059.63299966,True
A2b_LLM_SEMANTIC,2024-01-29,2024-01-30,139270,ETF_004,TIGER 200 금융,6106.0,6115.0,22961.0,30225.0,7264.0,BUY,140199866.0,184553850.0,44353984.0,44353984.0,177694650.0,6653.097599999999,26654.1975,971385411.8304996,971358757.6329997,969996198.4327056,0.0022936677403524,0.95,0.05,0.2,0.19,0.1443298038991592,0.1899955588496669,48596059.63299966,True
A2b_LLM_SEMANTIC,2024-01-29,2024-01-30,266390,ETF_006,KODEX 경기소비재,7946.0,7932.0,17629.0,23226.0,5597.0,BUY,140080034.0,184553796.0,44473762.0,44473762.0,177694650.0,6671.064299999999,26654.1975,971385411.8304996,971358757.6329997,969996198.4327056,0.0022936677403524,0.95,0.05,0.2,0.19,0.144206441947723,0.1899955032574364,48596059.63299966,True
A2b_LLM_SEMANTIC,2024-01-29,2024-01-30,266410,ETF_007,KODEX 필수소비재,6017.0,5974.0,30721.0,30672.0,-49.0,SELL,184848257.0,184553424.0,-294833.0,294833.0,177694650.0,44.22495,26654.1975,971385411.8304996,971358757.6329997,969996198.4327056,0.0022936677403524,0.95,0.05,0.2,0.19,0.1902934249873775,0.1899951202887371,48596059.63299966,True
A2b_LLM_SEMANTIC,2024-01-29,2024-01-30,266420,ETF_008,KODEX 헬스케어,13423.0,13448.0,0.0,0.0,0.0,HOLD,0.0,0.0,0.0,0.0,177694650.0,0.0,26654.1975,971385411.8304996,971358757.6329997,969996198.4327056,0.0022936677403524,0.95,0.05,0.0,0.0,0.0,0.0,48596059.63299966,True
A2b_LLM_SEMANTIC,2024-01-29,2024-01-30,315270,ETF_009,TIGER 200 커뮤니케이션서비스,17108.0,17175.0,15820.0,10787.0,-5033.0,SELL,270648560.0,184543996.0,-86104564.0,86104564.0,177694650.0,12915.6846,26654.1975,971385411.8304996,971358757.6329997,969996198.4327056,0.0022936677403524,0.95,0.05,0.2,0.19,0.2786211906250311,0.1899854142970775,48596059.63299966,True
A2b_LLM_SEMANTIC,2024-01-30,2024-01-31,117460,ETF_001,KODEX 에너지화학,13784.0,13798.0,0.0,0.0,0.0,HOLD,0.0,0.0,0.0,0.0,4471413.0,0.0,670.7119499999999,964163207.4327056,964162536.7207556,963190753.0324476,-0.007015950589553,0.95,0.05,0.0,0.0,0.0,0.0,48246956.7207557,True
A2b_LLM_SEMANTIC,2024-01-30,2024-01-31,117680,ETF_002,KODEX 철강,8260.0,8246.0,0.0,0.0,0.0,HOLD,0.0,0.0,0.0,0.0,4471413.0,0.0,670.7119499999999,964163207.4327056,964162536.7207556,963190753.0324476,-0.007015950589553,0.95,0.05,0.0,0.0,0.0,0.0,48246956.7207557,True
A2b_LLM_SEMANTIC,2024-01-30,2024-01-31,139260,ETF_003,TIGER 200 IT,29364.0,29321.0,6208.0,6238.0,30.0,BUY,182291712.0,183172632.0,880920.0,880920.0,4471413.0,132.13799999999998,670.7119499999999,964163207.4327056,964162536.7207556,963190753.0324476,-0.007015950589553,0.95,0.05,0.2,0.19,0.1890672767791994,0.1899810716800865,48246956.7207557,True
A2b_LLM_SEMANTIC,2024-01-30,2024-01-31,139270,ETF_004,TIGER 200 금융,6115.0,6247.0,30225.0,29957.0,-268.0,SELL,184825875.0,183187055.0,-1638820.0,1638820.0,4471413.0,245.823,670.7119499999999,964163207.4327056,964162536.7207556,963190753.0324476,-0.007015950589553,0.95,0.05,0.2,0.19,0.1916956315851744,0.1899960307761421,48246956.7207557,True
A2b_LLM_SEMANTIC,2024-01-30,2024-01-31,227550,ETF_005,TIGER 200 산업재,5762.0,5762.0,0.0,0.0,0.0,HOLD,0.0,0.0,0.0,0.0,4471413.0,0.0,670.7119499999999,964163207.4327056,964162536.7207556,963190753.0324476,-0.007015950589553,0.95,0.05,0.0,0.0,0.0,0.0,48246956.7207557,True
A2b_LLM_SEMANTIC,2024-01-30,2024-01-31,266390,ETF_006,KODEX 경기소비재,7903.0,7880.0,23226.0,23179.0,-47.0,SELL,183555078.0,183183637.0,-371441.0,371441.0,4471413.0,55.71614999999999,670.7119499999999,964163207.4327056,964162536.7207556,963190753.0324476,-0.007015950589553,0.95,0.05,0.2,0.19,0.1903776005814983,0.1899924857307065,48246956.7207557,True
A2b_LLM_SEMANTIC,2024-01-30,2024-01-31,266410,ETF_007,KODEX 필수소비재,5974.0,5846.0,30672.0,30664.0,-8.0,SELL,183234528.0,183186736.0,-47792.0,47792.0,4471413.0,7.168799999999998,670.7119499999999,964163207.4327056,964162536.7207556,963190753.0324476,-0.007015950589553,0.95,0.05,0.2,0.19,0.1900451361216134,0.1899956999190637,48246956.7207557,True
A2b_LLM_SEMANTIC,2024-01-30,2024-01-31,266420,ETF_008,KODEX 헬스케어,13498.0,13264.0,0.0,0.0,0.0,HOLD,0.0,0.0,0.0,0.0,4471413.0,0.0,670.7119499999999,964163207.4327056,964162536.7207556,963190753.0324476,-0.007015950589553,0.95,0.05,0.0,0.0,0.0,0.0,48246956.7207557,True
A2b_LLM_SEMANTIC,2024-01-30,2024-01-31,315270,ETF_009,TIGER 200 커뮤니케이션서비스,16840.0,16821.0,10787.0,10878.0,91.0,BUY,181653080.0,183185520.0,1532440.0,1532440.0,4471413.0,229.866,670.7119499999999,964163207.4327056,964162536.7207556,963190753.0324476,-0.007015950589553,0.95,0.05,0.2,0.19,0.188404907592036,0.1899944387209216,48246956.7207557,True
A2b_LLM_SEMANTIC,2024-01-31,2024-02-01,117460,ETF_001,KODEX 에너지화학,13730.0,14146.0,0.0,0.0,0.0,HOLD,0.0,0.0,0.0,0.0,367293795.0,0.0,55094.06924999999,962251692.0324476,962196597.9631976,980604175.065039,0.0180788924496713,0.95,0.05,0.0,0.0,0.0,0.0,48142322.96319747,True
A2b_LLM_SEMANTIC,2024-01-31,2024-02-01,117680,ETF_002,KODEX 철강,8167.0,8410.0,0.0,0.0,0.0,HOLD,0.0,0.0,0.0,0.0,367293795.0,0.0,55094.06924999999,962251692.0324476,962196597.9631976,980604175.065039,0.0180788924496713,0.95,0.05,0.0,0.0,0.0,0.0,48142322.96319747,True
A2b_LLM_SEMANTIC,2024-01-31,2024-02-01,139260,ETF_003,TIGER 200 IT,29194.0,29705.0,6238.0,6262.0,24.0,BUY,182112172.0,182812828.0,700656.0,700656.0,367293795.0,105.09839999999998,55094.06924999999,962251692.0324476,962196597.9631976,980604175.065039,0.0180788924496713,0.95,0.05,0.2,0.19,0.1892562761987423,0.1899952965817826,48142322.96319747,True
A2b_LLM_SEMANTIC,2024-01-31,2024-02-01,139270,ETF_004,TIGER 200 금융,6256.0,6569.0,29957.0,29222.0,-735.0,SELL,187410992.0,182812832.0,-4598160.0,4598160.0,367293795.0,689.7239999999999,55094.06924999999,962251692.0324476,962196597.9631976,980604175.065039,0.0180788924496713,0.95,0.05,0.2,0.19,0.1947629643593086,0.1899953007389372,48142322.96319747,True
A2b_LLM_SEMANTIC,2024-01-31,2024-02-01,266390,ETF_006,KODEX 경기소비재,7880.0,8075.0,23179.0,23200.0,21.0,BUY,182650520.0,182816000.0,165480.0,165480.0,367293795.0,24.822,55094.06924999999,962251692.0324476,962196597.9631976,980604175.065039,0.0180788924496713,0.95,0.05,0.2,0.19,0.1898157431287125,0.1899985932053695,48142322.96319747,True
A2b_LLM_SEMANTIC,2024-01-31,2024-02-01,266410,ETF_007,KODEX 필수소비재,5831.0,5879.0,30664.0,0.0,-30664.0,SELL,178801784.0,0.0,-178801784.0,178801784.0,367293795.0,26820.2676,55094.06924999999,962251692.0324476,962196597.9631976,980604175.065039,0.0180788924496713,0.95,0.05,0.0,0.0,0.1858160245188436,0.0,48142322.96319747,True
A2b_LLM_SEMANTIC,2024-01-31,2024-02-01,266420,ETF_008,KODEX 헬스케어,13130.0,13165.0,0.0,13923.0,13923.0,BUY,0.0,182808990.0,182808990.0,182808990.0,367293795.0,27421.3485,55094.06924999999,962251692.0324476,962196597.9631976,980604175.065039,0.0180788924496713,0.95,0.05,0.2,0.19,0.0,0.1899913077919572,48142322.96319747,True
A2b_LLM_SEMANTIC,2024-01-31,2024-02-01,315270,ETF_009,TIGER 200 커뮤니케이션서비스,16825.0,16921.0,10878.0,10865.0,-13.0,SELL,183022350.0,182803625.0,-218725.0,218725.0,367293795.0,32.80875,55094.06924999999,962251692.0324476,962196597.9631976,980604175.065039,0.0180788924496713,0.95,0.05,0.2,0.19,0.1902021597004668,0.1899857320083685,48142322.96319747,True
A2b_LLM_SEMANTIC,2024-02-01,2024-02-02,117460,ETF_001,KODEX 에너지화학,14078.0,14426.0,0.0,7408.0,7408.0,BUY,0.0,104289824.0,104289824.0,104289824.0,835798503.0,15643.4736,125369.77545,988248748.065039,988123378.289589,1008079109.6016296,0.028018374013927,0.95,0.05,0.1111111111111111,0.1055555555555555,0.0,0.1055433221107696,49462560.28958905,True
A2b_LLM_SEMANTIC,2024-02-01,2024-02-02,117680,ETF_002,KODEX 철강,8438.0,8583.0,0.0,12360.0,12360.0,BUY,0.0,104293680.0,104293680.0,104293680.0,835798503.0,15644.051999999998,125369.77545,988248748.065039,988123378.289589,1008079109.6016296,0.028018374013927,0.95,0.05,0.1111111111111111,0.1055555555555555,0.0,0.1055472244574651,49462560.28958905,True
A2b_LLM_SEMANTIC,2024-02-01,2024-02-02,139260,ETF_003,TIGER 200 IT,29715.0,30542.0,6262.0,3510.0,-2752.0,SELL,186075330.0,104299650.0,-81775680.0,81775680.0,835798503.0,12266.352,125369.77545,988248748.065039,988123378.289589,1008079109.6016296,0.028018374013927,0.95,0.05,0.1111111111111111,0.1055555555555555,0.1882879491265026,0.1055532662131114,49462560.28958905,True
A2b_LLM_SEMANTIC,2024-02-01,2024-02-02,139270,ETF_004,TIGER 200 금융,6628.0,6905.0,29222.0,15736.0,-13486.0,SELL,193683416.0,104298208.0,-89385208.0,89385208.0,835798503.0,13407.7812,125369.77545,988248748.065039,988123378.289589,1008079109.6016296,0.028018374013927,0.95,0.05,0.1111111111111111,0.1055555555555555,0.195986502769901,0.1055518068811781,49462560.28958905,True
A2b_LLM_SEMANTIC,2024-02-01,2024-02-02,227550,ETF_005,TIGER 200 산업재,5900.0,6019.0,0.0,17678.0,17678.0,BUY,0.0,104300200.0,104300200.0,104300200.0,835798503.0,15645.029999999995,125369.77545,988248748.065039,988123378.289589,1008079109.6016296,0.028018374013927,0.95,0.05,0.1111111111111111,0.1055555555555555,0.0,0.1055538228237656,49462560.28958905,True
A2b_LLM_SEMANTIC,2024-02-01,2024-02-02,266390,ETF_006,KODEX 경기소비재,8075.0,8228.0,23200.0,12916.0,-10284.0,SELL,187340000.0,104296700.0,-83043300.0,83043300.0,835798503.0,12456.495,125369.77545,988248748.065039,988123378.289589,1008079109.6016296,0.028018374013927,0.95,0.05,0.1111111111111111,0.1055555555555555,0.1895676572996485,0.1055502807559662,49462560.28958905,True
A2b_LLM_SEMANTIC,2024-02-01,2024-02-02,266410,ETF_007,KODEX 필수소비재,6012.0,5998.0,0.0,17348.0,17348.0,BUY,0.0,104296176.0,104296176.0,104296176.0,835798503.0,15644.426399999998,125369.77545,988248748.065039,988123378.289589,1008079109.6016296,0.028018374013927,0.95,0.05,0.1111111111111111,0.1055555555555555,0.0,0.1055497504578157,49462560.28958905,True
A2b_LLM_SEMANTIC,2024-02-01,2024-02-02,266420,ETF_008,KODEX 헬스케어,13130.0,13547.0,13923.0,7943.0,-5980.0,SELL,182808990.0,104291590.0,-78517400.0,78517400.0,835798503.0,11777.609999999995,125369.77545,988248748.065039,988123378.289589,1008079109.6016296,0.028018374013927,0.95,0.05,0.1111111111111111,0.1055555555555555,0.1849827691235981,0.1055451093369792,49462560.28958905,True
A2b_LLM_SEMANTIC,2024-02-01,2024-02-02,315270,ETF_009,TIGER 200 커뮤니케이션서비스,17505.0,17701.0,10865.0,5958.0,-4907.0,SELL,190191825.0,104294790.0,-85897035.0,85897035.0,835798503.0,12884.555249999998,125369.77545,988248748.065039,988123378.289589,1008079109.6016296,0.028018374013927,0.95,0.05,0.1111111111111111,0.1055555555555555,0.1924533933105301,0.1055483477989672,49462560.28958905,True
A2b_LLM_SEMANTIC,2024-02-02,2024-02-05,117460,ETF_001,KODEX 에너지화학,14308.0,14396.0,7408.0,3332.0,-4076.0,SELL,105993664.0,47674256.0,-58319408.0,58319408.0,463364010.0,8747.911199999999,69504.60149999999,1003933012.6016296,1003863508.0001296,995747098.8316565,-0.012233177587468,0.95,0.05,0.05,0.0475,0.1055784227329312,0.0474907750108133,50224406.0001297,True
A2b_LLM_SEMANTIC,2024-02-02,2024-02-05,117680,ETF_002,KODEX 철강,8546.0,8522.0,12360.0,16738.0,4378.0,BUY,105628560.0,143042948.0,37414388.0,37414388.0,463364010.0,5612.1582,69504.60149999999,1003933012.6016296,1003863508.0001296,995747098.8316565,-0.012233177587468,0.95,0.05,0.15,0.1425,0.1052147490660459,0.14249242736691,50224406.0001297,True
A2b_LLM_SEMANTIC,2024-02-02,2024-02-05,139260,ETF_003,TIGER 200 IT,30420.0,30031.0,3510.0,6270.0,2760.0,BUY,106774200.0,190733400.0,83959200.0,83959200.0,463364010.0,12593.879999999996,69504.60149999999,1003933012.6016296,1003863508.0001296,995747098.8316565,-0.012233177587468,0.95,0.05,0.2,0.19,0.1063559009014967,0.1899993360451701,50224406.0001297,True
A2b_LLM_SEMANTIC,2024-02-02,2024-02-05,139270,ETF_004,TIGER 200 금융,6927.0,6732.0,15736.0,20651.0,4915.0,BUY,109003272.0,143049477.0,34046205.0,34046205.0,463364010.0,5106.93075,69504.60149999999,1003933012.6016296,1003863508.0001296,995747098.8316565,-0.012233177587468,0.95,0.05,0.15,0.1425,0.1085762402787461,0.1424989312391476,50224406.0001297,True
A2b_LLM_SEMANTIC,2024-02-02,2024-02-05,227550,ETF_005,TIGER 200 산업재,5923.0,5952.0,17678.0,4830.0,-12848.0,SELL,104706794.0,28608090.0,-76098704.0,76098704.0,463364010.0,11414.805599999998,69504.60149999999,1003933012.6016296,1003863508.0001296,995747098.8316565,-0.012233177587468,0.95,0.05,0.03,0.0284999999999999,0.1042965941807799,0.0284979877961619,50224406.0001297,True
A2b_LLM_SEMANTIC,2024-02-02,2024-02-05,266390,ETF_006,KODEX 경기소비재,8214.0,8233.0,12916.0,17415.0,4499.0,BUY,106092024.0,143046810.0,36954786.0,36954786.0,463364010.0,5543.2179,69504.60149999999,1003933012.6016296,1003863508.0001296,995747098.8316565,-0.012233177587468,0.95,0.05,0.15,0.1425,0.1056763973973414,0.1424962745034671,50224406.0001297,True
A2b_LLM_SEMANTIC,2024-02-02,2024-02-05,266410,ETF_007,KODEX 필수소비재,6022.0,5955.0,17348.0,3167.0,-14181.0,SELL,104469656.0,19071674.0,-85397982.0,85397982.0,463364010.0,12809.697299999998,69504.60149999999,1003933012.6016296,1003863508.0001296,995747098.8316565,-0.012233177587468,0.95,0.05,0.02,0.019,0.1040603851937027,0.0189982740163491,50224406.0001297,True
A2b_LLM_SEMANTIC,2024-02-02,2024-02-05,266420,ETF_008,KODEX 헬스케어,13552.0,13423.0,7943.0,7037.0,-906.0,SELL,107643536.0,95365424.0,-12278112.0,12278112.0,463364010.0,1841.7168,69504.60149999999,1003933012.6016296,1003863508.0001296,995747098.8316565,-0.012233177587468,0.95,0.05,0.1,0.095,0.1072218311867726,0.0949983969334481,50224406.0001297,True
A2b_LLM_SEMANTIC,2024-02-02,2024-02-05,315270,ETF_009,TIGER 200 커뮤니케이션서비스,17481.0,17371.0,5958.0,8183.0,2225.0,BUY,104151798.0,143047023.0,38895225.0,38895225.0,463364010.0,5834.283749999999,69504.60149999999,1003933012.6016296,1003863508.0001296,995747098.8316565,-0.012233177587468,0.95,0.05,0.15,0.1425,0.1037437724356699,0.1424964866837071,50224406.0001297,True
A2b_LLM_SEMANTIC,2024-02-05,2024-02-06,117460,ETF_001,KODEX 에너지화학,14220.0,14239.0,3332.0,3316.0,-16.0,SELL,47381040.0,47153520.0,-227520.0,227520.0,284976694.0,34.12799999999999,42746.5041,992991605.8316565,992948859.3275564,991538818.8917685,-0.0042262537795245,0.95,0.05,0.05,0.0475,0.0477154486722142,0.0474883671571295,49700060.32755637,True
A2b_LLM_SEMANTIC,2024-02-05,2024-02-06,117680,ETF_002,KODEX 철강,8466.0,8377.0,16738.0,11142.0,-5596.0,SELL,141703908.0,94328172.0,-47375736.0,47375736.0,284976694.0,7106.3604,42746.5041,992991605.8316565,992948859.3275564,991538818.8917685,-0.0042262537795245,0.95,0.05,0.1,0.095,0.1427040341205294,0.0949980163770778,49700060.32755637,True
A2b_LLM_SEMANTIC,2024-02-05,2024-02-06,139260,ETF_003,TIGER 200 IT,30031.0,30197.0,6270.0,4711.0,-1559.0,SELL,188294370.0,141476041.0,-46818329.0,46818329.0,284976694.0,7022.74935,42746.5041,992991605.8316565,992948859.3275564,991538818.8917685,-0.0042262537795245,0.95,0.05,0.15,0.1425,0.189623325005148,0.1424806924052566,49700060.32755637,True
A2b_LLM_SEMANTIC,2024-02-05,2024-02-06,139270,ETF_004,TIGER 200 금융,6709.0,6632.0,20651.0,21090.0,439.0,BUY,138547559.0,141492810.0,2945251.0,2945251.0,284976694.0,441.78765,42746.5041,992991605.8316565,992948859.3275564,991538818.8917685,-0.0042262537795245,0.95,0.05,0.15,0.1425,0.1395254080561565,0.142497580485486,49700060.32755637,True
A2b_LLM_SEMANTIC,2024-02-05,2024-02-06,227550,ETF_005,TIGER 200 산업재,5876.0,5885.0,4830.0,8026.0,3196.0,BUY,28381080.0,47160776.0,18779696.0,18779696.0,284976694.0,2816.9544,42746.5041,992991605.8316565,992948859.3275564,991538818.8917685,-0.0042262537795245,0.95,0.05,0.05,0.0475,0.0285813896445077,0.0474956746835261,49700060.32755637,True
A2b_LLM_SEMANTIC,2024-02-05,2024-02-06,266390,ETF_006,KODEX 경기소비재,8238.0,8262.0,17415.0,22901.0,5486.0,BUY,143464770.0,188658438.0,45193668.0,45193668.0,284976694.0,6779.0502,42746.5041,992991605.8316565,992948859.3275564,991538818.8917685,-0.0042262537795245,0.95,0.05,0.2,0.19,0.1444773240352263,0.1899981416240943,49700060.32755637,True
A2b_LLM_SEMANTIC,2024-02-05,2024-02-06,266410,ETF_007,KODEX 필수소비재,5960.0,5946.0,3167.0,15827.0,12660.0,BUY,18875320.0,94328920.0,75453600.0,75453600.0,284976694.0,11318.04,42746.5041,992991605.8316565,992948859.3275564,991538818.8917685,-0.0042262537795245,0.95,0.05,0.1,0.095,0.0190085393362327,0.0949987696887846,49700060.32755637,True
A2b_LLM_SEMANTIC,2024-02-05,2024-02-06,266420,ETF_008,KODEX 헬스케어,13353.0,13527.0,7037.0,7064.0,27.0,BUY,93965061.0,94325592.0,360531.0,360531.0,284976694.0,54.07965,42746.5041,992991605.8316565,992948859.3275564,991538818.8917685,-0.0042262537795245,0.95,0.05,0.1,0.095,0.0946282530971667,0.09499541805595,49700060.32755637,True
A2b_LLM_SEMANTIC,2024-02-05,2024-02-06,315270,ETF_009,TIGER 200 커뮤니케이션서비스,17371.0,17136.0,8183.0,5430.0,-2753.0,SELL,142146893.0,94324530.0,-47822363.0,47822363.0,284976694.0,7173.35445,42746.5041,992991605.8316565,992948859.3275564,991538818.8917685,-0.0042262537795245,0.95,0.05,0.1,0.095,0.1431501456459425,0.0949943485144626,49700060.32755637,True
A2b_LLM_SEMANTIC,2024-02-06,2024-02-07,117460,ETF_001,KODEX 에너지화학,14514.0,14519.0,3316.0,6537.0,3221.0,BUY,48128424.0,94878018.0,46749594.0,46749594.0,289885865.0,7012.439099999999,43482.87974999999,998778093.8917685,998734611.0120184,1006780703.760843,0.0153719497196391,0.95,0.05,0.0999999999999999,0.0949999999999999,0.0481873043615385,0.0949982277112235,49994046.01201844,True
A2b_LLM_SEMANTIC,2024-02-06,2024-02-07,117680,ETF_002,KODEX 철강,8466.0,8635.0,11142.0,16810.0,5668.0,BUY,94328172.0,142313460.0,47985288.0,47985288.0,289885865.0,7197.793199999999,43482.87974999999,998778093.8917685,998734611.0120184,1006780703.760843,0.0153719497196391,0.95,0.05,0.15,0.1425,0.0944435731789505,0.142493770047474,49994046.01201844,True
A2b_LLM_SEMANTIC,2024-02-06,2024-02-07,139260,ETF_003,TIGER 200 IT,30357.0,30659.0,4711.0,4688.0,-23.0,SELL,143011827.0,142313616.0,-698211.0,698211.0,289885865.0,104.73165,43482.87974999999,998778093.8917685,998734611.0120184,1006780703.760843,0.0153719497196391,0.95,0.05,0.15,0.1425,0.1431867878106438,0.1424939262451248,49994046.01201844,True
A2b_LLM_SEMANTIC,2024-02-06,2024-02-07,139270,ETF_004,TIGER 200 금융,6632.0,6778.0,21090.0,28612.0,7522.0,BUY,139868880.0,189754784.0,49885904.0,49885904.0,289885865.0,7482.885599999999,43482.87974999999,998778093.8917685,998734611.0120184,1006780703.760843,0.0153719497196391,0.95,0.05,0.1999999999999999,0.1899999999999999,0.1400399957261745,0.1899952018361728,49994046.01201844,True
A2b_LLM_SEMANTIC,2024-02-06,2024-02-07,227550,ETF_005,TIGER 200 산업재,5923.0,5952.0,8026.0,0.0,-8026.0,SELL,47537998.0,0.0,-47537998.0,47537998.0,289885865.0,7130.699699999999,43482.87974999999,998778093.8917685,998734611.0120184,1006780703.760843,0.0153719497196391,0.95,0.05,0.0,0.0,0.047596156033786,0.0,49994046.01201844,True
A2b_LLM_SEMANTIC,2024-02-06,2024-02-07,266390,ETF_006,KODEX 경기소비재,8309.0,8362.0,22901.0,22837.0,-64.0,SELL,190284409.0,189752633.0,-531776.0,531776.0,289885865.0,79.76639999999999,43482.87974999999,998778093.8917685,998734611.0120184,1006780703.760843,0.0153719497196391,0.95,0.05,0.1999999999999999,0.1899999999999999,0.1905172031342329,0.1899930481108725,49994046.01201844,True
A2b_LLM_SEMANTIC,2024-02-06,2024-02-07,266410,ETF_007,KODEX 필수소비재,6012.0,5979.0,15827.0,7890.0,-7937.0,SELL,95151924.0,47434680.0,-47717244.0,47717244.0,289885865.0,7157.586599999999,43482.87974999999,998778093.8917685,998734611.0120184,1006780703.760843,0.0153719497196391,0.95,0.05,0.0499999999999999,0.0474999999999999,0.0952683329579623,0.0474947793708024,49994046.01201844,True
A2b_LLM_SEMANTIC,2024-02-06,2024-02-07,266420,ETF_008,KODEX 헬스케어,13597.0,13478.0,7064.0,3488.0,-3576.0,SELL,96049208.0,47426336.0,-48622872.0,48622872.0,289885865.0,7293.430799999998,43482.87974999999,998778093.8917685,998734611.0120184,1006780703.760843,0.0153719497196391,0.95,0.05,0.0499999999999999,0.0474999999999999,0.0961667146960957,0.0474864247990192,49994046.01201844,True
A2b_LLM_SEMANTIC,2024-02-06,2024-02-07,315270,ETF_009,TIGER 200 커뮤니케이션서비스,17442.0,17265.0,5430.0,5439.0,9.0,BUY,94710060.0,94867038.0,156978.0,156978.0,289885865.0,23.5467,43482.87974999999,998778093.8917685,998734611.0120184,1006780703.760843,0.0153719497196391,0.95,0.05,0.0999999999999999,0.0949999999999999,0.0948259283811076,0.0949872337996489,49994046.01201844,True
A2b_LLM_SEMANTIC,2024-02-07,2024-02-08,117460,ETF_001,KODEX 에너지화학,14808.0,14808.0,6537.0,0.0,-6537.0,SELL,96799896.0,0.0,-96799896.0,96799896.0,569829398.0,14519.9844,85474.40969999999,1013468357.760843,1013382883.351143,1015037616.197994,0.0082013018389279,0.95,0.05,0.0,0.0,0.0955134861969146,0.0,50695657.351143,True
A2b_LLM_SEMANTIC,2024-02-07,2024-02-08,117680,ETF_002,KODEX 철강,8649.0,8611.0,16810.0,27827.0,11017.0,BUY,145389690.0,240675723.0,95286033.0,95286033.0,569829398.0,14292.904949999998,85474.40969999999,1013468357.760843,1013382883.351143,1015037616.197994,0.0082013018389279,0.95,0.05,0.25,0.2375,0.1434575523613031,0.2374973240164788,50695657.351143,True
A2b_LLM_SEMANTIC,2024-02-07,2024-02-08,139260,ETF_003,TIGER 200 IT,30771.0,30795.0,4688.0,7821.0,3133.0,BUY,144254448.0,240659991.0,96405543.0,96405543.0,569829398.0,14460.831449999998,85474.40969999999,1013468357.760843,1013382883.351143,1015037616.197994,0.0082013018389279,0.95,0.05,0.25,0.2375,0.1423373970142647,0.2374817997755838,50695657.351143,True
A2b_LLM_SEMANTIC,2024-02-07,2024-02-08,139270,ETF_004,TIGER 200 금융,6832.0,6977.0,28612.0,35228.0,6616.0,BUY,195477184.0,240677696.0,45200512.0,45200512.0,569829398.0,6780.0768,85474.40969999999,1013468357.760843,1013382883.351143,1015037616.197994,0.0082013018389279,0.95,0.05,0.25,0.2375,0.192879415033625,0.2374992709607507,50695657.351143,True
A2b_LLM_SEMANTIC,2024-02-07,2024-02-08,227550,ETF_005,TIGER 200 산업재,6000.0,6019.0,0.0,0.0,0.0,HOLD,0.0,0.0,0.0,0.0,569829398.0,0.0,85474.40969999999,1013468357.760843,1013382883.351143,1015037616.197994,0.0082013018389279,0.95,0.05,0.0,0.0,0.0,0.0,50695657.351143,True
A2b_LLM_SEMANTIC,2024-02-07,2024-02-08,266390,ETF_006,KODEX 경기소비재,8453.0,8362.0,22837.0,28472.0,5635.0,BUY,193041161.0,240673816.0,47632655.0,47632655.0,569829398.0,7144.898249999999,85474.40969999999,1013468357.760843,1013382883.351143,1015037616.197994,0.0082013018389279,0.95,0.05,0.25,0.2375,0.190475765248858,0.2374954422006012,50695657.351143,True
A2b_LLM_SEMANTIC,2024-02-07,2024-02-08,266410,ETF_007,KODEX 필수소비재,6036.0,5950.0,7890.0,0.0,-7890.0,SELL,47624040.0,0.0,-47624040.0,47624040.0,569829398.0,7143.605999999999,85474.40969999999,1013468357.760843,1013382883.351143,1015037616.197994,0.0082013018389279,0.95,0.05,0.0,0.0,0.0469911464283113,0.0,50695657.351143,True
A2b_LLM_SEMANTIC,2024-02-07,2024-02-08,266420,ETF_008,KODEX 헬스케어,13468.0,13358.0,3488.0,0.0,-3488.0,SELL,46976384.0,0.0,-46976384.0,46976384.0,569829398.0,7046.4576,85474.40969999999,1013468357.760843,1013382883.351143,1015037616.197994,0.0082013018389279,0.95,0.05,0.0,0.0,0.0463520973696599,0.0,50695657.351143,True
A2b_LLM_SEMANTIC,2024-02-07,2024-02-08,315270,ETF_009,TIGER 200 커뮤니케이션서비스,17265.0,17275.0,5439.0,0.0,-5439.0,SELL,93904335.0,0.0,-93904335.0,93904335.0,569829398.0,14085.65025,85474.40969999999,1013468357.760843,1013382883.351143,1015037616.197994,0.0082013018389279,0.95,0.05,0.0,0.0,0.0926564053834618,0.0,50695657.351143,True
A2b_LLM_SEMANTIC,2024-02-08,2024-02-13,117460,ETF_001,KODEX 에너지화학,14857.0,15033.0,0.0,0.0,0.0,HOLD,0.0,0.0,0.0,0.0,774028818.0,0.0,116104.3227,1018130826.197994,1018014721.875294,1026439643.5628288,0.0112331081950864,0.95,0.05,0.0,0.0,0.0,0.0,50944161.87529397,True
A2b_LLM_SEMANTIC,2024-02-08,2024-02-13,117680,ETF_002,KODEX 철강,8677.0,8616.0,27827.0,0.0,-27827.0,SELL,241454879.0,0.0,-241454879.0,241454879.0,774028818.0,36218.23185,116104.3227,1018130826.197994,1018014721.875294,1026439643.5628288,0.0112331081950864,0.95,0.05,0.0,0.0,0.2371550617926627,0.0,50944161.87529397,True
A2b_LLM_SEMANTIC,2024-02-08,2024-02-13,139260,ETF_003,TIGER 200 IT,30795.0,31360.0,7821.0,6280.0,-1541.0,SELL,240847695.0,193392600.0,-47455095.0,47455095.0,774028818.0,7118.264249999999,116104.3227,1018130826.197994,1018014721.875294,1026439643.5628288,0.0112331081950864,0.95,0.05,0.2,0.19,0.2365586904969743,0.1899703372105953,50944161.87529397,True
A2b_LLM_SEMANTIC,2024-02-08,2024-02-13,139270,ETF_004,TIGER 200 금융,6986.0,6964.0,35228.0,27687.0,-7541.0,SELL,246102808.0,193421382.0,-52681426.0,52681426.0,774028818.0,7902.2139,116104.3227,1018130826.197994,1018014721.875294,1026439643.5628288,0.0112331081950864,0.95,0.05,0.2,0.19,0.2417202206901265,0.1899986098862074,50944161.87529397,True
A2b_LLM_SEMANTIC,2024-02-08,2024-02-13,227550,ETF_005,TIGER 200 산업재,6047.0,6080.0,0.0,31986.0,31986.0,BUY,0.0,193419342.0,193419342.0,193419342.0,774028818.0,29012.9013,116104.3227,1018130826.197994,1018014721.875294,1026439643.5628288,0.0112331081950864,0.95,0.05,0.2,0.19,0.0,0.1899966059859139,50944161.87529397,True
A2b_LLM_SEMANTIC,2024-02-08,2024-02-13,266390,ETF_006,KODEX 경기소비재,8395.0,8328.0,28472.0,23040.0,-5432.0,SELL,239022440.0,193420800.0,-45601640.0,45601640.0,774028818.0,6840.245999999999,116104.3227,1018130826.197994,1018014721.875294,1026439643.5628288,0.0112331081950864,0.95,0.05,0.2,0.19,0.2347659395527601,0.1899980381852413,50944161.87529397,True
A2b_LLM_SEMANTIC,2024-02-08,2024-02-13,266410,ETF_007,KODEX 필수소비재,6008.0,5927.0,0.0,0.0,0.0,HOLD,0.0,0.0,0.0,0.0,774028818.0,0.0,116104.3227,1018130826.197994,1018014721.875294,1026439643.5628288,0.0112331081950864,0.95,0.05,0.0,0.0,0.0,0.0,50944161.87529397,True
A2b_LLM_SEMANTIC,2024-02-08,2024-02-13,266420,ETF_008,KODEX 헬스케어,13388.0,13801.0,0.0,14447.0,14447.0,BUY,0.0,193416436.0,193416436.0,193416436.0,774028818.0,29012.4654,116104.3227,1018130826.197994,1018014721.875294,1026439643.5628288,0.0112331081950864,0.95,0.05,0.2,0.19,0.0,0.1899937514102997,50944161.87529397,True
A2b_LLM_SEMANTIC,2024-02-08,2024-02-13,315270,ETF_009,TIGER 200 커뮤니케이션서비스,17452.0,17471.0,0.0,0.0,0.0,HOLD,0.0,0.0,0.0,0.0,774028818.0,0.0,116104.3227,1018130826.197994,1018014721.875294,1026439643.5628288,0.0112331081950864,0.95,0.05,0.0,0.0,0.0,0.0,50944161.87529397,True
A2b_LLM_SEMANTIC,2024-02-13,2024-02-14,117460,ETF_001,KODEX 에너지화학,14636.0,14891.0,0.0,0.0,0.0,HOLD,0.0,0.0,0.0,0.0,388907173.0,0.0,58336.07594999999,1011350328.5628288,1011291992.4868786,1009824399.2025528,-0.0161872590020036,0.95,0.05,0.0,0.0,0.0,0.0,50604153.48687863,True
A2b_LLM_SEMANTIC,2024-02-13,2024-02-14,117680,ETF_002,KODEX 철강,8508.0,8541.0,0.0,22584.0,22584.0,BUY,0.0,192144672.0,192144672.0,192144672.0,388907173.0,28821.700799999995,58336.07594999999,1011350328.5628288,1011291992.4868786,1009824399.2025528,-0.0161872590020036,0.95,0.05,0.2,0.19,0.0,0.1899992024336067,50604153.48687863,True
A2b_LLM_SEMANTIC,2024-02-13,2024-02-14,139260,ETF_003,TIGER 200 IT,30883.0,30922.0,6280.0,6221.0,-59.0,SELL,193945240.0,192123143.0,-1822097.0,1822097.0,388907173.0,273.31454999999994,58336.07594999999,1011350328.5628288,1011291992.4868786,1009824399.2025528,-0.0161872590020036,0.95,0.05,0.2,0.19,0.1917686033440107,0.1899779138244217,50604153.48687863,True
A2b_LLM_SEMANTIC,2024-02-13,2024-02-14,139270,ETF_004,TIGER 200 금융,6941.0,6827.0,27687.0,27682.0,-5.0,SELL,192175467.0,192140762.0,-34705.0,34705.0,388907173.0,5.205749999999999,58336.07594999999,1011350328.5628288,1011291992.4868786,1009824399.2025528,-0.0161872590020036,0.95,0.05,0.2,0.19,0.1900186924080891,0.1899953360923037,50604153.48687863,True
A2b_LLM_SEMANTIC,2024-02-13,2024-02-14,227550,ETF_005,TIGER 200 산업재,5914.0,5962.0,31986.0,0.0,-31986.0,SELL,189165204.0,0.0,-189165204.0,189165204.0,388907173.0,28374.780599999995,58336.07594999999,1011350328.5628288,1011291992.4868786,1009824399.2025528,-0.0161872590020036,0.95,0.05,0.0,0.0,0.1870422134225355,0.0,50604153.48687863,True
A2b_LLM_SEMANTIC,2024-02-13,2024-02-14,266390,ETF_006,KODEX 경기소비재,8233.0,8214.0,23040.0,23338.0,298.0,BUY,189688320.0,192141754.0,2453434.0,2453434.0,388907173.0,368.0151,58336.07594999999,1011350328.5628288,1011291992.4868786,1009824399.2025528,-0.0161872590020036,0.95,0.05,0.2,0.19,0.1875594585207235,0.1899963170157238,50604153.48687863,True
A2b_LLM_SEMANTIC,2024-02-13,2024-02-14,266410,ETF_007,KODEX 필수소비재,5898.0,5879.0,0.0,0.0,0.0,HOLD,0.0,0.0,0.0,0.0,388907173.0,0.0,58336.07594999999,1011350328.5628288,1011291992.4868786,1009824399.2025528,-0.0161872590020036,0.95,0.05,0.0,0.0,0.0,0.0,50604153.48687863,True
A2b_LLM_SEMANTIC,2024-02-13,2024-02-14,266420,ETF_008,KODEX 헬스케어,13527.0,13607.0,14447.0,14204.0,-243.0,SELL,195424569.0,192137508.0,-3287061.0,3287061.0,388907173.0,493.05914999999993,58336.07594999999,1011350328.5628288,1011291992.4868786,1009824399.2025528,-0.0161872590020036,0.95,0.05,0.2,0.19,0.1932313299168118,0.1899921184261656,50604153.48687863,True
A2b_LLM_SEMANTIC,2024-02-13,2024-02-14,315270,ETF_009,TIGER 200 커뮤니케이션서비스,17352.0,17562.0,0.0,0.0,0.0,HOLD,0.0,0.0,0.0,0.0,388907173.0,0.0,58336.07594999999,1011350328.5628288,1011291992.4868786,1009824399.2025528,-0.0161872590020036,0.95,0.05,0.0,0.0,0.0,0.0,50604153.48687863,True
A2b_LLM_SEMANTIC,2024-02-14,2024-02-15,117460,ETF_001,KODEX 에너지화학,14940.0,15156.0,0.0,8047.0,8047.0,BUY,0.0,120222180.0,120222180.0,120222180.0,721499584.0,18033.327,108224.9376,1012581677.2025528,1012473452.2649528,1009236979.3579384,-0.0005817049430357,0.95,0.05,0.125,0.11875,0.0,0.1187410689446297,50675598.26495278,True
A2b_LLM_SEMANTIC,2024-02-14,2024-02-15,117680,ETF_002,KODEX 철강,8602.0,8555.0,22584.0,13977.0,-8607.0,SELL,194267568.0,120230154.0,-74037414.0,74037414.0,721499584.0,11105.612099999998,108224.9376,1012581677.2025528,1012473452.2649528,1009236979.3579384,-0.0005817049430357,0.95,0.05,0.125,0.11875,0.19185372634502,0.1187489447066876,50675598.26495278,True
A2b_LLM_SEMANTIC,2024-02-14,2024-02-15,139260,ETF_003,TIGER 200 IT,31082.0,30785.0,6221.0,3868.0,-2353.0,SELL,193361122.0,120225176.0,-73135946.0,73135946.0,721499584.0,10970.3919,108224.9376,1012581677.2025528,1012473452.2649528,1009236979.3579384,-0.0005817049430357,0.95,0.05,0.125,0.11875,0.1909585432497617,0.1187440280345626,50675598.26495278,True
A2b_LLM_SEMANTIC,2024-02-14,2024-02-15,139270,ETF_004,TIGER 200 금융,6791.0,6755.0,27682.0,17704.0,-9978.0,SELL,187988462.0,120227864.0,-67760598.0,67760598.0,721499584.0,10164.0897,108224.9376,1012581677.2025528,1012473452.2649528,1009236979.3579384,-0.0005817049430357,0.95,0.05,0.125,0.11875,0.1856526404066025,0.1187466829189885,50675598.26495278,True
A2b_LLM_SEMANTIC,2024-02-14,2024-02-15,266390,ETF_006,KODEX 경기소비재,8219.0,8157.0,23338.0,14628.0,-8710.0,SELL,191815022.0,120227532.0,-71587490.0,71587490.0,721499584.0,10738.123499999998,108224.9376,1012581677.2025528,1012473452.2649528,1009236979.3579384,-0.0005817049430357,0.95,0.05,0.125,0.11875,0.1894316540764642,0.1187463550091561,50675598.26495278,True
A2b_LLM_SEMANTIC,2024-02-14,2024-02-15,266410,ETF_007,KODEX 필수소비재,5912.0,5898.0,0.0,20336.0,20336.0,BUY,0.0,120226432.0,120226432.0,120226432.0,721499584.0,18033.9648,108224.9376,1012581677.2025528,1012473452.2649528,1009236979.3579384,-0.0005817049430357,0.95,0.05,0.125,0.11875,0.0,0.1187452685609164,50675598.26495278,True
A2b_LLM_SEMANTIC,2024-02-14,2024-02-15,266420,ETF_008,KODEX 헬스케어,13696.0,13498.0,14204.0,8778.0,-5426.0,SELL,194537984.0,120223488.0,-74314496.0,74314496.0,721499584.0,11147.1744,108224.9376,1012581677.2025528,1012473452.2649528,1009236979.3579384,-0.0005817049430357,0.95,0.05,0.125,0.11875,0.1921207823327869,0.1187423608303547,50675598.26495278,True
A2b_LLM_SEMANTIC,2024-02-14,2024-02-15,315270,ETF_009,TIGER 200 커뮤니케이션서비스,17844.0,17902.0,0.0,6737.0,6737.0,BUY,0.0,120215028.0,120215028.0,120215028.0,721499584.0,18032.2542,108224.9376,1012581677.2025528,1012473452.2649528,1009236979.3579384,-0.0005817049430357,0.95,0.05,0.125,0.11875,0.0,0.1187340050557109,50675598.26495278,True
A2b_LLM_SEMANTIC,2024-02-15,2024-02-16,117460,ETF_001,KODEX 에너지화학,15249.0,15425.0,8047.0,0.0,-8047.0,SELL,122708703.0,0.0,-122708703.0,122708703.0,339094253.0,18406.30545,50864.13795,1017733889.3579384,1017683025.2199886,1022889485.219395,0.0135275521415614,0.95,0.05,0.0,0.0,0.1205705187604725,0.0,50929379.219988585,True
A2b_LLM_SEMANTIC,2024-02-15,2024-02-16,117680,ETF_002,KODEX 철강,8649.0,8794.0,13977.0,16767.0,2790.0,BUY,120887073.0,145017783.0,24130710.0,24130710.0,339094253.0,3619.6065,50864.13795,1017733889.3579384,1017683025.2199886,1022889485.219395,0.0135275521415614,0.95,0.05,0.15,0.1425,0.1187806304418775,0.1424979874933573,50929379.219988585,True
A2b_LLM_SEMANTIC,2024-02-15,2024-02-16,139260,ETF_003,TIGER 200 IT,31131.0,31238.0,3868.0,4658.0,790.0,BUY,120414708.0,145008198.0,24593490.0,24593490.0,339094253.0,3689.0234999999993,50864.13795,1017733889.3579384,1017683025.2199886,1022889485.219395,0.0135275521415614,0.95,0.05,0.15,0.1425,0.1183164963446058,0.1424885690401037,50929379.219988585,True
A2b_LLM_SEMANTIC,2024-02-15,2024-02-16,139270,ETF_004,TIGER 200 금융,6877.0,6977.0,17704.0,21087.0,3383.0,BUY,121750408.0,145015299.0,23264891.0,23264891.0,339094253.0,3489.73365,50864.13795,1017733889.3579384,1017683025.2199886,1022889485.219395,0.0135275521415614,0.95,0.05,0.15,0.1425,0.1196289219344057,0.1424955466547676,50929379.219988585,True
A2b_LLM_SEMANTIC,2024-02-15,2024-02-16,227550,ETF_005,TIGER 200 산업재,6123.0,6166.0,0.0,0.0,0.0,HOLD,0.0,0.0,0.0,0.0,339094253.0,0.0,50864.13795,1017733889.3579384,1017683025.2199886,1022889485.219395,0.0135275521415614,0.95,0.05,0.0,0.0,0.0,0.0,50929379.219988585,True
A2b_LLM_SEMANTIC,2024-02-15,2024-02-16,266390,ETF_006,KODEX 경기소비재,8223.0,8223.0,14628.0,17635.0,3007.0,BUY,120286044.0,145012605.0,24726561.0,24726561.0,339094253.0,3708.98415,50864.13795,1017733889.3579384,1017683025.2199886,1022889485.219395,0.0135275521415614,0.95,0.05,0.15,0.1425,0.1181900742991719,0.1424928994650895,50929379.219988585,True
A2b_LLM_SEMANTIC,2024-02-15,2024-02-16,266410,ETF_007,KODEX 필수소비재,5960.0,5955.0,20336.0,16221.0,-4115.0,SELL,121202560.0,96677160.0,-24525400.0,24525400.0,339094253.0,3678.81,50864.13795,1017733889.3579384,1017683025.2199886,1022889485.219395,0.0135275521415614,0.95,0.05,0.1,0.095,0.1190906201192371,0.0949973199947023,50929379.219988585,True
A2b_LLM_SEMANTIC,2024-02-15,2024-02-16,266420,ETF_008,KODEX 헬스케어,13572.0,13612.0,8778.0,7123.0,-1655.0,SELL,119135016.0,96673356.0,-22461660.0,22461660.0,339094253.0,3369.249,50864.13795,1017733889.3579384,1017683025.2199886,1022889485.219395,0.0135275521415614,0.95,0.05,0.1,0.095,0.1170591028222113,0.0949935820921278,50929379.219988585,True
A2b_LLM_SEMANTIC,2024-02-15,2024-02-16,315270,ETF_009,TIGER 200 커뮤니케이션서비스,17911.0,17907.0,6737.0,10795.0,4058.0,BUY,120666407.0,193349245.0,72682838.0,72682838.0,339094253.0,10902.4257,50864.13795,1017733889.3579384,1017683025.2199886,1022889485.219395,0.0135275521415614,0.95,0.05,0.2,0.19,0.1185638095201145,0.1899896531714326,50929379.219988585,True
A2b_LLM_SEMANTIC,2024-02-16,2024-02-19,117460,ETF_001,KODEX 에너지화학,15425.0,15533.0,0.0,0.0,0.0,HOLD,0.0,0.0,0.0,0.0,1560674026.0,0.0,234101.1039,1025741749.219395,1025507648.1154952,1028114871.2085508,0.0051084560596836,0.95,0.05,0.0,0.0,0.0,0.0,51277568.115495086,True
A2b_LLM_SEMANTIC,2024-02-16,2024-02-19,117680,ETF_002,KODEX 철강,8794.0,8915.0,16767.0,0.0,-16767.0,SELL,147448998.0,0.0,-147448998.0,147448998.0,1560674026.0,22117.3497,234101.1039,1025741749.219395,1025507648.1154952,1028114871.2085508,0.0051084560596836,0.95,0.05,0.0,0.0,0.1437486561429433,0.0,51277568.115495086,True
A2b_LLM_SEMANTIC,2024-02-16,2024-02-19,139260,ETF_003,TIGER 200 IT,31233.0,31720.0,4658.0,0.0,-4658.0,SELL,145483314.0,0.0,-145483314.0,145483314.0,1560674026.0,21822.4971,234101.1039,1025741749.219395,1025507648.1154952,1028114871.2085508,0.0051084560596836,0.95,0.05,0.0,0.0,0.1418323024393956,0.0,51277568.115495086,True
A2b_LLM_SEMANTIC,2024-02-16,2024-02-19,139270,ETF_004,TIGER 200 금융,6977.0,7154.0,21087.0,0.0,-21087.0,SELL,147123999.0,0.0,-147123999.0,147123999.0,1560674026.0,22068.59985,234101.1039,1025741749.219395,1025507648.1154952,1028114871.2085508,0.0051084560596836,0.95,0.05,0.0,0.0,0.1434318132336561,0.0,51277568.115495086,True
A2b_LLM_SEMANTIC,2024-02-16,2024-02-19,227550,ETF_005,TIGER 200 산업재,6209.0,6185.0,0.0,0.0,0.0,HOLD,0.0,0.0,0.0,0.0,1560674026.0,0.0,234101.1039,1025741749.219395,1025507648.1154952,1028114871.2085508,0.0051084560596836,0.95,0.05,0.0,0.0,0.0,0.0,51277568.115495086,True
A2b_LLM_SEMANTIC,2024-02-16,2024-02-19,266390,ETF_006,KODEX 경기소비재,8319.0,8362.0,17635.0,0.0,-17635.0,SELL,146705565.0,0.0,-146705565.0,146705565.0,1560674026.0,22005.83475,234101.1039,1025741749.219395,1025507648.1154952,1028114871.2085508,0.0051084560596836,0.95,0.05,0.0,0.0,0.1430238801449245,0.0,51277568.115495086,True
A2b_LLM_SEMANTIC,2024-02-16,2024-02-19,266410,ETF_007,KODEX 필수소비재,5974.0,6008.0,16221.0,0.0,-16221.0,SELL,96904254.0,0.0,-96904254.0,96904254.0,1560674026.0,14535.638099999998,234101.1039,1025741749.219395,1025507648.1154952,1028114871.2085508,0.0051084560596836,0.95,0.05,0.0,0.0,0.094472369944721,0.0,51277568.115495086,True
A2b_LLM_SEMANTIC,2024-02-16,2024-02-19,266420,ETF_008,KODEX 헬스케어,13612.0,13801.0,7123.0,0.0,-7123.0,SELL,96958276.0,0.0,-96958276.0,96958276.0,1560674026.0,14543.7414,234101.1039,1025741749.219395,1025507648.1154952,1028114871.2085508,0.0051084560596836,0.95,0.05,0.0,0.0,0.0945250362226035,0.0,51277568.115495086,True
A2b_LLM_SEMANTIC,2024-02-16,2024-02-19,315270,ETF_009,TIGER 200 커뮤니케이션서비스,17988.0,18036.0,10795.0,54160.0,43365.0,BUY,194180460.0,974230080.0,780049620.0,780049620.0,1560674026.0,117007.44299999998,234101.1039,1025741749.219395,1025507648.1154952,1028114871.2085508,0.0051084560596836,0.95,0.05,1.0,0.95,0.1893073574784045,0.949997868655856,51277568.115495086,True
A2b_LLM_SEMANTIC,2024-02-19,2024-02-20,117460,ETF_001,KODEX 에너지화학,15533.0,15504.0,0.0,0.0,0.0,HOLD,0.0,0.0,0.0,0.0,1476099656.0,0.0,221414.9484,1035588951.2085508,1035367536.2601508,1021422663.7689538,-0.0065092020619547,0.95,0.05,0.0,0.0,0.0,0.0,51783280.26015079,True
A2b_LLM_SEMANTIC,2024-02-19,2024-02-20,117680,ETF_002,KODEX 철강,8906.0,8892.0,0.0,27610.0,27610.0,BUY,0.0,245894660.0,245894660.0,245894660.0,1476099656.0,36884.19899999999,221414.9484,1035588951.2085508,1035367536.2601508,1021422663.7689538,-0.0065092020619547,0.95,0.05,0.25,0.2375,0.0,0.2374950453712269,51783280.26015079,True
A2b_LLM_SEMANTIC,2024-02-19,2024-02-20,139260,ETF_003,TIGER 200 IT,31686.0,31394.0,0.0,0.0,0.0,HOLD,0.0,0.0,0.0,0.0,1476099656.0,0.0,221414.9484,1035588951.2085508,1035367536.2601508,1021422663.7689538,-0.0065092020619547,0.95,0.05,0.0,0.0,0.0,0.0,51783280.26015079,True
A2b_LLM_SEMANTIC,2024-02-19,2024-02-20,139270,ETF_004,TIGER 200 금융,7254.0,6973.0,0.0,33898.0,33898.0,BUY,0.0,245896092.0,245896092.0,245896092.0,1476099656.0,36884.4138,221414.9484,1035588951.2085508,1035367536.2601508,1021422663.7689538,-0.0065092020619547,0.95,0.05,0.25,0.2375,0.0,0.2374964284549628,51783280.26015079,True
A2b_LLM_SEMANTIC,2024-02-19,2024-02-20,227550,ETF_005,TIGER 200 산업재,6175.0,6237.0,0.0,0.0,0.0,HOLD,0.0,0.0,0.0,0.0,1476099656.0,0.0,221414.9484,1035588951.2085508,1035367536.2601508,1021422663.7689538,-0.0065092020619547,0.95,0.05,0.0,0.0,0.0,0.0,51783280.26015079,True
A2b_LLM_SEMANTIC,2024-02-19,2024-02-20,266390,ETF_006,KODEX 경기소비재,8324.0,8266.0,0.0,29541.0,29541.0,BUY,0.0,245899284.0,245899284.0,245899284.0,1476099656.0,36884.8926,221414.9484,1035588951.2085508,1035367536.2601508,1021422663.7689538,-0.0065092020619547,0.95,0.05,0.25,0.2375,0.0,0.2374995114181504,51783280.26015079,True
A2b_LLM_SEMANTIC,2024-02-19,2024-02-20,266410,ETF_007,KODEX 필수소비재,6022.0,5989.0,0.0,0.0,0.0,HOLD,0.0,0.0,0.0,0.0,1476099656.0,0.0,221414.9484,1035588951.2085508,1035367536.2601508,1021422663.7689538,-0.0065092020619547,0.95,0.05,0.0,0.0,0.0,0.0,51783280.26015079,True
A2b_LLM_SEMANTIC,2024-02-19,2024-02-20,266420,ETF_008,KODEX 헬스케어,13801.0,13831.0,0.0,0.0,0.0,HOLD,0.0,0.0,0.0,0.0,1476099656.0,0.0,221414.9484,1035588951.2085508,1035367536.2601508,1021422663.7689538,-0.0065092020619547,0.95,0.05,0.0,0.0,0.0,0.0,51783280.26015079,True
A2b_LLM_SEMANTIC,2024-02-19,2024-02-20,315270,ETF_009,TIGER 200 커뮤니케이션서비스,18174.0,18002.0,54160.0,13530.0,-40630.0,SELL,984303840.0,245894220.0,-738409620.0,738409620.0,1476099656.0,110761.44299999998,221414.9484,1035588951.2085508,1035367536.2601508,1021422663.7689538,-0.0065092020619547,0.95,0.05,0.25,0.2375,0.950477348035917,0.237494620401364,51783280.26015079,True
A2b_LLM_SEMANTIC,2024-02-20,2024-02-21,117460,ETF_001,KODEX 에너지화학,15278.0,15489.0,0.0,7942.0,7942.0,BUY,0.0,121337876.0,121337876.0,121337876.0,1212973050.0,18200.6814,181945.9575,1022085682.7689538,1021903736.8114538,1023460103.95176,0.0019947082193068,0.95,0.05,0.125,0.11875,0.0,0.1187370900302201,51139505.81145382,True
A2b_LLM_SEMANTIC,2024-02-20,2024-02-21,117680,ETF_002,KODEX 철강,8892.0,8948.0,27610.0,13647.0,-13963.0,SELL,245508120.0,121349124.0,-124158996.0,124158996.0,1212973050.0,18623.8494,181945.9575,1022085682.7689538,1021903736.8114538,1023460103.95176,0.0019947082193068,0.95,0.05,0.125,0.11875,0.2402030711700107,0.1187480969378131,51139505.81145382,True
A2b_LLM_SEMANTIC,2024-02-20,2024-02-21,139260,ETF_003,TIGER 200 IT,31477.0,31442.0,0.0,3855.0,3855.0,BUY,0.0,121343835.0,121343835.0,121343835.0,1212973050.0,18201.57525,181945.9575,1022085682.7689538,1021903736.8114538,1023460103.95176,0.0019947082193068,0.95,0.05,0.125,0.11875,0.0,0.118742921303544,51139505.81145382,True
A2b_LLM_SEMANTIC,2024-02-20,2024-02-21,139270,ETF_004,TIGER 200 금융,6995.0,6954.0,33898.0,17348.0,-16550.0,SELL,237116510.0,121349260.0,-115767250.0,115767250.0,1212973050.0,17365.0875,181945.9575,1022085682.7689538,1021903736.8114538,1023460103.95176,0.0019947082193068,0.95,0.05,0.125,0.11875,0.2319927908173243,0.1187482300227555,51139505.81145382,True
A2b_LLM_SEMANTIC,2024-02-20,2024-02-21,227550,ETF_005,TIGER 200 산업재,6242.0,6275.0,0.0,19441.0,19441.0,BUY,0.0,121350722.0,121350722.0,121350722.0,1212973050.0,18202.6083,181945.9575,1022085682.7689538,1021903736.8114538,1023460103.95176,0.0019947082193068,0.95,0.05,0.125,0.11875,0.0,0.1187496606858869,51139505.81145382,True
A2b_LLM_SEMANTIC,2024-02-20,2024-02-21,266390,ETF_006,KODEX 경기소비재,8309.0,8333.0,29541.0,14604.0,-14937.0,SELL,245456169.0,121344636.0,-124111533.0,124111533.0,1212973050.0,18616.72995,181945.9575,1022085682.7689538,1021903736.8114538,1023460103.95176,0.0019947082193068,0.95,0.05,0.125,0.11875,0.2401522427503627,0.1187437051347123,51139505.81145382,True
A2b_LLM_SEMANTIC,2024-02-20,2024-02-21,266410,ETF_007,KODEX 필수소비재,6008.0,5974.0,0.0,20198.0,20198.0,BUY,0.0,121349584.0,121349584.0,121349584.0,1212973050.0,18202.4376,181945.9575,1022085682.7689538,1021903736.8114538,1023460103.95176,0.0019947082193068,0.95,0.05,0.125,0.11875,0.0,0.1187485470780596,51139505.81145382,True
A2b_LLM_SEMANTIC,2024-02-20,2024-02-21,266420,ETF_008,KODEX 헬스케어,13861.0,13821.0,0.0,8754.0,8754.0,BUY,0.0,121339194.0,121339194.0,121339194.0,1212973050.0,18200.8791,181945.9575,1022085682.7689538,1021903736.8114538,1023460103.95176,0.0019947082193068,0.95,0.05,0.125,0.11875,0.0,0.118738379779883,51139505.81145382,True
A2b_LLM_SEMANTIC,2024-02-20,2024-02-21,315270,ETF_009,TIGER 200 커뮤니케이션서비스,17902.0,17816.0,13530.0,0.0,-13530.0,SELL,242214060.0,0.0,-242214060.0,242214060.0,1212973050.0,36332.109,181945.9575,1022085682.7689538,1021903736.8114538,1023460103.95176,0.0019947082193068,0.95,0.05,0.0,0.0,0.2369801906859832,0.0,51139505.81145382,True
A2b_LLM_SEMANTIC,2024-02-21,2024-02-22,117460,ETF_001,KODEX 에너지화학,15401.0,15210.0,7942.0,7037.0,-905.0,SELL,122314742.0,108376837.0,-13937905.0,13937905.0,217074249.0,2090.68575,32561.13735,1026904447.95176,1026871886.81441,1021186542.1095344,-0.0022214464769531,0.95,0.05,0.1111111111111111,0.1055555555555555,0.1191101491905757,0.1055407577046534,51408102.81441009,True
A2b_LLM_SEMANTIC,2024-02-21,2024-02-22,117680,ETF_002,KODEX 철강,8967.0,8883.0,13647.0,12087.0,-1560.0,SELL,122372649.0,108384129.0,-13988520.0,13988520.0,217074249.0,2098.278,32561.13735,1026904447.95176,1026871886.81441,1021186542.1095344,-0.0022214464769531,0.95,0.05,0.1111111111111111,0.1055555555555555,0.1191665390524714,0.1055478588826033,51408102.81441009,True
A2b_LLM_SEMANTIC,2024-02-21,2024-02-22,139260,ETF_003,TIGER 200 IT,31817.0,32002.0,3855.0,3406.0,-449.0,SELL,122654535.0,108368702.0,-14285833.0,14285833.0,217074249.0,2142.87495,32561.13735,1026904447.95176,1026871886.81441,1021186542.1095344,-0.0022214464769531,0.95,0.05,0.1111111111111111,0.1055555555555555,0.1194410397624081,0.1055328355869049,51408102.81441009,True
A2b_LLM_SEMANTIC,2024-02-21,2024-02-22,139270,ETF_004,TIGER 200 금융,7004.0,6950.0,17348.0,15475.0,-1873.0,SELL,121505392.0,108386900.0,-13118492.0,13118492.0,217074249.0,1967.7738,32561.13735,1026904447.95176,1026871886.81441,1021186542.1095344,-0.0022214464769531,0.95,0.05,0.1111111111111111,0.1055555555555555,0.1183220038070259,0.1055505573691775,51408102.81441009,True
A2b_LLM_SEMANTIC,2024-02-21,2024-02-22,227550,ETF_005,TIGER 200 산업재,6323.0,6323.0,19441.0,17142.0,-2299.0,SELL,122925443.0,108388866.0,-14536577.0,14536577.0,217074249.0,2180.48655,32561.13735,1026904447.95176,1026871886.81441,1021186542.1095344,-0.0022214464769531,0.95,0.05,0.1111111111111111,0.1055555555555555,0.1197048500911494,0.1055524719215431,51408102.81441009,True
A2b_LLM_SEMANTIC,2024-02-21,2024-02-22,266390,ETF_006,KODEX 경기소비재,8290.0,8305.0,14604.0,13075.0,-1529.0,SELL,121067160.0,108391750.0,-12675410.0,12675410.0,217074249.0,1901.3115,32561.13735,1026904447.95176,1026871886.81441,1021186542.1095344,-0.0022214464769531,0.95,0.05,0.1111111111111111,0.1055555555555555,0.1178952532939922,0.1055552804510559,51408102.81441009,True
A2b_LLM_SEMANTIC,2024-02-21,2024-02-22,266410,ETF_007,KODEX 필수소비재,6041.0,5955.0,20198.0,17942.0,-2256.0,SELL,122016118.0,108387622.0,-13628496.0,13628496.0,217074249.0,2044.2744,32561.13735,1026904447.95176,1026871886.81441,1021186542.1095344,-0.0022214464769531,0.95,0.05,0.1111111111111111,0.1055555555555555,0.1188193490089273,0.105551260475387,51408102.81441009,True
A2b_LLM_SEMANTIC,2024-02-21,2024-02-22,266420,ETF_008,KODEX 헬스케어,13811.0,13796.0,8754.0,7848.0,-906.0,SELL,120901494.0,108388728.0,-12512766.0,12512766.0,217074249.0,1876.9149,32561.13735,1026904447.95176,1026871886.81441,1021186542.1095344,-0.0022214464769531,0.95,0.05,0.1111111111111111,0.1055555555555555,0.117733927670824,0.1055523375328216,51408102.81441009,True
A2b_LLM_SEMANTIC,2024-02-21,2024-02-22,315270,ETF_009,TIGER 200 커뮤니케이션서비스,18050.0,17773.0,0.0,6005.0,6005.0,BUY,0.0,108390250.0,108390250.0,108390250.0,217074249.0,16258.5375,32561.13735,1026904447.95176,1026871886.81441,1021186542.1095344,-0.0022214464769531,0.95,0.05,0.1111111111111111,0.1055555555555555,0.0,0.1055538197040832,51408102.81441009,True
A2b_LLM_SEMANTIC,2024-02-22,2024-02-23,117460,ETF_001,KODEX 에너지화학,15102.0,15058.0,7037.0,9646.0,2609.0,BUY,106272774.0,145673892.0,39401118.0,39401118.0,405499625.0,5910.1677,60824.94374999999,1022434487.1095344,1022373662.1657844,1025819492.448508,0.0045368305867046,0.95,0.05,0.15,0.1425,0.1039409129287468,0.1424859592836205,51201037.16578436,True
A2b_LLM_SEMANTIC,2024-02-22,2024-02-23,117680,ETF_002,KODEX 철강,8887.0,8850.0,12087.0,10928.0,-1159.0,SELL,107417169.0,97117136.0,-10300033.0,10300033.0,405499625.0,1545.0049499999998,60824.94374999999,1022434487.1095344,1022373662.1657844,1025819492.448508,0.0045368305867046,0.95,0.05,0.1,0.095,0.1050601973566765,0.094991821086498,51201037.16578436,True
A2b_LLM_SEMANTIC,2024-02-22,2024-02-23,139260,ETF_003,TIGER 200 IT,32508.0,31988.0,3406.0,2987.0,-419.0,SELL,110722248.0,97101396.0,-13620852.0,13620852.0,405499625.0,2043.1277999999995,60824.94374999999,1022434487.1095344,1022373662.1657844,1025819492.448508,0.0045368305867046,0.95,0.05,0.1,0.095,0.1082927555710845,0.0949764255412268,51201037.16578436,True
A2b_LLM_SEMANTIC,2024-02-22,2024-02-23,139270,ETF_004,TIGER 200 금융,6959.0,7118.0,15475.0,27913.0,12438.0,BUY,107690525.0,194246567.0,86556042.0,86556042.0,405499625.0,12983.4063,60824.94374999999,1022434487.1095344,1022373662.1657844,1025819492.448508,0.0045368305867046,0.95,0.05,0.2,0.19,0.1053275553179408,0.1899956681087718,51201037.16578436,True
A2b_LLM_SEMANTIC,2024-02-22,2024-02-23,227550,ETF_005,TIGER 200 산업재,6285.0,6261.0,17142.0,7726.0,-9416.0,SELL,107737470.0,48557910.0,-59179560.0,59179560.0,405499625.0,8876.934,60824.94374999999,1022434487.1095344,1022373662.1657844,1025819492.448508,0.0045368305867046,0.95,0.05,0.05,0.0475,0.1053734702402091,0.0474952669429448,51201037.16578436,True
A2b_LLM_SEMANTIC,2024-02-22,2024-02-23,266390,ETF_006,KODEX 경기소비재,8266.0,8281.0,13075.0,17624.0,4549.0,BUY,108077950.0,145679984.0,37602034.0,37602034.0,405499625.0,5640.3051,60824.94374999999,1022434487.1095344,1022373662.1657844,1025819492.448508,0.0045368305867046,0.95,0.05,0.15,0.1425,0.1057064793515924,0.1424919179660724,51201037.16578436,True
A2b_LLM_SEMANTIC,2024-02-22,2024-02-23,266410,ETF_007,KODEX 필수소비재,5993.0,5970.0,17942.0,0.0,-17942.0,SELL,107526406.0,0.0,-107526406.0,107526406.0,405499625.0,16128.960899999996,60824.94374999999,1022434487.1095344,1022373662.1657844,1025819492.448508,0.0045368305867046,0.95,0.05,0.0,0.0,0.1051670374538927,0.0,51201037.16578436,True
A2b_LLM_SEMANTIC,2024-02-22,2024-02-23,266420,ETF_008,KODEX 헬스케어,13910.0,14119.0,7848.0,6982.0,-866.0,SELL,109165680.0,97119620.0,-12046060.0,12046060.0,405499625.0,1806.909,60824.94374999999,1022434487.1095344,1022373662.1657844,1025819492.448508,0.0045368305867046,0.95,0.05,0.1,0.095,0.1067703421356765,0.0949942507265523,51201037.16578436,True
A2b_LLM_SEMANTIC,2024-02-22,2024-02-23,315270,ETF_009,TIGER 200 커뮤니케이션서비스,17720.0,17701.0,6005.0,8221.0,2216.0,BUY,106408600.0,145676120.0,39267520.0,39267520.0,405499625.0,5890.127999999999,60824.94374999999,1022434487.1095344,1022373662.1657844,1025819492.448508,0.0045368305867046,0.95,0.05,0.15,0.1425,0.1040737586041543,0.142488138525988,51201037.16578436,True
A2b_LLM_SEMANTIC,2024-02-23,2024-02-26,117460,ETF_001,KODEX 에너지화학,15117.0,15014.0,9646.0,9685.0,39.0,BUY,145818582.0,146408145.0,589563.0,589563.0,202659403.0,88.43444999999998,30398.91045,1027484667.448508,1027454268.538058,1017679964.4652052,-0.007934659112272,0.95,0.05,0.15,0.1425,0.1419180126182346,0.1424960209745596,51411629.53805804,True
A2b_LLM_SEMANTIC,2024-02-23,2024-02-26,117680,ETF_002,KODEX 철강,8883.0,8798.0,10928.0,10988.0,60.0,BUY,97073424.0,97606404.0,532980.0,532980.0,202659403.0,79.94699999999999,30398.91045,1027484667.448508,1027454268.538058,1017679964.4652052,-0.007934659112272,0.95,0.05,0.1,0.095,0.0944767616251215,0.0949982952904385,51411629.53805804,True
A2b_LLM_SEMANTIC,2024-02-23,2024-02-26,139260,ETF_003,TIGER 200 IT,31973.0,31803.0,2987.0,4579.0,1592.0,BUY,95503351.0,146404367.0,50901016.0,50901016.0,202659403.0,7635.152399999999,30398.91045,1027484667.448508,1027454268.538058,1017679964.4652052,-0.007934659112272,0.95,0.05,0.15,0.1425,0.0929486872413948,0.1424923439252586,51411629.53805804,True
A2b_LLM_SEMANTIC,2024-02-23,2024-02-26,139270,ETF_004,TIGER 200 금융,7036.0,6882.0,27913.0,27745.0,-168.0,SELL,196395868.0,195213820.0,-1182048.0,1182048.0,202659403.0,177.30719999999997,30398.91045,1027484667.448508,1027454268.538058,1017679964.4652052,-0.007934659112272,0.95,0.05,0.2,0.19,0.1911423831634376,0.189997575539557,51411629.53805804,True
A2b_LLM_SEMANTIC,2024-02-23,2024-02-26,227550,ETF_005,TIGER 200 산업재,6266.0,6332.0,7726.0,7788.0,62.0,BUY,48411116.0,48799608.0,388492.0,388492.0,202659403.0,58.2738,30398.91045,1027484667.448508,1027454268.538058,1017679964.4652052,-0.007934659112272,0.95,0.05,0.05,0.0475,0.0471161444386478,0.0474956496793145,51411629.53805804,True
A2b_LLM_SEMANTIC,2024-02-23,2024-02-26,266390,ETF_006,KODEX 경기소비재,8386.0,8180.0,17624.0,11639.0,-5985.0,SELL,147794864.0,97604654.0,-50190210.0,50190210.0,202659403.0,7528.531499999999,30398.91045,1027484667.448508,1027454268.538058,1017679964.4652052,-0.007934659112272,0.95,0.05,0.1,0.095,0.1438414301276244,0.0949965920516146,51411629.53805804,True
A2b_LLM_SEMANTIC,2024-02-23,2024-02-26,266410,ETF_007,KODEX 필수소비재,5993.0,5879.0,0.0,8143.0,8143.0,BUY,0.0,48800999.0,48800999.0,48800999.0,202659403.0,7320.149849999999,30398.91045,1027484667.448508,1027454268.538058,1017679964.4652052,-0.007934659112272,0.95,0.05,0.05,0.0475,0.0,0.0474970035108597,51411629.53805804,True
A2b_LLM_SEMANTIC,2024-02-23,2024-02-26,266420,ETF_008,KODEX 헬스케어,14288.0,14348.0,6982.0,6831.0,-151.0,SELL,99758816.0,97601328.0,-2157488.0,2157488.0,202659403.0,323.62319999999994,30398.91045,1027484667.448508,1027454268.538058,1017679964.4652052,-0.007934659112272,0.95,0.05,0.1,0.095,0.0970903208197988,0.0949933549245698,51411629.53805804,True
A2b_LLM_SEMANTIC,2024-02-23,2024-02-26,315270,ETF_009,TIGER 200 커뮤니케이션서비스,17701.0,17629.0,8221.0,5514.0,-2707.0,SELL,145519921.0,97603314.0,-47916607.0,47916607.0,202659403.0,7187.49105,30398.91045,1027484667.448508,1027454268.538058,1017679964.4652052,-0.007934659112272,0.95,0.05,0.1,0.095,0.1416273406408691,0.0949952878573151,51411629.53805804,True
A2b_LLM_SEMANTIC,2024-02-26,2024-02-27,117460,ETF_001,KODEX 에너지화학,14994.0,14847.0,9685.0,16128.0,6443.0,BUY,145216890.0,241823232.0,96606342.0,96606342.0,775038248.0,14490.9513,116255.7372,1018363472.4652052,1018247216.7280052,1007443810.27809,-0.0100583233870525,0.95,0.05,0.25,0.2375,0.1425982902238882,0.2374897058663858,50956810.72800517,True
A2b_LLM_SEMANTIC,2024-02-26,2024-02-27,117680,ETF_002,KODEX 철강,8840.0,8705.0,10988.0,27356.0,16368.0,BUY,97133920.0,241827040.0,144693120.0,144693120.0,775038248.0,21703.968,116255.7372,1018363472.4652052,1018247216.7280052,1007443810.27809,-0.0100583233870525,0.95,0.05,0.25,0.2375,0.0953823685023412,0.2374934456261784,50956810.72800517,True
A2b_LLM_SEMANTIC,2024-02-26,2024-02-27,139260,ETF_003,TIGER 200 IT,31788.0,31141.0,4579.0,7607.0,3028.0,BUY,145557252.0,241811316.0,96254064.0,96254064.0,775038248.0,14438.1096,116255.7372,1018363472.4652052,1018247216.7280052,1007443810.27809,-0.0100583233870525,0.95,0.05,0.25,0.2375,0.1429325147018893,0.2374780034037577,50956810.72800517,True
A2b_LLM_SEMANTIC,2024-02-26,2024-02-27,139270,ETF_004,TIGER 200 금융,6909.0,6914.0,27745.0,35002.0,7257.0,BUY,191690205.0,241828818.0,50138613.0,50138613.0,775038248.0,7520.791949999999,116255.7372,1018363472.4652052,1018247216.7280052,1007443810.27809,-0.0100583233870525,0.95,0.05,0.25,0.2375,0.1882335827854917,0.2374951917640227,50956810.72800517,True
A2b_LLM_SEMANTIC,2024-02-26,2024-02-27,227550,ETF_005,TIGER 200 산업재,6356.0,6266.0,7788.0,0.0,-7788.0,SELL,49500528.0,0.0,-49500528.0,49500528.0,775038248.0,7425.079199999999,116255.7372,1018363472.4652052,1018247216.7280052,1007443810.27809,-0.0100583233870525,0.95,0.05,0.0,0.0,0.0486079178391694,0.0,50956810.72800517,True
