PJH-02/HYFE38_ML/testing/backtest_state/out_2024_kofr_decision_regime_a0_a6_k10/A3_k10/trade_history.csv
strategy,decision_date,execution_date,ticker,ETF_id,name,open,close,prev_qty,target_qty,delta_qty,side,prev_value_open,target_value_open,delta_value_open,trade_turnover_value,day_turnover_value,commission_allocated,day_commission,nav_open_pre,nav_open_post,nav_close,daily_return,stock_ratio,cash_weight,target_sleeve_weight,target_portfolio_weight,prev_portfolio_weight_open,actual_portfolio_weight_open,cash_after_rebalance,rebalanced
A3_LLM_POLICY,2024-01-05,2024-01-08,117460,ETF_001,KODEX 에너지화학,15298.0,15175.0,0.0,0.0,0.0,HOLD,0.0,0.0,0.0,0.0,949832784.0,0.0,142474.9176,1000000000.0,999857525.0824,996406262.3033162,-0.0035937376966838,0.95,0.05,0.0,0.0,0.0,0.0,50024741.082399964,True
A3_LLM_POLICY,2024-01-05,2024-01-08,117680,ETF_002,KODEX 철강,8836.0,8724.0,0.0,0.0,0.0,HOLD,0.0,0.0,0.0,0.0,949832784.0,0.0,142474.9176,1000000000.0,999857525.0824,996406262.3033162,-0.0035937376966838,0.95,0.05,0.0,0.0,0.0,0.0,50024741.082399964,True
A3_LLM_POLICY,2024-01-05,2024-01-08,139260,ETF_003,TIGER 200 IT,31194.0,31155.0,0.0,10657.0,10657.0,BUY,0.0,332434458.0,332434458.0,332434458.0,949832784.0,49865.1687,142474.9176,1000000000.0,999857525.0824,996406262.3033162,-0.0035937376966838,0.95,0.05,0.35,0.3324999999999999,0.0,0.3324818283210936,50024741.082399964,True
A3_LLM_POLICY,2024-01-05,2024-01-08,139270,ETF_004,TIGER 200 금융,5704.0,5695.0,0.0,41631.0,41631.0,BUY,0.0,237463224.0,237463224.0,237463224.0,949832784.0,35619.4836,142474.9176,1000000000.0,999857525.0824,996406262.3033162,-0.0035937376966838,0.95,0.05,0.25,0.2375,0.0,0.2374970613742495,50024741.082399964,True
A3_LLM_POLICY,2024-01-05,2024-01-08,266390,ETF_006,KODEX 경기소비재,7956.0,7985.0,0.0,17908.0,17908.0,BUY,0.0,142476048.0,142476048.0,142476048.0,949832784.0,21371.4072,142474.9176,1000000000.0,999857525.0824,996406262.3033162,-0.0035937376966838,0.95,0.05,0.15,0.1425,0.0,0.1424963501557467,50024741.082399964,True
A3_LLM_POLICY,2024-01-05,2024-01-08,266410,ETF_007,KODEX 필수소비재,6217.0,6165.0,0.0,22917.0,22917.0,BUY,0.0,142474989.0,142474989.0,142474989.0,949832784.0,21371.24835,142474.9176,1000000000.0,999857525.0824,996406262.3033162,-0.0035937376966838,0.95,0.05,0.15,0.1425,0.0,0.1424952910048443,50024741.082399964,True
A3_LLM_POLICY,2024-01-05,2024-01-08,266420,ETF_008,KODEX 헬스케어,13995.0,13701.0,0.0,6787.0,6787.0,BUY,0.0,94984065.0,94984065.0,94984065.0,949832784.0,14247.60975,142474.9176,1000000000.0,999857525.0824,996406262.3033162,-0.0035937376966838,0.95,0.05,0.1,0.095,0.0,0.0949975997752001,50024741.082399964,True
A3_LLM_POLICY,2024-01-05,2024-01-08,315270,ETF_009,TIGER 200 커뮤니케이션서비스,17691.0,17643.0,0.0,0.0,0.0,HOLD,0.0,0.0,0.0,0.0,949832784.0,0.0,142474.9176,1000000000.0,999857525.0824,996406262.3033162,-0.0035937376966838,0.95,0.05,0.0,0.0,0.0,0.0,50024741.082399964,True
A3_LLM_POLICY,2024-01-08,2024-01-09,117460,ETF_001,KODEX 에너지화학,15244.0,15170.0,0.0,0.0,0.0,HOLD,0.0,0.0,0.0,0.0,4053346.0,0.0,608.0019,1006045076.3033162,1006044468.3014164,998700954.0558584,0.0023029680155137,0.95,0.05,0.0,0.0,0.0,0.0,50333960.30141628,True
A3_LLM_POLICY,2024-01-08,2024-01-09,117680,ETF_002,KODEX 철강,8780.0,8672.0,0.0,0.0,0.0,HOLD,0.0,0.0,0.0,0.0,4053346.0,0.0,608.0019,1006045076.3033162,1006044468.3014164,998700954.0558584,0.0023029680155137,0.95,0.05,0.0,0.0,0.0,0.0,50333960.30141628,True
A3_LLM_POLICY,2024-01-08,2024-01-09,139260,ETF_003,TIGER 200 IT,31511.0,31004.0,10657.0,10615.0,-42.0,SELL,335812727.0,334489265.0,-1323462.0,1323462.0,4053346.0,198.5193,608.0019,1006045076.3033162,1006044468.3014164,998700954.0558584,0.0023029680155137,0.95,0.05,0.35,0.3324999999999999,0.3337949112915837,0.3324796025813297,50333960.30141628,True
A3_LLM_POLICY,2024-01-08,2024-01-09,139270,ETF_004,TIGER 200 금융,5744.0,5731.0,41631.0,41597.0,-34.0,SELL,239128464.0,238933168.0,-195296.0,195296.0,4053346.0,29.2944,608.0019,1006045076.3033162,1006044468.3014164,998700954.0558584,0.0023029680155137,0.95,0.05,0.25,0.2375,0.2376916001404934,0.2374976211572532,50333960.30141628,True
A3_LLM_POLICY,2024-01-08,2024-01-09,266390,ETF_006,KODEX 경기소비재,8042.0,8009.0,17908.0,17826.0,-82.0,SELL,144016136.0,143356692.0,-659444.0,659444.0,4053346.0,98.9166,608.0019,1006045076.3033162,1006044468.3014164,998700954.0558584,0.0023029680155137,0.95,0.05,0.15,0.1425,0.1431507786203608,0.1424953831733107,50333960.30141628,True
A3_LLM_POLICY,2024-01-08,2024-01-09,266410,ETF_007,KODEX 필수소비재,6232.0,6194.0,22917.0,23004.0,87.0,BUY,142818744.0,143360928.0,542184.0,542184.0,4053346.0,81.32759999999999,608.0019,1006045076.3033162,1006044468.3014164,998700954.0558584,0.0023029680155137,0.95,0.05,0.15,0.1425,0.1419605814530531,0.1424995937227779,50333960.30141628,True
A3_LLM_POLICY,2024-01-08,2024-01-09,266420,ETF_008,KODEX 헬스케어,13885.0,13890.0,6787.0,6883.0,96.0,BUY,94237495.0,95570455.0,1332960.0,1332960.0,4053346.0,199.944,608.0019,1006045076.3033162,1006044468.3014164,998700954.0558584,0.0023029680155137,0.95,0.05,0.1,0.095,0.0936712451754875,0.0949962531590269,50333960.30141628,True
A3_LLM_POLICY,2024-01-08,2024-01-09,315270,ETF_009,TIGER 200 커뮤니케이션서비스,17682.0,17825.0,0.0,0.0,0.0,HOLD,0.0,0.0,0.0,0.0,4053346.0,0.0,608.0019,1006045076.3033162,1006044468.3014164,998700954.0558584,0.0023029680155137,0.95,0.05,0.0,0.0,0.0,0.0,50333960.30141628,True
A3_LLM_POLICY,2024-01-09,2024-01-10,117460,ETF_001,KODEX 에너지화학,15264.0,15038.0,0.0,0.0,0.0,HOLD,0.0,0.0,0.0,0.0,482268083.0,0.0,72340.21244999999,1004228438.0558584,1004156097.8434083,992140159.7597866,-0.0065693281551676,0.95,0.05,0.0,0.0,0.0,0.0,50242259.84340847,True
A3_LLM_POLICY,2024-01-09,2024-01-10,117680,ETF_002,KODEX 철강,8658.0,8579.0,0.0,0.0,0.0,HOLD,0.0,0.0,0.0,0.0,482268083.0,0.0,72340.21244999999,1004228438.0558584,1004156097.8434083,992140159.7597866,-0.0065693281551676,0.95,0.05,0.0,0.0,0.0,0.0,50242259.84340847,True
A3_LLM_POLICY,2024-01-09,2024-01-10,139260,ETF_003,TIGER 200 IT,31185.0,30425.0,10615.0,10706.0,91.0,BUY,331028775.0,333866610.0,2837835.0,2837835.0,482268083.0,425.67525,72340.21244999999,1004228438.0558584,1004156097.8434083,992140159.7597866,-0.0065693281551676,0.95,0.05,0.35,0.3324999999999999,0.3296349341001107,0.3324847707612729,50242259.84340847,True
A3_LLM_POLICY,2024-01-09,2024-01-10,139270,ETF_004,TIGER 200 금융,5790.0,5695.0,41597.0,0.0,-41597.0,SELL,240846630.0,0.0,-240846630.0,240846630.0,482268083.0,36126.99449999999,72340.21244999999,1004228438.0558584,1004156097.8434083,992140159.7597866,-0.0065693281551676,0.95,0.05,0.0,0.0,0.2398325130746828,0.0,50242259.84340847,True
A3_LLM_POLICY,2024-01-09,2024-01-10,266390,ETF_006,KODEX 경기소비재,8013.0,7942.0,17826.0,29762.0,11936.0,BUY,142839738.0,238482906.0,95643168.0,95643168.0,482268083.0,14346.4752,72340.21244999999,1004228438.0558584,1004156097.8434083,992140159.7597866,-0.0065693281551676,0.95,0.05,0.25,0.2375,0.1422382921922937,0.2374958500099551,50242259.84340847,True
A3_LLM_POLICY,2024-01-09,2024-01-10,266410,ETF_007,KODEX 필수소비재,6232.0,6175.0,23004.0,22960.0,-44.0,SELL,143360928.0,143086720.0,-274208.0,274208.0,482268083.0,41.13119999999999,72340.21244999999,1004228438.0558584,1004156097.8434083,992140159.7597866,-0.0065693281551676,0.95,0.05,0.15,0.1425,0.1427572876521405,0.1424944989203396,50242259.84340847,True
A3_LLM_POLICY,2024-01-09,2024-01-10,266420,ETF_008,KODEX 헬스케어,13920.0,13880.0,6883.0,10279.0,3396.0,BUY,95811360.0,143083680.0,47272320.0,47272320.0,482268083.0,7090.848,72340.21244999999,1004228438.0558584,1004156097.8434083,992140159.7597866,-0.0065693281551676,0.95,0.05,0.15,0.1425,0.0954079334633129,0.142491471502584,50242259.84340847,True
A3_LLM_POLICY,2024-01-09,2024-01-10,315270,ETF_009,TIGER 200 커뮤니케이션서비스,17854.0,17844.0,0.0,5343.0,5343.0,BUY,0.0,95393922.0,95393922.0,95393922.0,482268083.0,14309.0883,72340.21244999999,1004228438.0558584,1004156097.8434083,992140159.7597866,-0.0065693281551676,0.95,0.05,0.1,0.095,0.0,0.0949990964600765,50242259.84340847,True
A3_LLM_POLICY,2024-01-10,2024-01-11,117460,ETF_001,KODEX 에너지화학,14994.0,14974.0,0.0,0.0,0.0,HOLD,0.0,0.0,0.0,0.0,382602695.0,0.0,57390.40424999999,993294101.7597866,993236711.3555366,994489511.0455452,0.0023679630973987,0.95,0.05,0.0,0.0,0.0,0.0,49702382.35553658,True
A3_LLM_POLICY,2024-01-10,2024-01-11,117680,ETF_002,KODEX 철강,8579.0,8560.0,0.0,0.0,0.0,HOLD,0.0,0.0,0.0,0.0,382602695.0,0.0,57390.40424999999,993294101.7597866,993236711.3555366,994489511.0455452,0.0023679630973987,0.95,0.05,0.0,0.0,0.0,0.0,49702382.35553658,True
A3_LLM_POLICY,2024-01-10,2024-01-11,139260,ETF_003,TIGER 200 IT,30469.0,30727.0,10706.0,10838.0,132.0,BUY,326201114.0,330223022.0,4021908.0,4021908.0,382602695.0,603.2861999999999,57390.40424999999,993294101.7597866,993236711.3555366,994489511.0455452,0.0023679630973987,0.95,0.05,0.35,0.3324999999999999,0.3284033534701154,0.3324716235562039,49702382.35553658,True
A3_LLM_POLICY,2024-01-10,2024-01-11,139270,ETF_004,TIGER 200 금융,5771.0,5785.0,0.0,16350.0,16350.0,BUY,0.0,94355850.0,94355850.0,94355850.0,382602695.0,14153.377499999997,57390.40424999999,993294101.7597866,993236711.3555366,994489511.0455452,0.0023679630973987,0.95,0.05,0.0999999999999999,0.0949999999999999,0.0,0.0949983512703897,49702382.35553658,True
A3_LLM_POLICY,2024-01-10,2024-01-11,266390,ETF_006,KODEX 경기소비재,7942.0,7932.0,29762.0,23761.0,-6001.0,SELL,236369804.0,188709862.0,-47659942.0,47659942.0,382602695.0,7148.9913,57390.40424999999,993294101.7597866,993236711.3555366,994489511.0455452,0.0023679630973987,0.95,0.05,0.1999999999999999,0.1899999999999999,0.2379655769436578,0.1899948520252086,49702382.35553658,True
A3_LLM_POLICY,2024-01-10,2024-01-11,266410,ETF_007,KODEX 필수소비재,6179.0,6127.0,22960.0,15270.0,-7690.0,SELL,141869840.0,94353330.0,-47516510.0,47516510.0,382602695.0,7127.476499999999,57390.40424999999,993294101.7597866,993236711.3555366,994489511.0455452,0.0023679630973987,0.95,0.05,0.0999999999999999,0.0949999999999999,0.1428276275361485,0.0949958141108474,49702382.35553658,True
A3_LLM_POLICY,2024-01-10,2024-01-11,266420,ETF_008,KODEX 헬스케어,13885.0,13841.0,10279.0,16989.0,6710.0,BUY,142723915.0,235892265.0,93168350.0,93168350.0,382602695.0,13975.252499999997,57390.40424999999,993294101.7597866,993236711.3555366,994489511.0455452,0.0023679630973987,0.95,0.05,0.25,0.2375,0.1436874685424394,0.2374985361526378,49702382.35553658,True
A3_LLM_POLICY,2024-01-10,2024-01-11,315270,ETF_009,TIGER 200 커뮤니케이션서비스,17945.0,18017.0,5343.0,0.0,-5343.0,SELL,95880135.0,0.0,-95880135.0,95880135.0,382602695.0,14382.02025,57390.40424999999,993294101.7597866,993236711.3555366,994489511.0455452,0.0023679630973987,0.95,0.05,0.0,0.0,0.0965274381778088,0.0,49702382.35553658,True
A3_LLM_POLICY,2024-01-11,2024-01-12,117460,ETF_001,KODEX 에너지화학,15028.0,14783.0,0.0,0.0,0.0,HOLD,0.0,0.0,0.0,0.0,289449086.0,0.0,43417.36289999999,990664325.0455452,990620907.6826452,981447360.6496104,-0.01311441724732,0.95,0.05,0.0,0.0,0.0,0.0,49560974.68264508,True
A3_LLM_POLICY,2024-01-11,2024-01-12,117680,ETF_002,KODEX 철강,8560.0,8443.0,0.0,0.0,0.0,HOLD,0.0,0.0,0.0,0.0,289449086.0,0.0,43417.36289999999,990664325.0455452,990620907.6826452,981447360.6496104,-0.01311441724732,0.95,0.05,0.0,0.0,0.0,0.0,49560974.68264508,True
A3_LLM_POLICY,2024-01-11,2024-01-12,139260,ETF_003,TIGER 200 IT,30557.0,30090.0,10838.0,10779.0,-59.0,SELL,331176766.0,329373903.0,-1802863.0,1802863.0,289449086.0,270.4294499999999,43417.36289999999,990664325.0455452,990620907.6826452,981447360.6496104,-0.01311441724732,0.95,0.05,0.35,0.3324999999999999,0.3342976602945446,0.3324923797242508,49560974.68264508,True
A3_LLM_POLICY,2024-01-11,2024-01-12,139270,ETF_004,TIGER 200 금융,5830.0,5762.0,16350.0,0.0,-16350.0,SELL,95320500.0,0.0,-95320500.0,95320500.0,289449086.0,14298.074999999995,43417.36289999999,990664325.0455452,990620907.6826452,981447360.6496104,-0.01311441724732,0.95,0.05,0.0,0.0,0.0962187671344859,0.0,49560974.68264508,True
A3_LLM_POLICY,2024-01-11,2024-01-12,266390,ETF_006,KODEX 경기소비재,7942.0,7894.0,23761.0,17774.0,-5987.0,SELL,188709862.0,141161108.0,-47548754.0,47548754.0,289449086.0,7132.313099999999,43417.36289999999,990664325.0455452,990620907.6826452,981447360.6496104,-0.01311441724732,0.95,0.05,0.15,0.1425,0.1904881978982378,0.1424976062035855,49560974.68264508,True
A3_LLM_POLICY,2024-01-11,2024-01-12,266410,ETF_007,KODEX 필수소비재,6127.0,6079.0,15270.0,15359.0,89.0,BUY,93559290.0,94104593.0,545303.0,545303.0,289449086.0,81.79544999999997,43417.36289999999,990664325.0455452,990620907.6826452,981447360.6496104,-0.01311441724732,0.95,0.05,0.1,0.095,0.0944409601059356,0.0949955651755205,49560974.68264508,True
A3_LLM_POLICY,2024-01-11,2024-01-12,266420,ETF_008,KODEX 헬스케어,13667.0,13562.0,16989.0,17214.0,225.0,BUY,232188663.0,235263738.0,3075075.0,3075075.0,289449086.0,461.26125,43417.36289999999,990664325.0455452,990620907.6826452,981447360.6496104,-0.01311441724732,0.95,0.05,0.25,0.2375,0.2343767279490207,0.2374911897936329,49560974.68264508,True
A3_LLM_POLICY,2024-01-11,2024-01-12,315270,ETF_009,TIGER 200 커뮤니케이션서비스,17911.0,17816.0,0.0,7881.0,7881.0,BUY,0.0,141156591.0,141156591.0,141156591.0,289449086.0,21173.48865,43417.36289999999,990664325.0455452,990620907.6826452,981447360.6496104,-0.01311441724732,0.95,0.05,0.15,0.1425,0.0,0.1424930464371148,49560974.68264508,True
A3_LLM_POLICY,2024-01-12,2024-01-15,117460,ETF_001,KODEX 에너지화학,14876.0,14636.0,0.0,0.0,0.0,HOLD,0.0,0.0,0.0,0.0,840745933.0,0.0,126111.88994999998,983150805.6496104,983024693.7596604,977592941.1560771,-0.0039272809200711,0.95,0.05,0.0,0.0,0.0,0.0,49184126.75966048,True
A3_LLM_POLICY,2024-01-12,2024-01-15,117680,ETF_002,KODEX 철강,8424.0,8373.0,0.0,0.0,0.0,HOLD,0.0,0.0,0.0,0.0,840745933.0,0.0,126111.88994999998,983150805.6496104,983024693.7596604,977592941.1560771,-0.0039272809200711,0.95,0.05,0.0,0.0,0.0,0.0,49184126.75966048,True
A3_LLM_POLICY,2024-01-12,2024-01-15,139260,ETF_003,TIGER 200 IT,30187.0,30177.0,10779.0,4640.0,-6139.0,SELL,325385673.0,140067680.0,-185317993.0,185317993.0,840745933.0,27797.698949999995,126111.88994999998,983150805.6496104,983024693.7596604,977592941.1560771,-0.0039272809200711,0.95,0.05,0.15,0.1425,0.3309621180496348,0.1424864307978871,49184126.75966048,True
A3_LLM_POLICY,2024-01-12,2024-01-15,139270,ETF_004,TIGER 200 금융,5848.0,5871.0,0.0,15969.0,15969.0,BUY,0.0,93386712.0,93386712.0,93386712.0,840745933.0,14008.006799999996,126111.88994999998,983150805.6496104,983024693.7596604,977592941.1560771,-0.0039272809200711,0.95,0.05,0.1,0.095,0.0,0.0949993551462422,49184126.75966048,True
A3_LLM_POLICY,2024-01-12,2024-01-15,227550,ETF_005,TIGER 200 산업재,6209.0,6209.0,0.0,37601.0,37601.0,BUY,0.0,233464609.0,233464609.0,233464609.0,840745933.0,35019.69135,126111.88994999998,983150805.6496104,983024693.7596604,977592941.1560771,-0.0039272809200711,0.95,0.05,0.25,0.2375,0.0,0.237496179375815,49184126.75966048,True
A3_LLM_POLICY,2024-01-12,2024-01-15,266390,ETF_006,KODEX 경기소비재,7889.0,7870.0,17774.0,0.0,-17774.0,SELL,140219086.0,0.0,-140219086.0,140219086.0,840745933.0,21032.8629,126111.88994999998,983150805.6496104,983024693.7596604,977592941.1560771,-0.0039272809200711,0.95,0.05,0.0,0.0,0.1426221543981252,0.0,49184126.75966048,True
A3_LLM_POLICY,2024-01-12,2024-01-15,266410,ETF_007,KODEX 필수소비재,6108.0,6051.0,15359.0,0.0,-15359.0,SELL,93812772.0,0.0,-93812772.0,93812772.0,840745933.0,14071.915799999995,126111.88994999998,983150805.6496104,983024693.7596604,977592941.1560771,-0.0039272809200711,0.95,0.05,0.0,0.0,0.0954205310730675,0.0,49184126.75966048,True
A3_LLM_POLICY,2024-01-12,2024-01-15,266420,ETF_008,KODEX 헬스케어,13547.0,13319.0,17214.0,24127.0,6913.0,BUY,233198058.0,326848469.0,93650411.0,93650411.0,840745933.0,14047.561649999998,126111.88994999998,983150805.6496104,983024693.7596604,977592941.1560771,-0.0039272809200711,0.95,0.05,0.35,0.3324999999999999,0.2371945958442417,0.3324926332724569,49184126.75966048,True
A3_LLM_POLICY,2024-01-12,2024-01-15,315270,ETF_009,TIGER 200 커뮤니케이션서비스,17887.0,17854.0,7881.0,7831.0,-50.0,SELL,140967447.0,140073097.0,-894350.0,894350.0,840745933.0,134.15249999999995,126111.88994999998,983150805.6496104,983024693.7596604,977592941.1560771,-0.0039272809200711,0.95,0.05,0.15,0.1425,0.1433833407753316,0.1424919413410447,49184126.75966048,True
A3_LLM_POLICY,2024-01-15,2024-01-16,117460,ETF_001,KODEX 에너지화학,14720.0,14519.0,0.0,0.0,0.0,HOLD,0.0,0.0,0.0,0.0,836489263.0,0.0,125473.38945,978386593.1560771,978261119.7666272,966844379.2039396,-0.0109949259038497,0.95,0.05,0.0,0.0,0.0,0.0,48936021.76662719,True
A3_LLM_POLICY,2024-01-15,2024-01-16,117680,ETF_002,KODEX 철강,8368.0,8340.0,0.0,0.0,0.0,HOLD,0.0,0.0,0.0,0.0,836489263.0,0.0,125473.38945,978386593.1560771,978261119.7666272,966844379.2039396,-0.0109949259038497,0.95,0.05,0.0,0.0,0.0,0.0,48936021.76662719,True
A3_LLM_POLICY,2024-01-15,2024-01-16,139260,ETF_003,TIGER 200 IT,30075.0,29686.0,4640.0,7725.0,3085.0,BUY,139548000.0,232329375.0,92781375.0,92781375.0,836489263.0,13917.206249999996,125473.38945,978386593.1560771,978261119.7666272,966844379.2039396,-0.0109949259038497,0.95,0.05,0.25,0.2375,0.1426307361283911,0.2374921892586554,48936021.76662719,True
A3_LLM_POLICY,2024-01-15,2024-01-16,139270,ETF_004,TIGER 200 금융,5907.0,5794.0,15969.0,0.0,-15969.0,SELL,94328883.0,0.0,-94328883.0,94328883.0,836489263.0,14149.332449999998,125473.38945,978386593.1560771,978261119.7666272,966844379.2039396,-0.0109949259038497,0.95,0.05,0.0,0.0,0.0964126896871247,0.0,48936021.76662719,True
A3_LLM_POLICY,2024-01-15,2024-01-16,227550,ETF_005,TIGER 200 산업재,6185.0,6175.0,37601.0,0.0,-37601.0,SELL,232562185.0,0.0,-232562185.0,232562185.0,836489263.0,34884.32775,125473.38945,978386593.1560771,978261119.7666272,966844379.2039396,-0.0109949259038497,0.95,0.05,0.0,0.0,0.2376996849985458,0.0,48936021.76662719,True
A3_LLM_POLICY,2024-01-15,2024-01-16,266390,ETF_006,KODEX 경기소비재,7832.0,7775.0,0.0,0.0,0.0,HOLD,0.0,0.0,0.0,0.0,836489263.0,0.0,125473.38945,978386593.1560771,978261119.7666272,966844379.2039396,-0.0109949259038497,0.95,0.05,0.0,0.0,0.0,0.0,48936021.76662719,True
A3_LLM_POLICY,2024-01-15,2024-01-16,266410,ETF_007,KODEX 필수소비재,6022.0,5922.0,0.0,38581.0,38581.0,BUY,0.0,232334782.0,232334782.0,232334782.0,836489263.0,34850.2173,125473.38945,978386593.1560771,978261119.7666272,966844379.2039396,-0.0109949259038497,0.95,0.05,0.25,0.2375,0.0,0.2374977164127973,48936021.76662719,True
A3_LLM_POLICY,2024-01-15,2024-01-16,266420,ETF_008,KODEX 헬스케어,13413.0,13309.0,24127.0,17321.0,-6806.0,SELL,323615451.0,232326573.0,-91288878.0,91288878.0,836489263.0,13693.331699999995,125473.38945,978386593.1560771,978261119.7666272,966844379.2039396,-0.0109949259038497,0.95,0.05,0.25,0.2375,0.3307643964703993,0.2374893249927213,48936021.76662719,True
A3_LLM_POLICY,2024-01-15,2024-01-16,315270,ETF_009,TIGER 200 커뮤니케이션서비스,17768.0,17557.0,7831.0,13076.0,5245.0,BUY,139141208.0,232334368.0,93193160.0,93193160.0,836489263.0,13978.973999999998,125473.38945,978386593.1560771,978261119.7666272,966844379.2039396,-0.0109949259038497,0.95,0.05,0.25,0.2375,0.1422149577409463,0.2374972932129055,48936021.76662719,True
A3_LLM_POLICY,2024-01-16,2024-01-17,117460,ETF_001,KODEX 에너지화학,14519.0,14014.0,0.0,0.0,0.0,HOLD,0.0,0.0,0.0,0.0,922601172.0,0.0,138390.1758,965617111.2039396,965478721.0281396,947518918.641352,-0.0199881811160751,0.95,0.05,0.0,0.0,0.0,0.0,48296618.02813959,True
A3_LLM_POLICY,2024-01-16,2024-01-17,117680,ETF_002,KODEX 철강,8363.0,8134.0,0.0,0.0,0.0,HOLD,0.0,0.0,0.0,0.0,922601172.0,0.0,138390.1758,965617111.2039396,965478721.0281396,947518918.641352,-0.0199881811160751,0.95,0.05,0.0,0.0,0.0,0.0,48296618.02813959,True
A3_LLM_POLICY,2024-01-16,2024-01-17,139260,ETF_003,TIGER 200 IT,29978.0,29038.0,7725.0,0.0,-7725.0,SELL,231580050.0,0.0,-231580050.0,231580050.0,922601172.0,34737.0075,138390.1758,965617111.2039396,965478721.0281396,947518918.641352,-0.0199881811160751,0.95,0.05,0.0,0.0,0.2398259592886294,0.0,48296618.02813959,True
A3_LLM_POLICY,2024-01-16,2024-01-17,139270,ETF_004,TIGER 200 금융,5880.0,5717.0,0.0,38996.0,38996.0,BUY,0.0,229296480.0,229296480.0,229296480.0,922601172.0,34394.472,138390.1758,965617111.2039396,965478721.0281396,947518918.641352,-0.0199881811160751,0.95,0.05,0.25,0.2375,0.0,0.2374951151236372,48296618.02813959,True
A3_LLM_POLICY,2024-01-16,2024-01-17,227550,ETF_005,TIGER 200 산업재,6052.0,6019.0,0.0,37888.0,37888.0,BUY,0.0,229298176.0,229298176.0,229298176.0,922601172.0,34394.7264,138390.1758,965617111.2039396,965478721.0281396,947518918.641352,-0.0199881811160751,0.95,0.05,0.25,0.2375,0.0,0.2374968717651488,48296618.02813959,True
A3_LLM_POLICY,2024-01-16,2024-01-17,266390,ETF_006,KODEX 경기소비재,7727.0,7622.0,0.0,0.0,0.0,HOLD,0.0,0.0,0.0,0.0,922601172.0,0.0,138390.1758,965617111.2039396,965478721.0281396,947518918.641352,-0.0199881811160751,0.95,0.05,0.0,0.0,0.0,0.0,48296618.02813959,True
A3_LLM_POLICY,2024-01-16,2024-01-17,266410,ETF_007,KODEX 필수소비재,5927.0,5793.0,38581.0,0.0,-38581.0,SELL,228669587.0,0.0,-228669587.0,228669587.0,922601172.0,34300.43805,138390.1758,965617111.2039396,965478721.0281396,947518918.641352,-0.0199881811160751,0.95,0.05,0.0,0.0,0.2368118629493763,0.0,48296618.02813959,True
A3_LLM_POLICY,2024-01-16,2024-01-17,266420,ETF_008,KODEX 헬스케어,13284.0,12901.0,17321.0,17261.0,-60.0,SELL,230092164.0,229295124.0,-797040.0,797040.0,922601172.0,119.556,138390.1758,965617111.2039396,965478721.0281396,947518918.641352,-0.0199881811160751,0.95,0.05,0.25,0.2375,0.2382850938847999,0.2374937106390323,48296618.02813959,True
A3_LLM_POLICY,2024-01-16,2024-01-17,315270,ETF_009,TIGER 200 커뮤니케이션서비스,17309.0,17026.0,13076.0,13247.0,171.0,BUY,226332484.0,229292323.0,2959839.0,2959839.0,922601172.0,443.97585,138390.1758,965617111.2039396,965478721.0281396,947518918.641352,-0.0199881811160751,0.95,0.05,0.25,0.2375,0.2343915423348357,0.2374908094875734,48296618.02813959,True
A3_LLM_POLICY,2024-01-17,2024-01-18,117460,ETF_001,KODEX 에너지화학,14048.0,13980.0,0.0,0.0,0.0,HOLD,0.0,0.0,0.0,0.0,904333438.0,0.0,135650.0157,948192282.641352,948056632.625652,946159264.7354496,-0.0014349622779584,0.95,0.05,0.0,0.0,0.0,0.0,47424241.62565196,True
A3_LLM_POLICY,2024-01-17,2024-01-18,117680,ETF_002,KODEX 철강,8111.0,8106.0,0.0,0.0,0.0,HOLD,0.0,0.0,0.0,0.0,904333438.0,0.0,135650.0157,948192282.641352,948056632.625652,946159264.7354496,-0.0014349622779584,0.95,0.05,0.0,0.0,0.0,0.0,47424241.62565196,True
A3_LLM_POLICY,2024-01-17,2024-01-18,139260,ETF_003,TIGER 200 IT,29092.0,29262.0,0.0,0.0,0.0,HOLD,0.0,0.0,0.0,0.0,904333438.0,0.0,135650.0157,948192282.641352,948056632.625652,946159264.7354496,-0.0014349622779584,0.95,0.05,0.0,0.0,0.0,0.0,47424241.62565196,True
A3_LLM_POLICY,2024-01-17,2024-01-18,139270,ETF_004,TIGER 200 금융,5717.0,5631.0,38996.0,39384.0,388.0,BUY,222940132.0,225158328.0,2218196.0,2218196.0,904333438.0,332.7294,135650.0157,948192282.641352,948056632.625652,946159264.7354496,-0.0014349622779584,0.95,0.05,0.25,0.2375,0.2351212260228084,0.237494597106949,47424241.62565196,True
A3_LLM_POLICY,2024-01-17,2024-01-18,227550,ETF_005,TIGER 200 산업재,6028.0,6009.0,37888.0,0.0,-37888.0,SELL,228388864.0,0.0,-228388864.0,228388864.0,904333438.0,34258.3296,135650.0157,948192282.641352,948056632.625652,946159264.7354496,-0.0014349622779584,0.95,0.05,0.0,0.0,0.2408676680681092,0.0,47424241.62565196,True
A3_LLM_POLICY,2024-01-17,2024-01-18,266390,ETF_006,KODEX 경기소비재,7660.0,7607.0,0.0,29394.0,29394.0,BUY,0.0,225158040.0,225158040.0,225158040.0,904333438.0,33773.706,135650.0157,948192282.641352,948056632.625652,946159264.7354496,-0.0014349622779584,0.95,0.05,0.25,0.2375,0.0,0.2374942933276281,47424241.62565196,True
A3_LLM_POLICY,2024-01-17,2024-01-18,266410,ETF_007,KODEX 필수소비재,5803.0,5865.0,0.0,38801.0,38801.0,BUY,0.0,225162203.0,225162203.0,225162203.0,904333438.0,33774.33045,135650.0157,948192282.641352,948056632.625652,946159264.7354496,-0.0014349622779584,0.95,0.05,0.25,0.2375,0.0,0.2374986844155197,47424241.62565196,True
A3_LLM_POLICY,2024-01-17,2024-01-18,266420,ETF_008,KODEX 헬스케어,12931.0,12797.0,17261.0,0.0,-17261.0,SELL,223201991.0,0.0,-223201991.0,223201991.0,904333438.0,33480.29865,135650.0157,948192282.641352,948056632.625652,946159264.7354496,-0.0014349622779584,0.95,0.05,0.0,0.0,0.2353973925818428,0.0,47424241.62565196,True
A3_LLM_POLICY,2024-01-17,2024-01-18,315270,ETF_009,TIGER 200 커뮤니케이션서비스,17012.0,17060.0,13247.0,13235.0,-12.0,SELL,225357964.0,225153820.0,-204144.0,204144.0,904333438.0,30.6216,135650.0157,948192282.641352,948056632.625652,946159264.7354496,-0.0014349622779584,0.95,0.05,0.25,0.2375,0.2376711645155208,0.237489842116746,47424241.62565196,True
A3_LLM_POLICY,2024-01-18,2024-01-19,117460,ETF_001,KODEX 에너지화학,14014.0,13720.0,0.0,0.0,0.0,HOLD,0.0,0.0,0.0,0.0,904614556.0,0.0,135692.18339999998,952045630.7354496,951909938.5520496,947528144.0580654,0.0014467747382873,0.95,0.05,0.0,0.0,0.0,0.0,47642799.55204952,True
A3_LLM_POLICY,2024-01-18,2024-01-19,117680,ETF_002,KODEX 철강,8115.0,8106.0,0.0,0.0,0.0,HOLD,0.0,0.0,0.0,0.0,904614556.0,0.0,135692.18339999998,952045630.7354496,951909938.5520496,947528144.0580654,0.0014467747382873,0.95,0.05,0.0,0.0,0.0,0.0,47642799.55204952,True
A3_LLM_POLICY,2024-01-18,2024-01-19,139260,ETF_003,TIGER 200 IT,29729.0,29905.0,0.0,6083.0,6083.0,BUY,0.0,180841507.0,180841507.0,180841507.0,904614556.0,27126.22605,135692.18339999998,952045630.7354496,951909938.5520496,947528144.0580654,0.0014467747382873,0.95,0.05,0.2,0.19,0.0,0.1899775385002052,47642799.55204952,True
A3_LLM_POLICY,2024-01-18,2024-01-19,139270,ETF_004,TIGER 200 금융,5631.0,5663.0,39384.0,16059.0,-23325.0,SELL,221771304.0,90428229.0,-131343075.0,131343075.0,904614556.0,19701.46125,135692.18339999998,952045630.7354496,951909938.5520496,947528144.0580654,0.0014467747382873,0.95,0.05,0.1,0.095,0.232941885179057,0.0949966224089963,47642799.55204952,True
A3_LLM_POLICY,2024-01-18,2024-01-19,227550,ETF_005,TIGER 200 산업재,6033.0,5971.0,0.0,44968.0,44968.0,BUY,0.0,271291944.0,271291944.0,271291944.0,904614556.0,40693.79159999999,135692.18339999998,952045630.7354496,951909938.5520496,947528144.0580654,0.0014467747382873,0.95,0.05,0.3,0.285,0.0,0.2849974908473613,47642799.55204952,True
A3_LLM_POLICY,2024-01-18,2024-01-19,266390,ETF_006,KODEX 경기소비재,7684.0,7650.0,29394.0,0.0,-29394.0,SELL,225863496.0,0.0,-225863496.0,225863496.0,904614556.0,33879.524399999995,135692.18339999998,952045630.7354496,951909938.5520496,947528144.0580654,0.0014467747382873,0.95,0.05,0.0,0.0,0.2372402001630129,0.0,47642799.55204952,True
A3_LLM_POLICY,2024-01-18,2024-01-19,266410,ETF_007,KODEX 필수소비재,5898.0,5869.0,38801.0,22998.0,-15803.0,SELL,228848298.0,135642204.0,-93206094.0,93206094.0,904614556.0,13980.914099999998,135692.18339999998,952045630.7354496,951909938.5520496,947528144.0580654,0.0014467747382873,0.95,0.05,0.15,0.1425,0.2403753461094255,0.1424947870660174,47642799.55204952,True
A3_LLM_POLICY,2024-01-18,2024-01-19,266420,ETF_008,KODEX 헬스케어,12916.0,12737.0,0.0,0.0,0.0,HOLD,0.0,0.0,0.0,0.0,904614556.0,0.0,135692.18339999998,952045630.7354496,951909938.5520496,947528144.0580654,0.0014467747382873,0.95,0.05,0.0,0.0,0.0,0.0,47642799.55204952,True
A3_LLM_POLICY,2024-01-18,2024-01-19,315270,ETF_009,TIGER 200 커뮤니케이션서비스,17237.0,17045.0,13235.0,13115.0,-120.0,SELL,228131695.0,226063255.0,-2068440.0,2068440.0,904614556.0,310.2659999999999,135692.18339999998,952045630.7354496,951909938.5520496,947528144.0580654,0.0014467747382873,0.95,0.05,0.25,0.2375,0.2396226479436386,0.237483868845686,47642799.55204952,True
A3_LLM_POLICY,2024-01-19,2024-01-22,117460,ETF_001,KODEX 에너지화학,13818.0,13240.0,0.0,0.0,0.0,HOLD,0.0,0.0,0.0,0.0,451819325.0,0.0,67772.89875,952270513.0580654,952202740.1593156,945560061.386666,-0.0020770704107748,0.95,0.05,0.0,0.0,0.0,0.0,47661703.15931547,True
A3_LLM_POLICY,2024-01-19,2024-01-22,117680,ETF_002,KODEX 철강,8144.0,7999.0,0.0,0.0,0.0,HOLD,0.0,0.0,0.0,0.0,451819325.0,0.0,67772.89875,952270513.0580654,952202740.1593156,945560061.386666,-0.0020770704107748,0.95,0.05,0.0,0.0,0.0,0.0,47661703.15931547,True
A3_LLM_POLICY,2024-01-19,2024-01-22,139260,ETF_003,TIGER 200 IT,30260.0,29856.0,6083.0,5978.0,-105.0,SELL,184071580.0,180894280.0,-3177300.0,3177300.0,451819325.0,476.5949999999999,67772.89875,952270513.0580654,952202740.1593156,945560061.386666,-0.0020770704107748,0.95,0.05,0.2,0.19,0.1932975740358518,0.189974542574551,47661703.15931547,True
A3_LLM_POLICY,2024-01-19,2024-01-22,139270,ETF_004,TIGER 200 금융,5717.0,5663.0,16059.0,15822.0,-237.0,SELL,91809303.0,90454374.0,-1354929.0,1354929.0,451819325.0,203.23935,67772.89875,952270513.0580654,952202740.1593156,945560061.386666,-0.0020770704107748,0.95,0.05,0.1,0.095,0.096410948087817,0.0949948684088704,47661703.15931547,True
A3_LLM_POLICY,2024-01-19,2024-01-22,227550,ETF_005,TIGER 200 산업재,5909.0,5933.0,44968.0,15308.0,-29660.0,SELL,265715912.0,90454972.0,-175260940.0,175260940.0,451819325.0,26289.141,67772.89875,952270513.0580654,952202740.1593156,945560061.386666,-0.0020770704107748,0.95,0.05,0.1,0.095,0.279034064749832,0.0949954964263868,47661703.15931547,True
A3_LLM_POLICY,2024-01-19,2024-01-22,266390,ETF_006,KODEX 경기소비재,7650.0,7679.0,0.0,17737.0,17737.0,BUY,0.0,135688050.0,135688050.0,135688050.0,451819325.0,20353.2075,67772.89875,952270513.0580654,952202740.1593156,945560061.386666,-0.0020770704107748,0.95,0.05,0.15,0.1425,0.0,0.1424991173384963,47661703.15931547,True
A3_LLM_POLICY,2024-01-19,2024-01-22,266410,ETF_007,KODEX 필수소비재,5912.0,5888.0,22998.0,38252.0,15254.0,BUY,135964176.0,226145824.0,90181648.0,90181648.0,451819325.0,13527.2472,67772.89875,952270513.0580654,952202740.1593156,945560061.386666,-0.0020770704107748,0.95,0.05,0.25,0.2375,0.1427789416301179,0.2374975564155202,47661703.15931547,True
A3_LLM_POLICY,2024-01-19,2024-01-22,266420,ETF_008,KODEX 헬스케어,12836.0,13000.0,0.0,0.0,0.0,HOLD,0.0,0.0,0.0,0.0,451819325.0,0.0,67772.89875,952270513.0580654,952202740.1593156,945560061.386666,-0.0020770704107748,0.95,0.05,0.0,0.0,0.0,0.0,47661703.15931547,True
A3_LLM_POLICY,2024-01-19,2024-01-22,315270,ETF_009,TIGER 200 커뮤니케이션서비스,17313.0,16993.0,13115.0,10449.0,-2666.0,SELL,227059995.0,180903537.0,-46156458.0,46156458.0,451819325.0,6923.468699999999,67772.89875,952270513.0580654,952202740.1593156,945560061.386666,-0.0020770704107748,0.95,0.05,0.2,0.19,0.2384406446345092,0.1899842642436972,47661703.15931547,True
A3_LLM_POLICY,2024-01-22,2024-01-23,117460,ETF_001,KODEX 에너지화학,13264.0,13343.0,0.0,0.0,0.0,HOLD,0.0,0.0,0.0,0.0,367656775.0,0.0,55148.51624999999,949484606.386666,949429457.870416,954389341.1503068,0.0093376191785137,0.95,0.05,0.0,0.0,0.0,0.0,47507155.870415926,True
A3_LLM_POLICY,2024-01-22,2024-01-23,117680,ETF_002,KODEX 철강,7999.0,8055.0,0.0,16913.0,16913.0,BUY,0.0,135287087.0,135287087.0,135287087.0,367656775.0,20293.06305,55148.51624999999,949484606.386666,949429457.870416,954389341.1503068,0.0093376191785137,0.95,0.05,0.15,0.1425,0.0,0.1424930371377468,47507155.870415926,True
A3_LLM_POLICY,2024-01-22,2024-01-23,139260,ETF_003,TIGER 200 IT,29953.0,29885.0,5978.0,6022.0,44.0,BUY,179059034.0,180376966.0,1317932.0,1317932.0,367656775.0,197.6898,55148.51624999999,949484606.386666,949429457.870416,954389341.1503068,0.0093376191785137,0.95,0.05,0.2,0.19,0.1885855050156341,0.1899845896972568,47507155.870415926,True
A3_LLM_POLICY,2024-01-22,2024-01-23,139270,ETF_004,TIGER 200 금융,5762.0,5839.0,15822.0,15653.0,-169.0,SELL,91166364.0,90192586.0,-973778.0,973778.0,367656775.0,146.0667,55148.51624999999,949484606.386666,949429457.870416,954389341.1503068,0.0093376191785137,0.95,0.05,0.1,0.095,0.0960166846168684,0.0949966163913886,47507155.870415926,True
A3_LLM_POLICY,2024-01-22,2024-01-23,227550,ETF_005,TIGER 200 산업재,5933.0,5881.0,15308.0,0.0,-15308.0,SELL,90822364.0,0.0,-90822364.0,90822364.0,367656775.0,13623.354599999995,55148.51624999999,949484606.386666,949429457.870416,954389341.1503068,0.0093376191785137,0.95,0.05,0.0,0.0,0.0956543827978751,0.0,47507155.870415926,True
A3_LLM_POLICY,2024-01-22,2024-01-23,266390,ETF_006,KODEX 경기소비재,7650.0,7755.0,17737.0,5895.0,-11842.0,SELL,135688050.0,45096750.0,-90591300.0,90591300.0,367656775.0,13588.694999999998,55148.51624999999,949484606.386666,949429457.870416,954389341.1503068,0.0093376191785137,0.95,0.05,0.05,0.0475,0.1429070561937501,0.0474987895374056,47507155.870415926,True
A3_LLM_POLICY,2024-01-22,2024-01-23,266410,ETF_007,KODEX 필수소비재,5931.0,5931.0,38252.0,38018.0,-234.0,SELL,226872612.0,225484758.0,-1387854.0,1387854.0,367656775.0,208.1781,55148.51624999999,949484606.386666,949429457.870416,954389341.1503068,0.0093376191785137,0.95,0.05,0.25,0.2375,0.2389429069981245,0.2374950093772797,47507155.870415926,True
A3_LLM_POLICY,2024-01-22,2024-01-23,266420,ETF_008,KODEX 헬스케어,13075.0,13085.0,0.0,0.0,0.0,HOLD,0.0,0.0,0.0,0.0,367656775.0,0.0,55148.51624999999,949484606.386666,949429457.870416,954389341.1503068,0.0093376191785137,0.95,0.05,0.0,0.0,0.0,0.0,47507155.870415926,True
A3_LLM_POLICY,2024-01-22,2024-01-23,315270,ETF_009,TIGER 200 커뮤니케이션서비스,17055.0,17251.0,10449.0,13221.0,2772.0,BUY,178207695.0,225484155.0,47276460.0,47276460.0,367656775.0,7091.468999999999,55148.51624999999,949484606.386666,949429457.870416,954389341.1503068,0.0093376191785137,0.95,0.05,0.25,0.2375,0.1876888722590065,0.2374943742590042,47507155.870415926,True
A3_LLM_POLICY,2024-01-23,2024-01-24,117460,ETF_001,KODEX 에너지화학,13470.0,13504.0,0.0,0.0,0.0,HOLD,0.0,0.0,0.0,0.0,726533675.0,0.0,108980.05125,953742113.1503068,953633133.0990568,944905287.9223557,-0.0099373000294827,0.95,0.05,0.0,0.0,0.0,0.0,47710910.09905672,True
A3_LLM_POLICY,2024-01-23,2024-01-24,117680,ETF_002,KODEX 철강,8055.0,8017.0,16913.0,28117.0,11204.0,BUY,136234215.0,226482435.0,90248220.0,90248220.0,726533675.0,13537.232999999998,108980.05125,953742113.1503068,953633133.0990568,944905287.9223557,-0.0099373000294827,0.95,0.05,0.25,0.2375,0.1428417736006273,0.2374943016755213,47710910.09905672,True
A3_LLM_POLICY,2024-01-23,2024-01-24,139260,ETF_003,TIGER 200 IT,29905.0,29710.0,6022.0,7573.0,1551.0,BUY,180087910.0,226470565.0,46382655.0,46382655.0,726533675.0,6957.398249999999,108980.05125,953742113.1503068,953633133.0990568,944905287.9223557,-0.0099373000294827,0.95,0.05,0.25,0.2375,0.1888224369218125,0.2374818545408864,47710910.09905672,True
A3_LLM_POLICY,2024-01-23,2024-01-24,139270,ETF_004,TIGER 200 금융,5839.0,5902.0,15653.0,0.0,-15653.0,SELL,91397867.0,0.0,-91397867.0,91397867.0,726533675.0,13709.68005,108980.05125,953742113.1503068,953633133.0990568,944905287.9223557,-0.0099373000294827,0.95,0.05,0.0,0.0,0.0958307971723127,0.0,47710910.09905672,True
A3_LLM_POLICY,2024-01-23,2024-01-24,227550,ETF_005,TIGER 200 산업재,5838.0,5885.0,0.0,0.0,0.0,HOLD,0.0,0.0,0.0,0.0,726533675.0,0.0,108980.05125,953742113.1503068,953633133.0990568,944905287.9223557,-0.0099373000294827,0.95,0.05,0.0,0.0,0.0,0.0,47710910.09905672,True
A3_LLM_POLICY,2024-01-23,2024-01-24,266390,ETF_006,KODEX 경기소비재,7722.0,7765.0,5895.0,0.0,-5895.0,SELL,45521190.0,0.0,-45521190.0,45521190.0,726533675.0,6828.1785,108980.05125,953742113.1503068,953633133.0990568,944905287.9223557,-0.0099373000294827,0.95,0.05,0.0,0.0,0.047729034266547,0.0,47710910.09905672,True
A3_LLM_POLICY,2024-01-23,2024-01-24,266410,ETF_007,KODEX 필수소비재,5974.0,5931.0,38018.0,37912.0,-106.0,SELL,227119532.0,226486288.0,-633244.0,633244.0,726533675.0,94.98659999999998,108980.05125,953742113.1503068,953633133.0990568,944905287.9223557,-0.0099373000294827,0.95,0.05,0.25,0.2375,0.2381351613485968,0.2374983420133266,47710910.09905672,True
A3_LLM_POLICY,2024-01-23,2024-01-24,266420,ETF_008,KODEX 헬스케어,13115.0,12851.0,0.0,17269.0,17269.0,BUY,0.0,226482935.0,226482935.0,226482935.0,726533675.0,33972.44025,108980.05125,953742113.1503068,953633133.0990568,944905287.9223557,-0.0099373000294827,0.95,0.05,0.25,0.2375,0.0,0.2374948259861631,47710910.09905672,True
A3_LLM_POLICY,2024-01-23,2024-01-24,315270,ETF_009,TIGER 200 커뮤니케이션서비스,17084.0,17213.0,13221.0,0.0,-13221.0,SELL,225867564.0,0.0,-225867564.0,225867564.0,726533675.0,33880.1346,108980.05125,953742113.1503068,953633133.0990568,944905287.9223557,-0.0099373000294827,0.95,0.05,0.0,0.0,0.2368224710702315,0.0,47710910.09905672,True
A3_LLM_POLICY,2024-01-24,2024-01-25,117460,ETF_001,KODEX 에너지화학,13549.0,13553.0,0.0,0.0,0.0,HOLD,0.0,0.0,0.0,0.0,454801509.0,0.0,68220.22635,945674659.9223557,945606439.6960056,946334513.5457604,0.0015125596625109,0.95,0.05,0.0,0.0,0.0,0.0,47308754.6960057,True
A3_LLM_POLICY,2024-01-24,2024-01-25,117680,ETF_002,KODEX 철강,8003.0,8050.0,28117.0,0.0,-28117.0,SELL,225020351.0,0.0,-225020351.0,225020351.0,454801509.0,33753.05265,68220.22635,945674659.9223557,945606439.6960056,946334513.5457604,0.0015125596625109,0.95,0.05,0.0,0.0,0.2379468971056866,0.0,47308754.6960057,True
A3_LLM_POLICY,2024-01-24,2024-01-25,139260,ETF_003,TIGER 200 IT,29764.0,29355.0,7573.0,7545.0,-28.0,SELL,225402772.0,224569380.0,-833392.0,833392.0,454801509.0,125.0088,68220.22635,945674659.9223557,945606439.6960056,946334513.5457604,0.0015125596625109,0.95,0.05,0.25,0.2375,0.2383512867083767,0.2374871517078444,47308754.6960057,True
A3_LLM_POLICY,2024-01-24,2024-01-25,139270,ETF_004,TIGER 200 금융,5920.0,5907.0,0.0,0.0,0.0,HOLD,0.0,0.0,0.0,0.0,454801509.0,0.0,68220.22635,945674659.9223557,945606439.6960056,946334513.5457604,0.0015125596625109,0.95,0.05,0.0,0.0,0.0,0.0,47308754.6960057,True
A3_LLM_POLICY,2024-01-24,2024-01-25,227550,ETF_005,TIGER 200 산업재,5781.0,5852.0,0.0,0.0,0.0,HOLD,0.0,0.0,0.0,0.0,454801509.0,0.0,68220.22635,945674659.9223557,945606439.6960056,946334513.5457604,0.0015125596625109,0.95,0.05,0.0,0.0,0.0,0.0,47308754.6960057,True
A3_LLM_POLICY,2024-01-24,2024-01-25,266390,ETF_006,KODEX 경기소비재,7751.0,7765.0,0.0,0.0,0.0,HOLD,0.0,0.0,0.0,0.0,454801509.0,0.0,68220.22635,945674659.9223557,945606439.6960056,946334513.5457604,0.0015125596625109,0.95,0.05,0.0,0.0,0.0,0.0,47308754.6960057,True
A3_LLM_POLICY,2024-01-24,2024-01-25,266410,ETF_007,KODEX 필수소비재,5960.0,5970.0,37912.0,37681.0,-231.0,SELL,225955520.0,224578760.0,-1376760.0,1376760.0,454801509.0,206.514,68220.22635,945674659.9223557,945606439.6960056,946334513.5457604,0.0015125596625109,0.95,0.05,0.25,0.2375,0.2389357879363628,0.2374970712680401,47308754.6960057,True
A3_LLM_POLICY,2024-01-24,2024-01-25,266420,ETF_008,KODEX 헬스케어,12831.0,12966.0,17269.0,17503.0,234.0,BUY,221578539.0,224580993.0,3002454.0,3002454.0,454801509.0,450.3681,68220.22635,945674659.9223557,945606439.6960056,946334513.5457604,0.0015125596625109,0.95,0.05,0.25,0.2375,0.2343073663602159,0.2374994327155793,47308754.6960057,True
A3_LLM_POLICY,2024-01-24,2024-01-25,315270,ETF_009,TIGER 200 커뮤니케이션서비스,17036.0,17117.0,0.0,13182.0,13182.0,BUY,0.0,224568552.0,224568552.0,224568552.0,454801509.0,33685.2828,68220.22635,945674659.9223557,945606439.6960056,946334513.5457604,0.0015125596625109,0.95,0.05,0.25,0.2375,0.0,0.2374862760792899,47308754.6960057,True
A3_LLM_POLICY,2024-01-25,2024-01-26,117460,ETF_001,KODEX 에너지화학,13460.0,13823.0,0.0,0.0,0.0,HOLD,0.0,0.0,0.0,0.0,8010807.0,0.0,1201.62105,943550836.5457604,943549634.9247104,953951192.5611664,0.0080486116762958,0.95,0.05,0.0,0.0,0.0,0.0,47218401.924710274,True
A3_LLM_POLICY,2024-01-25,2024-01-26,117680,ETF_002,KODEX 철강,7984.0,8148.0,0.0,0.0,0.0,HOLD,0.0,0.0,0.0,0.0,8010807.0,0.0,1201.62105,943550836.5457604,943549634.9247104,953951192.5611664,0.0080486116762958,0.95,0.05,0.0,0.0,0.0,0.0,47218401.924710274,True
A3_LLM_POLICY,2024-01-25,2024-01-26,139260,ETF_003,TIGER 200 IT,29160.0,29306.0,7545.0,7684.0,139.0,BUY,220012200.0,224065440.0,4053240.0,4053240.0,8010807.0,607.986,1201.62105,943550836.5457604,943549634.9247104,953951192.5611664,0.0080486116762958,0.95,0.05,0.25,0.2375,0.2331747177560049,0.2374707505640433,47218401.924710274,True
A3_LLM_POLICY,2024-01-25,2024-01-26,139270,ETF_004,TIGER 200 금융,5979.0,5988.0,0.0,0.0,0.0,HOLD,0.0,0.0,0.0,0.0,8010807.0,0.0,1201.62105,943550836.5457604,943549634.9247104,953951192.5611664,0.0080486116762958,0.95,0.05,0.0,0.0,0.0,0.0,47218401.924710274,True
A3_LLM_POLICY,2024-01-25,2024-01-26,227550,ETF_005,TIGER 200 산업재,5833.0,5885.0,0.0,0.0,0.0,HOLD,0.0,0.0,0.0,0.0,8010807.0,0.0,1201.62105,943550836.5457604,943549634.9247104,953951192.5611664,0.0080486116762958,0.95,0.05,0.0,0.0,0.0,0.0,47218401.924710274,True
A3_LLM_POLICY,2024-01-25,2024-01-26,266390,ETF_006,KODEX 경기소비재,7717.0,7798.0,0.0,0.0,0.0,HOLD,0.0,0.0,0.0,0.0,8010807.0,0.0,1201.62105,943550836.5457604,943549634.9247104,953951192.5611664,0.0080486116762958,0.95,0.05,0.0,0.0,0.0,0.0,47218401.924710274,True
A3_LLM_POLICY,2024-01-25,2024-01-26,266410,ETF_007,KODEX 필수소비재,5950.0,5965.0,37681.0,37662.0,-19.0,SELL,224201950.0,224088900.0,-113050.0,113050.0,8010807.0,16.9575,1201.62105,943550836.5457604,943549634.9247104,953951192.5611664,0.0080486116762958,0.95,0.05,0.25,0.2375,0.2376151250321388,0.2374956141209052,47218401.924710274,True
A3_LLM_POLICY,2024-01-25,2024-01-26,266420,ETF_008,KODEX 헬스케어,12916.0,13274.0,17503.0,17350.0,-153.0,SELL,226068748.0,224092600.0,-1976148.0,1976148.0,8010807.0,296.4222,1201.62105,943550836.5457604,943549634.9247104,953951192.5611664,0.0080486116762958,0.95,0.05,0.25,0.2375,0.2395936066652367,0.2374995354832406,47218401.924710274,True
A3_LLM_POLICY,2024-01-25,2024-01-26,315270,ETF_009,TIGER 200 커뮤니케이션서비스,17141.0,17332.0,13182.0,13073.0,-109.0,SELL,225952662.0,224084293.0,-1868369.0,1868369.0,8010807.0,280.25535,1201.62105,943550836.5457604,943549634.9247104,953951192.5611664,0.0080486116762958,0.95,0.05,0.25,0.2375,0.2394705756683856,0.2374907314948838,47218401.924710274,True
A3_LLM_POLICY,2024-01-26,2024-01-29,117460,ETF_001,KODEX 에너지화학,13798.0,13990.0,0.0,0.0,0.0,HOLD,0.0,0.0,0.0,0.0,467616744.0,0.0,70142.5116,961407160.5611664,961337018.0495664,952569282.00042,-0.0014486176772172,0.95,0.05,0.0,0.0,0.0,0.0,48092136.04956651,True
A3_LLM_POLICY,2024-01-26,2024-01-29,117680,ETF_002,KODEX 철강,8195.0,8363.0,0.0,0.0,0.0,HOLD,0.0,0.0,0.0,0.0,467616744.0,0.0,70142.5116,961407160.5611664,961337018.0495664,952569282.00042,-0.0014486176772172,0.95,0.05,0.0,0.0,0.0,0.0,48092136.04956651,True
A3_LLM_POLICY,2024-01-26,2024-01-29,139260,ETF_003,TIGER 200 IT,29311.0,29569.0,7684.0,7789.0,105.0,BUY,225225724.0,228303379.0,3077655.0,3077655.0,467616744.0,461.64825,70142.5116,961407160.5611664,961337018.0495664,952569282.00042,-0.0014486176772172,0.95,0.05,0.25,0.2375,0.2342667427903671,0.2374852676153044,48092136.04956651,True
A3_LLM_POLICY,2024-01-26,2024-01-29,139270,ETF_004,TIGER 200 금융,6024.0,6065.0,0.0,0.0,0.0,HOLD,0.0,0.0,0.0,0.0,467616744.0,0.0,70142.5116,961407160.5611664,961337018.0495664,952569282.00042,-0.0014486176772172,0.95,0.05,0.0,0.0,0.0,0.0,48092136.04956651,True
A3_LLM_POLICY,2024-01-26,2024-01-29,227550,ETF_005,TIGER 200 산업재,5885.0,5828.0,0.0,0.0,0.0,HOLD,0.0,0.0,0.0,0.0,467616744.0,0.0,70142.5116,961407160.5611664,961337018.0495664,952569282.00042,-0.0014486176772172,0.95,0.05,0.0,0.0,0.0,0.0,48092136.04956651,True
A3_LLM_POLICY,2024-01-26,2024-01-29,266390,ETF_006,KODEX 경기소비재,7846.0,7918.0,0.0,0.0,0.0,HOLD,0.0,0.0,0.0,0.0,467616744.0,0.0,70142.5116,961407160.5611664,961337018.0495664,952569282.00042,-0.0014486176772172,0.95,0.05,0.0,0.0,0.0,0.0,48092136.04956651,True
A3_LLM_POLICY,2024-01-26,2024-01-29,266410,ETF_007,KODEX 필수소비재,6003.0,5979.0,37662.0,38033.0,371.0,BUY,226084986.0,228312099.0,2227113.0,2227113.0,467616744.0,334.06695,70142.5116,961407160.5611664,961337018.0495664,952569282.00042,-0.0014486176772172,0.95,0.05,0.25,0.2375,0.2351604973152434,0.2374943383156272,48092136.04956651,True
A3_LLM_POLICY,2024-01-26,2024-01-29,266420,ETF_008,KODEX 헬스케어,13503.0,13299.0,17350.0,0.0,-17350.0,SELL,234277050.0,0.0,-234277050.0,234277050.0,467616744.0,35141.557499999995,70142.5116,961407160.5611664,961337018.0495664,952569282.00042,-0.0014486176772172,0.95,0.05,0.0,0.0,0.2436814074312221,0.0,48092136.04956651,True
A3_LLM_POLICY,2024-01-26,2024-01-29,315270,ETF_009,TIGER 200 커뮤니케이션서비스,17486.0,17108.0,13073.0,26114.0,13041.0,BUY,228594478.0,456629404.0,228034926.0,228034926.0,467616744.0,34205.2389,70142.5116,961407160.5611664,961337018.0495664,952569282.00042,-0.0014486176772172,0.95,0.05,0.5,0.475,0.2377707254297659,0.4749940920057821,48092136.04956651,True
A3_LLM_POLICY,2024-01-29,2024-01-30,117460,ETF_001,KODEX 에너지화학,13994.0,13911.0,0.0,0.0,0.0,HOLD,0.0,0.0,0.0,0.0,1360810302.0,0.0,204121.5453,955260776.00042,955056654.45512,956308850.7725284,0.0039257709048261,0.95,0.05,0.0,0.0,0.0,0.0,47772678.45511997,True
A3_LLM_POLICY,2024-01-29,2024-01-30,117680,ETF_002,KODEX 철강,8448.0,8331.0,0.0,0.0,0.0,HOLD,0.0,0.0,0.0,0.0,1360810302.0,0.0,204121.5453,955260776.00042,955056654.45512,956308850.7725284,0.0039257709048261,0.95,0.05,0.0,0.0,0.0,0.0,47772678.45511997,True
A3_LLM_POLICY,2024-01-29,2024-01-30,139260,ETF_003,TIGER 200 IT,29729.0,29613.0,7789.0,0.0,-7789.0,SELL,231559181.0,0.0,-231559181.0,231559181.0,1360810302.0,34733.87714999999,204121.5453,955260776.00042,955056654.45512,956308850.7725284,0.0039257709048261,0.95,0.05,0.0,0.0,0.2424041547790906,0.0,47772678.45511997,True
A3_LLM_POLICY,2024-01-29,2024-01-30,139270,ETF_004,TIGER 200 금융,6106.0,6115.0,0.0,37148.0,37148.0,BUY,0.0,226825688.0,226825688.0,226825688.0,1360810302.0,34023.85319999999,204121.5453,955260776.00042,955056654.45512,956308850.7725284,0.0039257709048261,0.95,0.05,0.25,0.2375,0.0,0.2374997199819615,47772678.45511997,True
A3_LLM_POLICY,2024-01-29,2024-01-30,266390,ETF_006,KODEX 경기소비재,7946.0,7932.0,0.0,28545.0,28545.0,BUY,0.0,226818570.0,226818570.0,226818570.0,1360810302.0,34022.78549999999,204121.5453,955260776.00042,955056654.45512,956308850.7725284,0.0039257709048261,0.95,0.05,0.25,0.2375,0.0,0.2374922670209599,47772678.45511997,True
A3_LLM_POLICY,2024-01-29,2024-01-30,266410,ETF_007,KODEX 필수소비재,6017.0,5974.0,38033.0,0.0,-38033.0,SELL,228844561.0,0.0,-228844561.0,228844561.0,1360810302.0,34326.684149999994,204121.5453,955260776.00042,955056654.45512,956308850.7725284,0.0039257709048261,0.95,0.05,0.0,0.0,0.2395623967291413,0.0,47772678.45511997,True
A3_LLM_POLICY,2024-01-29,2024-01-30,266420,ETF_008,KODEX 헬스케어,13423.0,13448.0,0.0,16898.0,16898.0,BUY,0.0,226821854.0,226821854.0,226821854.0,1360810302.0,34023.2781,204121.5453,955260776.00042,955056654.45512,956308850.7725284,0.0039257709048261,0.95,0.05,0.25,0.2375,0.0,0.2374957055604273,47772678.45511997,True
A3_LLM_POLICY,2024-01-29,2024-01-30,315270,ETF_009,TIGER 200 커뮤니케이션서비스,17108.0,17175.0,26114.0,13258.0,-12856.0,SELL,446758312.0,226817864.0,-219940448.0,219940448.0,1360810302.0,32991.0672,204121.5453,955260776.00042,955056654.45512,956308850.7725284,0.0039257709048261,0.95,0.05,0.25,0.2375,0.4676820437143161,0.2374915277977979,47772678.45511997,True
A3_LLM_POLICY,2024-01-30,2024-01-31,117460,ETF_001,KODEX 에너지화학,13784.0,13798.0,0.0,0.0,0.0,HOLD,0.0,0.0,0.0,0.0,992250997.0,0.0,148837.64954999997,951884515.7725284,951735678.1229784,957732023.6685692,0.0014881937931359,0.95,0.05,0.0,0.0,0.0,0.0,47613880.12297845,True
A3_LLM_POLICY,2024-01-30,2024-01-31,117680,ETF_002,KODEX 철강,8260.0,8246.0,0.0,21892.0,21892.0,BUY,0.0,180827920.0,180827920.0,180827920.0,992250997.0,27124.187999999995,148837.64954999997,951884515.7725284,951735678.1229784,957732023.6685692,0.0014881937931359,0.95,0.05,0.2,0.19,0.0,0.1899980468911604,47613880.12297845,True
A3_LLM_POLICY,2024-01-30,2024-01-31,139260,ETF_003,TIGER 200 IT,29364.0,29321.0,0.0,7697.0,7697.0,BUY,0.0,226014708.0,226014708.0,226014708.0,992250997.0,33902.20619999999,148837.64954999997,951884515.7725284,951735678.1229784,957732023.6685692,0.0014881937931359,0.95,0.05,0.25,0.2375,0.0,0.2374763426393221,47613880.12297845,True
A3_LLM_POLICY,2024-01-30,2024-01-31,139270,ETF_004,TIGER 200 금융,6115.0,6247.0,37148.0,51750.0,14602.0,BUY,227160020.0,316451250.0,89291230.0,89291230.0,992250997.0,13393.684499999998,148837.64954999997,951884515.7725284,951735678.1229784,957732023.6685692,0.0014881937931359,0.95,0.05,0.35,0.3324999999999999,0.2386424153728795,0.332499093260965,47613880.12297845,True
A3_LLM_POLICY,2024-01-30,2024-01-31,227550,ETF_005,TIGER 200 산업재,5762.0,5762.0,0.0,0.0,0.0,HOLD,0.0,0.0,0.0,0.0,992250997.0,0.0,148837.64954999997,951884515.7725284,951735678.1229784,957732023.6685692,0.0014881937931359,0.95,0.05,0.0,0.0,0.0,0.0,47613880.12297845,True
A3_LLM_POLICY,2024-01-30,2024-01-31,266390,ETF_006,KODEX 경기소비재,7903.0,7880.0,28545.0,0.0,-28545.0,SELL,225591135.0,0.0,-225591135.0,225591135.0,992250997.0,33838.67025,148837.64954999997,951884515.7725284,951735678.1229784,957732023.6685692,0.0014881937931359,0.95,0.05,0.0,0.0,0.2369942269907765,0.0,47613880.12297845,True
A3_LLM_POLICY,2024-01-30,2024-01-31,266410,ETF_007,KODEX 필수소비재,5974.0,5846.0,0.0,0.0,0.0,HOLD,0.0,0.0,0.0,0.0,992250997.0,0.0,148837.64954999997,951884515.7725284,951735678.1229784,957732023.6685692,0.0014881937931359,0.95,0.05,0.0,0.0,0.0,0.0,47613880.12297845,True
A3_LLM_POLICY,2024-01-30,2024-01-31,266420,ETF_008,KODEX 헬스케어,13498.0,13264.0,16898.0,0.0,-16898.0,SELL,228089204.0,0.0,-228089204.0,228089204.0,992250997.0,34213.3806,148837.64954999997,951884515.7725284,951735678.1229784,957732023.6685692,0.0014881937931359,0.95,0.05,0.0,0.0,0.2396185674003614,0.0,47613880.12297845,True
A3_LLM_POLICY,2024-01-30,2024-01-31,315270,ETF_009,TIGER 200 커뮤니케이션서비스,16840.0,16821.0,13258.0,10738.0,-2520.0,SELL,223264720.0,180827920.0,-42436800.0,42436800.0,992250997.0,6365.519999999999,148837.64954999997,951884515.7725284,951735678.1229784,957732023.6685692,0.0014881937931359,0.95,0.05,0.2,0.19,0.2345502172800902,0.1899980468911604,47613880.12297845,True
A3_LLM_POLICY,2024-01-31,2024-02-01,117460,ETF_001,KODEX 에너지화학,13730.0,14146.0,0.0,0.0,0.0,HOLD,0.0,0.0,0.0,0.0,1000378668.0,0.0,150056.8002,955533738.6685692,955383681.8683692,974257013.254004,0.0172542936615363,0.95,0.05,0.0,0.0,0.0,0.0,47786617.8683691,True
A3_LLM_POLICY,2024-01-31,2024-02-01,117680,ETF_002,KODEX 철강,8167.0,8410.0,21892.0,0.0,-21892.0,SELL,178791964.0,0.0,-178791964.0,178791964.0,1000378668.0,26818.7946,150056.8002,955533738.6685692,955383681.8683692,974257013.254004,0.0172542936615363,0.95,0.05,0.0,0.0,0.1871121413767418,0.0,47786617.8683691,True
A3_LLM_POLICY,2024-01-31,2024-02-01,139260,ETF_003,TIGER 200 IT,29194.0,29705.0,7697.0,0.0,-7697.0,SELL,224706218.0,0.0,-224706218.0,224706218.0,1000378668.0,33705.9327,150056.8002,955533738.6685692,955383681.8683692,974257013.254004,0.0172542936615363,0.95,0.05,0.0,0.0,0.2351630391545392,0.0,47786617.8683691,True
A3_LLM_POLICY,2024-01-31,2024-02-01,139270,ETF_004,TIGER 200 금융,6256.0,6569.0,51750.0,36269.0,-15481.0,SELL,323748000.0,226898864.0,-96849136.0,96849136.0,1000378668.0,14527.3704,150056.8002,955533738.6685692,955383681.8683692,974257013.254004,0.0172542936615363,0.95,0.05,0.25,0.2375,0.3388137821811579,0.2374950172440371,47786617.8683691,True
A3_LLM_POLICY,2024-01-31,2024-02-01,266390,ETF_006,KODEX 경기소비재,7880.0,8075.0,0.0,28794.0,28794.0,BUY,0.0,226896720.0,226896720.0,226896720.0,1000378668.0,34034.508,150056.8002,955533738.6685692,955383681.8683692,974257013.254004,0.0172542936615363,0.95,0.05,0.25,0.2375,0.0,0.2374927731194611,47786617.8683691,True
A3_LLM_POLICY,2024-01-31,2024-02-01,266410,ETF_007,KODEX 필수소비재,5831.0,5879.0,0.0,0.0,0.0,HOLD,0.0,0.0,0.0,0.0,1000378668.0,0.0,150056.8002,955533738.6685692,955383681.8683692,974257013.254004,0.0172542936615363,0.95,0.05,0.0,0.0,0.0,0.0,47786617.8683691,True
A3_LLM_POLICY,2024-01-31,2024-02-01,266420,ETF_008,KODEX 헬스케어,13130.0,13165.0,0.0,17281.0,17281.0,BUY,0.0,226899530.0,226899530.0,226899530.0,1000378668.0,34034.9295,150056.8002,955533738.6685692,955383681.8683692,974257013.254004,0.0172542936615363,0.95,0.05,0.25,0.2375,0.0,0.2374957143461675,47786617.8683691,True
A3_LLM_POLICY,2024-01-31,2024-02-01,315270,ETF_009,TIGER 200 커뮤니케이션서비스,16825.0,16921.0,10738.0,13486.0,2748.0,BUY,180666850.0,226901950.0,46235100.0,46235100.0,1000378668.0,6935.264999999999,150056.8002,955533738.6685692,955383681.8683692,974257013.254004,0.0172542936615363,0.95,0.05,0.25,0.2375,0.1890742761754695,0.2374982473599147,47786617.8683691,True
A3_LLM_POLICY,2024-02-01,2024-02-02,117460,ETF_001,KODEX 에너지화학,14078.0,14426.0,0.0,9956.0,9956.0,BUY,0.0,140160568.0,140160568.0,140160568.0,470844004.0,21024.0852,70626.60059999999,983667873.254004,983597246.653404,1003655878.45451,0.0301756772602685,0.95,0.05,0.15,0.1425,0.0,0.1424979263381257,49188414.653404,True
A3_LLM_POLICY,2024-02-01,2024-02-02,117680,ETF_002,KODEX 철강,8438.0,8583.0,0.0,0.0,0.0,HOLD,0.0,0.0,0.0,0.0,470844004.0,0.0,70626.60059999999,983667873.254004,983597246.653404,1003655878.45451,0.0301756772602685,0.95,0.05,0.0,0.0,0.0,0.0,49188414.653404,True
A3_LLM_POLICY,2024-02-01,2024-02-02,139260,ETF_003,TIGER 200 IT,29715.0,30542.0,0.0,0.0,0.0,HOLD,0.0,0.0,0.0,0.0,470844004.0,0.0,70626.60059999999,983667873.254004,983597246.653404,1003655878.45451,0.0301756772602685,0.95,0.05,0.0,0.0,0.0,0.0,49188414.653404,True
A3_LLM_POLICY,2024-02-01,2024-02-02,139270,ETF_004,TIGER 200 금융,6628.0,6905.0,36269.0,35245.0,-1024.0,SELL,240390932.0,233603860.0,-6787072.0,6787072.0,470844004.0,1018.0608,70626.60059999999,983667873.254004,983597246.653404,1003655878.45451,0.0301756772602685,0.95,0.05,0.25,0.2375,0.2443822132817851,0.2374995058138022,49188414.653404,True
A3_LLM_POLICY,2024-02-01,2024-02-02,227550,ETF_005,TIGER 200 산업재,5900.0,6019.0,0.0,0.0,0.0,HOLD,0.0,0.0,0.0,0.0,470844004.0,0.0,70626.60059999999,983667873.254004,983597246.653404,1003655878.45451,0.0301756772602685,0.95,0.05,0.0,0.0,0.0,0.0,49188414.653404,True
A3_LLM_POLICY,2024-02-01,2024-02-02,266390,ETF_006,KODEX 경기소비재,8075.0,8228.0,28794.0,28929.0,135.0,BUY,232511550.0,233601675.0,1090125.0,1090125.0,470844004.0,163.51874999999998,70626.60059999999,983667873.254004,983597246.653404,1003655878.45451,0.0301756772602685,0.95,0.05,0.25,0.2375,0.2363720075871183,0.2374972843761076,49188414.653404,True
A3_LLM_POLICY,2024-02-01,2024-02-02,266410,ETF_007,KODEX 필수소비재,6012.0,5998.0,0.0,15542.0,15542.0,BUY,0.0,93438504.0,93438504.0,93438504.0,470844004.0,14015.7756,70626.60059999999,983667873.254004,983597246.653404,1003655878.45451,0.0301756772602685,0.95,0.05,0.1,0.095,0.0,0.094996711629598,49188414.653404,True
A3_LLM_POLICY,2024-02-01,2024-02-02,266420,ETF_008,KODEX 헬스케어,13130.0,13547.0,17281.0,0.0,-17281.0,SELL,226899530.0,0.0,-226899530.0,226899530.0,470844004.0,34034.9295,70626.60059999999,983667873.254004,983597246.653404,1003655878.45451,0.0301756772602685,0.95,0.05,0.0,0.0,0.2306668095699916,0.0,49188414.653404,True
A3_LLM_POLICY,2024-02-01,2024-02-02,315270,ETF_009,TIGER 200 커뮤니케이션서비스,17505.0,17701.0,13486.0,13345.0,-141.0,SELL,236072430.0,233604225.0,-2468205.0,2468205.0,470844004.0,370.23075,70626.60059999999,983667873.254004,983597246.653404,1003655878.45451,0.0301756772602685,0.95,0.05,0.25,0.2375,0.2399920099241068,0.2374998769006482,49188414.653404,True
A3_LLM_POLICY,2024-02-02,2024-02-05,117460,ETF_001,KODEX 에너지화학,14308.0,14396.0,9956.0,0.0,-9956.0,SELL,142450448.0,0.0,-142450448.0,142450448.0,951073913.0,21367.5672,142661.08695,1000288562.45451,1000145901.36756,990311401.7367595,-0.0132958686380626,0.95,0.05,0.0,0.0,0.1424093540072624,0.0,50032808.36756015,True
A3_LLM_POLICY,2024-02-02,2024-02-05,117680,ETF_002,KODEX 철강,8546.0,8522.0,0.0,27794.0,27794.0,BUY,0.0,237527524.0,237527524.0,237527524.0,951073913.0,35629.1286,142661.08695,1000288562.45451,1000145901.36756,990311401.7367595,-0.0132958686380626,0.95,0.05,0.25,0.2375,0.0,0.2374928734649756,50032808.36756015,True
A3_LLM_POLICY,2024-02-02,2024-02-05,139260,ETF_003,TIGER 200 IT,30420.0,30031.0,0.0,7808.0,7808.0,BUY,0.0,237519360.0,237519360.0,237519360.0,951073913.0,35627.904,142661.08695,1000288562.45451,1000145901.36756,990311401.7367595,-0.0132958686380626,0.95,0.05,0.25,0.2375,0.0,0.2374847106559406,50032808.36756015,True
A3_LLM_POLICY,2024-02-02,2024-02-05,139270,ETF_004,TIGER 200 금융,6927.0,6732.0,35245.0,34291.0,-954.0,SELL,244142115.0,237533757.0,-6608358.0,6608358.0,951073913.0,991.2537,142661.08695,1000288562.45451,1000145901.36756,990311401.7367595,-0.0132958686380626,0.95,0.05,0.25,0.2375,0.2440716850754782,0.2374991055557051,50032808.36756015,True
A3_LLM_POLICY,2024-02-02,2024-02-05,227550,ETF_005,TIGER 200 산업재,5923.0,5952.0,0.0,0.0,0.0,HOLD,0.0,0.0,0.0,0.0,951073913.0,0.0,142661.08695,1000288562.45451,1000145901.36756,990311401.7367595,-0.0132958686380626,0.95,0.05,0.0,0.0,0.0,0.0,50032808.36756015,True
A3_LLM_POLICY,2024-02-02,2024-02-05,266390,ETF_006,KODEX 경기소비재,8214.0,8233.0,28929.0,28918.0,-11.0,SELL,237622806.0,237532452.0,-90354.0,90354.0,951073913.0,13.5531,142661.08695,1000288562.45451,1000145901.36756,990311401.7367595,-0.0132958686380626,0.95,0.05,0.25,0.2375,0.2375542567605898,0.2374978007460786,50032808.36756015,True
A3_LLM_POLICY,2024-02-02,2024-02-05,266410,ETF_007,KODEX 필수소비재,6022.0,5955.0,15542.0,0.0,-15542.0,SELL,93593924.0,0.0,-93593924.0,93593924.0,951073913.0,14039.0886,142661.08695,1000288562.45451,1000145901.36756,990311401.7367595,-0.0132958686380626,0.95,0.05,0.0,0.0,0.0935669240987211,0.0,50032808.36756015,True
A3_LLM_POLICY,2024-02-02,2024-02-05,266420,ETF_008,KODEX 헬스케어,13552.0,13423.0,0.0,0.0,0.0,HOLD,0.0,0.0,0.0,0.0,951073913.0,0.0,142661.08695,1000288562.45451,1000145901.36756,990311401.7367595,-0.0132958686380626,0.95,0.05,0.0,0.0,0.0,0.0,50032808.36756015,True
A3_LLM_POLICY,2024-02-02,2024-02-05,315270,ETF_009,TIGER 200 커뮤니케이션서비스,17481.0,17371.0,13345.0,0.0,-13345.0,SELL,233283945.0,0.0,-233283945.0,233283945.0,951073913.0,34992.59175,142661.08695,1000288562.45451,1000145901.36756,990311401.7367595,-0.0132958686380626,0.95,0.05,0.0,0.0,0.2332166474317844,0.0,50032808.36756015,True
A3_LLM_POLICY,2024-02-05,2024-02-06,117460,ETF_001,KODEX 에너지화학,14220.0,14239.0,0.0,0.0,0.0,HOLD,0.0,0.0,0.0,0.0,8981506.0,0.0,1347.2259,988110834.7367595,988109487.5108596,984937018.0627626,-0.005426963341603,0.95,0.05,0.0,0.0,0.0,0.0,49428182.51085949,True
A3_LLM_POLICY,2024-02-05,2024-02-06,117680,ETF_002,KODEX 철강,8466.0,8377.0,27794.0,27719.0,-75.0,SELL,235304004.0,234669054.0,-634950.0,634950.0,8981506.0,95.2425,1347.2259,988110834.7367595,988109487.5108596,984937018.0627626,-0.005426963341603,0.95,0.05,0.25,0.2375,0.2381352331418234,0.2374929670912819,49428182.51085949,True
A3_LLM_POLICY,2024-02-05,2024-02-06,139260,ETF_003,TIGER 200 IT,30031.0,30197.0,7808.0,7814.0,6.0,BUY,234482048.0,234662234.0,180186.0,180186.0,8981506.0,27.0279,1347.2259,988110834.7367595,988109487.5108596,984937018.0627626,-0.005426963341603,0.95,0.05,0.25,0.2375,0.2373033871878025,0.2374860650221426,49428182.51085949,True
A3_LLM_POLICY,2024-02-05,2024-02-06,139270,ETF_004,TIGER 200 금융,6709.0,6632.0,34291.0,34979.0,688.0,BUY,230058319.0,234674111.0,4615792.0,4615792.0,8981506.0,692.3688,1347.2259,988110834.7367595,988109487.5108596,984937018.0627626,-0.005426963341603,0.95,0.05,0.25,0.2375,0.2328264309147964,0.2374980849451877,49428182.51085949,True
A3_LLM_POLICY,2024-02-05,2024-02-06,227550,ETF_005,TIGER 200 산업재,5876.0,5885.0,0.0,0.0,0.0,HOLD,0.0,0.0,0.0,0.0,8981506.0,0.0,1347.2259,988110834.7367595,988109487.5108596,984937018.0627626,-0.005426963341603,0.95,0.05,0.0,0.0,0.0,0.0,49428182.51085949,True
A3_LLM_POLICY,2024-02-05,2024-02-06,266390,ETF_006,KODEX 경기소비재,8238.0,8262.0,28918.0,28487.0,-431.0,SELL,238226484.0,234675906.0,-3550578.0,3550578.0,8981506.0,532.5867,1347.2259,988110834.7367595,988109487.5108596,984937018.0627626,-0.005426963341603,0.95,0.05,0.25,0.2375,0.2410928770591463,0.2374999015454963,49428182.51085949,True
A3_LLM_POLICY,2024-02-05,2024-02-06,266410,ETF_007,KODEX 필수소비재,5960.0,5946.0,0.0,0.0,0.0,HOLD,0.0,0.0,0.0,0.0,8981506.0,0.0,1347.2259,988110834.7367595,988109487.5108596,984937018.0627626,-0.005426963341603,0.95,0.05,0.0,0.0,0.0,0.0,49428182.51085949,True
A3_LLM_POLICY,2024-02-05,2024-02-06,266420,ETF_008,KODEX 헬스케어,13353.0,13527.0,0.0,0.0,0.0,HOLD,0.0,0.0,0.0,0.0,8981506.0,0.0,1347.2259,988110834.7367595,988109487.5108596,984937018.0627626,-0.005426963341603,0.95,0.05,0.0,0.0,0.0,0.0,49428182.51085949,True
A3_LLM_POLICY,2024-02-05,2024-02-06,315270,ETF_009,TIGER 200 커뮤니케이션서비스,17371.0,17136.0,0.0,0.0,0.0,HOLD,0.0,0.0,0.0,0.0,8981506.0,0.0,1347.2259,988110834.7367595,988109487.5108596,984937018.0627626,-0.005426963341603,0.95,0.05,0.0,0.0,0.0,0.0,49428182.51085949,True
A3_LLM_POLICY,2024-02-06,2024-02-07,117460,ETF_001,KODEX 에너지화학,14514.0,14519.0,0.0,0.0,0.0,HOLD,0.0,0.0,0.0,0.0,100411091.0,0.0,15061.66365,989993138.0627626,989978076.3991126,1003789717.5051204,0.0191410202851736,0.95,0.05,0.0,0.0,0.0,0.0,49515672.39911258,True
A3_LLM_POLICY,2024-02-06,2024-02-07,117680,ETF_002,KODEX 철강,8466.0,8635.0,27719.0,22217.0,-5502.0,SELL,234669054.0,188089122.0,-46579932.0,46579932.0,100411091.0,6986.989799999999,15061.66365,989993138.0627626,989978076.3991126,1003789717.5051204,0.0191410202851736,0.95,0.05,0.2,0.19,0.2370410914758509,0.1899932195308245,49515672.39911258,True
A3_LLM_POLICY,2024-02-06,2024-02-07,139260,ETF_003,TIGER 200 IT,30357.0,30659.0,7814.0,7745.0,-69.0,SELL,237209598.0,235114965.0,-2094633.0,2094633.0,100411091.0,314.19495,15061.66365,989993138.0627626,989978076.3991126,1003789717.5051204,0.0191410202851736,0.95,0.05,0.25,0.2375,0.2396073153235953,0.2374951229780695,49515672.39911258,True
A3_LLM_POLICY,2024-02-06,2024-02-07,139270,ETF_004,TIGER 200 금융,6632.0,6778.0,34979.0,42542.0,7563.0,BUY,231980728.0,282138544.0,50157816.0,50157816.0,100411091.0,7523.672399999999,15061.66365,989993138.0627626,989978076.3991126,1003789717.5051204,0.0191410202851736,0.95,0.05,0.3,0.285,0.234325591845964,0.2849947395059838,49515672.39911258,True
A3_LLM_POLICY,2024-02-06,2024-02-07,266390,ETF_006,KODEX 경기소비재,8309.0,8362.0,28487.0,28297.0,-190.0,SELL,236698483.0,235119773.0,-1578710.0,1578710.0,100411091.0,236.8065,15061.66365,989993138.0627626,989978076.3991126,1003789717.5051204,0.0191410202851736,0.95,0.05,0.25,0.2375,0.2390910339673425,0.2374999796512774,49515672.39911258,True
A3_LLM_POLICY,2024-02-06,2024-02-07,266410,ETF_007,KODEX 필수소비재,6012.0,5979.0,0.0,0.0,0.0,HOLD,0.0,0.0,0.0,0.0,100411091.0,0.0,15061.66365,989993138.0627626,989978076.3991126,1003789717.5051204,0.0191410202851736,0.95,0.05,0.0,0.0,0.0,0.0,49515672.39911258,True
A3_LLM_POLICY,2024-02-06,2024-02-07,266420,ETF_008,KODEX 헬스케어,13597.0,13478.0,0.0,0.0,0.0,HOLD,0.0,0.0,0.0,0.0,100411091.0,0.0,15061.66365,989993138.0627626,989978076.3991126,1003789717.5051204,0.0191410202851736,0.95,0.05,0.0,0.0,0.0,0.0,49515672.39911258,True
A3_LLM_POLICY,2024-02-06,2024-02-07,315270,ETF_009,TIGER 200 커뮤니케이션서비스,17442.0,17265.0,0.0,0.0,0.0,HOLD,0.0,0.0,0.0,0.0,100411091.0,0.0,15061.66365,989993138.0627626,989978076.3991126,1003789717.5051204,0.0191410202851736,0.95,0.05,0.0,0.0,0.0,0.0,49515672.39911258,True
A3_LLM_POLICY,2024-02-07,2024-02-08,117460,ETF_001,KODEX 에너지화학,14808.0,14808.0,0.0,0.0,0.0,HOLD,0.0,0.0,0.0,0.0,92510779.0,0.0,13876.61685,1009840490.5051204,1009826613.8882704,1013684938.5068828,0.0098578624877299,0.95,0.05,0.0,0.0,0.0,0.0,50514673.88827026,True
A3_LLM_POLICY,2024-02-07,2024-02-08,117680,ETF_002,KODEX 철강,8649.0,8611.0,22217.0,22183.0,-34.0,SELL,192154833.0,191860767.0,-294066.0,294066.0,92510779.0,44.1099,13876.61685,1009840490.5051204,1009826613.8882704,1013684938.5068828,0.0098578624877299,0.95,0.05,0.2,0.19,0.1902823612310143,0.1899937715656481,50514673.88827026,True
A3_LLM_POLICY,2024-02-07,2024-02-08,139260,ETF_003,TIGER 200 IT,30771.0,30795.0,7745.0,6235.0,-1510.0,SELL,238321395.0,191857185.0,-46464210.0,46464210.0,92510779.0,6969.6315,13876.61685,1009840490.5051204,1009826613.8882704,1013684938.5068828,0.0098578624877299,0.95,0.05,0.2,0.19,0.2359990486030047,0.1899902244220586,50514673.88827026,True
A3_LLM_POLICY,2024-02-07,2024-02-08,139270,ETF_004,TIGER 200 금융,6832.0,6977.0,42542.0,49146.0,6604.0,BUY,290646944.0,335765472.0,45118528.0,45118528.0,92510779.0,6767.779199999999,13876.61685,1009840490.5051204,1009826613.8882704,1013684938.5068828,0.0098578624877299,0.95,0.05,0.35,0.3324999999999999,0.2878147061172195,0.3324981411483674,50514673.88827026,True
A3_LLM_POLICY,2024-02-07,2024-02-08,227550,ETF_005,TIGER 200 산업재,6000.0,6019.0,0.0,0.0,0.0,HOLD,0.0,0.0,0.0,0.0,92510779.0,0.0,13876.61685,1009840490.5051204,1009826613.8882704,1013684938.5068828,0.0098578624877299,0.95,0.05,0.0,0.0,0.0,0.0,50514673.88827026,True
A3_LLM_POLICY,2024-02-07,2024-02-08,266390,ETF_006,KODEX 경기소비재,8453.0,8362.0,28297.0,28372.0,75.0,BUY,239194541.0,239828516.0,633975.0,633975.0,92510779.0,95.09624999999998,13876.61685,1009840490.5051204,1009826613.8882704,1013684938.5068828,0.0098578624877299,0.95,0.05,0.25,0.2375,0.2368636861454776,0.2374947468224829,50514673.88827026,True
A3_LLM_POLICY,2024-02-07,2024-02-08,266410,ETF_007,KODEX 필수소비재,6036.0,5950.0,0.0,0.0,0.0,HOLD,0.0,0.0,0.0,0.0,92510779.0,0.0,13876.61685,1009840490.5051204,1009826613.8882704,1013684938.5068828,0.0098578624877299,0.95,0.05,0.0,0.0,0.0,0.0,50514673.88827026,True
A3_LLM_POLICY,2024-02-07,2024-02-08,266420,ETF_008,KODEX 헬스케어,13468.0,13358.0,0.0,0.0,0.0,HOLD,0.0,0.0,0.0,0.0,92510779.0,0.0,13876.61685,1009840490.5051204,1009826613.8882704,1013684938.5068828,0.0098578624877299,0.95,0.05,0.0,0.0,0.0,0.0,50514673.88827026,True
A3_LLM_POLICY,2024-02-08,2024-02-13,117460,ETF_001,KODEX 에너지화학,14857.0,15033.0,0.0,0.0,0.0,HOLD,0.0,0.0,0.0,0.0,588424110.0,0.0,88263.61649999999,1016527606.5068828,1016439342.8903828,1025635737.3501931,0.0117894607972703,0.95,0.05,0.0,0.0,0.0,0.0,50838854.890382886,True
A3_LLM_POLICY,2024-02-08,2024-02-13,117680,ETF_002,KODEX 철강,8677.0,8616.0,22183.0,0.0,-22183.0,SELL,192481891.0,0.0,-192481891.0,192481891.0,588424110.0,28872.28365,88263.61649999999,1016527606.5068828,1016439342.8903828,1025635737.3501931,0.0117894607972703,0.95,0.05,0.0,0.0,0.1893523498701918,0.0,50838854.890382886,True
A3_LLM_POLICY,2024-02-08,2024-02-13,139260,ETF_003,TIGER 200 IT,30795.0,31360.0,6235.0,7839.0,1604.0,BUY,192006825.0,241402005.0,49395180.0,49395180.0,588424110.0,7409.276999999999,88263.61649999999,1016527606.5068828,1016439342.8903828,1025635737.3501931,0.0117894607972703,0.95,0.05,0.25,0.2375,0.1888850079141455,0.2374976988922336,50838854.890382886,True
A3_LLM_POLICY,2024-02-08,2024-02-13,139270,ETF_004,TIGER 200 금융,6986.0,6964.0,49146.0,34555.0,-14591.0,SELL,343333956.0,241401230.0,-101932726.0,101932726.0,588424110.0,15289.9089,88263.61649999999,1016527606.5068828,1016439342.8903828,1025635737.3501931,0.0117894607972703,0.95,0.05,0.25,0.2375,0.337751728337026,0.2374969364266665,50838854.890382886,True
A3_LLM_POLICY,2024-02-08,2024-02-13,227550,ETF_005,TIGER 200 산업재,6047.0,6080.0,0.0,0.0,0.0,HOLD,0.0,0.0,0.0,0.0,588424110.0,0.0,88263.61649999999,1016527606.5068828,1016439342.8903828,1025635737.3501931,0.0117894607972703,0.95,0.05,0.0,0.0,0.0,0.0,50838854.890382886,True
A3_LLM_POLICY,2024-02-08,2024-02-13,266390,ETF_006,KODEX 경기소비재,8395.0,8328.0,28372.0,28755.0,383.0,BUY,238182940.0,241398225.0,3215285.0,3215285.0,588424110.0,482.2927499999999,88263.61649999999,1016527606.5068828,1016439342.8903828,1025635737.3501931,0.0117894607972703,0.95,0.05,0.25,0.2375,0.2343103507227644,0.2374939800279193,50838854.890382886,True
A3_LLM_POLICY,2024-02-08,2024-02-13,266410,ETF_007,KODEX 필수소비재,6008.0,5927.0,0.0,0.0,0.0,HOLD,0.0,0.0,0.0,0.0,588424110.0,0.0,88263.61649999999,1016527606.5068828,1016439342.8903828,1025635737.3501931,0.0117894607972703,0.95,0.05,0.0,0.0,0.0,0.0,50838854.890382886,True
A3_LLM_POLICY,2024-02-08,2024-02-13,266420,ETF_008,KODEX 헬스케어,13388.0,13801.0,0.0,18031.0,18031.0,BUY,0.0,241399028.0,241399028.0,241399028.0,588424110.0,36209.8542,88263.61649999999,1016527606.5068828,1016439342.8903828,1025635737.3501931,0.0117894607972703,0.95,0.05,0.25,0.2375,0.0,0.2374947700406294,50838854.890382886,True
A3_LLM_POLICY,2024-02-08,2024-02-13,315270,ETF_009,TIGER 200 커뮤니케이션서비스,17452.0,17471.0,0.0,0.0,0.0,HOLD,0.0,0.0,0.0,0.0,588424110.0,0.0,88263.61649999999,1016527606.5068828,1016439342.8903828,1025635737.3501931,0.0117894607972703,0.95,0.05,0.0,0.0,0.0,0.0,50838854.890382886,True
A3_LLM_POLICY,2024-02-13,2024-02-14,117460,ETF_001,KODEX 에너지화학,14636.0,14891.0,0.0,0.0,0.0,HOLD,0.0,0.0,0.0,0.0,9423512.0,0.0,1413.5268,1013429550.3501931,1013428136.8233932,1010654373.6892996,-0.0146069048837933,0.95,0.05,0.0,0.0,0.0,0.0,50701368.823393226,True
A3_LLM_POLICY,2024-02-13,2024-02-14,117680,ETF_002,KODEX 철강,8508.0,8541.0,0.0,0.0,0.0,HOLD,0.0,0.0,0.0,0.0,9423512.0,0.0,1413.5268,1013429550.3501931,1013428136.8233932,1010654373.6892996,-0.0146069048837933,0.95,0.05,0.0,0.0,0.0,0.0,50701368.823393226,True
A3_LLM_POLICY,2024-02-13,2024-02-14,139260,ETF_003,TIGER 200 IT,30883.0,30922.0,7839.0,7793.0,-46.0,SELL,242091837.0,240671219.0,-1420618.0,1420618.0,9423512.0,213.0927,1413.5268,1013429550.3501931,1013428136.8233932,1010654373.6892996,-0.0146069048837933,0.95,0.05,0.25,0.2375,0.238883735841672,0.2374822745245536,50701368.823393226,True
A3_LLM_POLICY,2024-02-13,2024-02-14,139270,ETF_004,TIGER 200 금융,6941.0,6827.0,34555.0,34676.0,121.0,BUY,239846255.0,240686116.0,839861.0,839861.0,9423512.0,125.97914999999998,1413.5268,1013429550.3501931,1013428136.8233932,1010654373.6892996,-0.0146069048837933,0.95,0.05,0.25,0.2375,0.2366679113680082,0.2374969741361577,50701368.823393226,True
A3_LLM_POLICY,2024-02-13,2024-02-14,227550,ETF_005,TIGER 200 산업재,5914.0,5962.0,0.0,0.0,0.0,HOLD,0.0,0.0,0.0,0.0,9423512.0,0.0,1413.5268,1013429550.3501931,1013428136.8233932,1010654373.6892996,-0.0146069048837933,0.95,0.05,0.0,0.0,0.0,0.0,50701368.823393226,True
A3_LLM_POLICY,2024-02-13,2024-02-14,266390,ETF_006,KODEX 경기소비재,8233.0,8214.0,28755.0,29234.0,479.0,BUY,236739915.0,240683522.0,3943607.0,3943607.0,9423512.0,591.5410499999999,1413.5268,1013429550.3501931,1013428136.8233932,1010654373.6892996,-0.0146069048837933,0.95,0.05,0.25,0.2375,0.2336027353042881,0.2374944145072055,50701368.823393226,True
A3_LLM_POLICY,2024-02-13,2024-02-14,266410,ETF_007,KODEX 필수소비재,5898.0,5879.0,0.0,0.0,0.0,HOLD,0.0,0.0,0.0,0.0,9423512.0,0.0,1413.5268,1013429550.3501931,1013428136.8233932,1010654373.6892996,-0.0146069048837933,0.95,0.05,0.0,0.0,0.0,0.0,50701368.823393226,True
A3_LLM_POLICY,2024-02-13,2024-02-14,266420,ETF_008,KODEX 헬스케어,13527.0,13607.0,18031.0,17793.0,-238.0,SELL,243905337.0,240685911.0,-3219426.0,3219426.0,9423512.0,482.9139,1413.5268,1013429550.3501931,1013428136.8233932,1010654373.6892996,-0.0146069048837933,0.95,0.05,0.25,0.2375,0.240673204087761,0.237496771852451,50701368.823393226,True
A3_LLM_POLICY,2024-02-13,2024-02-14,315270,ETF_009,TIGER 200 커뮤니케이션서비스,17352.0,17562.0,0.0,0.0,0.0,HOLD,0.0,0.0,0.0,0.0,9423512.0,0.0,1413.5268,1013429550.3501931,1013428136.8233932,1010654373.6892996,-0.0146069048837933,0.95,0.05,0.0,0.0,0.0,0.0,50701368.823393226,True
A3_LLM_POLICY,2024-02-14,2024-02-15,117460,ETF_001,KODEX 에너지화학,14940.0,15156.0,0.0,9655.0,9655.0,BUY,0.0,144245700.0,144245700.0,144245700.0,298673558.0,21636.855,44801.03369999999,1012382664.6892996,1012337863.6555996,1007655092.846832,-0.0029676622597684,0.95,0.05,0.15,0.1425,0.0,0.1424877061094227,50662525.65559971,True
A3_LLM_POLICY,2024-02-14,2024-02-15,117680,ETF_002,KODEX 철강,8602.0,8555.0,0.0,0.0,0.0,HOLD,0.0,0.0,0.0,0.0,298673558.0,0.0,44801.03369999999,1012382664.6892996,1012337863.6555996,1007655092.846832,-0.0029676622597684,0.95,0.05,0.0,0.0,0.0,0.0,50662525.65559971,True
A3_LLM_POLICY,2024-02-14,2024-02-15,139260,ETF_003,TIGER 200 IT,31082.0,30785.0,7793.0,7735.0,-58.0,SELL,242222026.0,240419270.0,-1802756.0,1802756.0,298673558.0,270.4134,44801.03369999999,1012382664.6892996,1012337863.6555996,1007655092.846832,-0.0029676622597684,0.95,0.05,0.25,0.2375,0.2392593576010489,0.2374891611105354,50662525.65559971,True
A3_LLM_POLICY,2024-02-14,2024-02-15,139270,ETF_004,TIGER 200 금융,6791.0,6755.0,34676.0,35404.0,728.0,BUY,235484716.0,240428564.0,4943848.0,4943848.0,298673558.0,741.5771999999998,44801.03369999999,1012382664.6892996,1012337863.6555996,1007655092.846832,-0.0029676622597684,0.95,0.05,0.25,0.2375,0.2326044530526115,0.2374983418399477,50662525.65559971,True
A3_LLM_POLICY,2024-02-14,2024-02-15,266390,ETF_006,KODEX 경기소비재,8219.0,8157.0,29234.0,29252.0,18.0,BUY,240274246.0,240422188.0,147942.0,147942.0,298673558.0,22.1913,44801.03369999999,1012382664.6892996,1012337863.6555996,1007655092.846832,-0.0029676622597684,0.95,0.05,0.25,0.2375,0.2373354013067185,0.2374920435474221,50662525.65559971,True
A3_LLM_POLICY,2024-02-14,2024-02-15,266410,ETF_007,KODEX 필수소비재,5912.0,5898.0,0.0,0.0,0.0,HOLD,0.0,0.0,0.0,0.0,298673558.0,0.0,44801.03369999999,1012382664.6892996,1012337863.6555996,1007655092.846832,-0.0029676622597684,0.95,0.05,0.0,0.0,0.0,0.0,50662525.65559971,True
A3_LLM_POLICY,2024-02-14,2024-02-15,266420,ETF_008,KODEX 헬스케어,13696.0,13498.0,17793.0,7021.0,-10772.0,SELL,243692928.0,96159616.0,-147533312.0,147533312.0,298673558.0,22129.9968,44801.03369999999,1012382664.6892996,1012337863.6555996,1007655092.846832,-0.0029676622597684,0.95,0.05,0.1,0.095,0.2407122686902085,0.0949876710654317,50662525.65559971,True
A3_LLM_POLICY,2024-02-14,2024-02-15,315270,ETF_009,TIGER 200 커뮤니케이션서비스,17844.0,17902.0,0.0,0.0,0.0,HOLD,0.0,0.0,0.0,0.0,298673558.0,0.0,44801.03369999999,1012382664.6892996,1012337863.6555996,1007655092.846832,-0.0029676622597684,0.95,0.05,0.0,0.0,0.0,0.0,50662525.65559971,True
A3_LLM_POLICY,2024-02-15,2024-02-16,117460,ETF_001,KODEX 에너지화학,15249.0,15425.0,9655.0,0.0,-9655.0,SELL,147229095.0,0.0,-147229095.0,147229095.0,488145139.0,22084.36425,73221.77085,1017998791.846832,1017925570.075982,1026332368.6141891,0.0185353856691081,0.95,0.05,0.0,0.0,0.1446260016997663,0.0,50926249.075982094,True
A3_LLM_POLICY,2024-02-15,2024-02-16,117680,ETF_002,KODEX 철강,8649.0,8794.0,0.0,27952.0,27952.0,BUY,0.0,241756848.0,241756848.0,241756848.0,488145139.0,36263.5272,73221.77085,1017998791.846832,1017925570.075982,1026332368.6141891,0.0185353856691081,0.95,0.05,0.25,0.2375,0.0,0.2374995334697745,50926249.075982094,True
A3_LLM_POLICY,2024-02-15,2024-02-16,139260,ETF_003,TIGER 200 IT,31131.0,31238.0,7735.0,7765.0,30.0,BUY,240798285.0,241732215.0,933930.0,933930.0,488145139.0,140.0895,73221.77085,1017998791.846832,1017925570.075982,1026332368.6141891,0.0185353856691081,0.95,0.05,0.25,0.2375,0.2365408357343419,0.2374753342545036,50926249.075982094,True
A3_LLM_POLICY,2024-02-15,2024-02-16,139270,ETF_004,TIGER 200 금융,6877.0,6977.0,35404.0,35154.0,-250.0,SELL,243473308.0,241754058.0,-1719250.0,1719250.0,488145139.0,257.8875,73221.77085,1017998791.846832,1017925570.075982,1026332368.6141891,0.0185353856691081,0.95,0.05,0.25,0.2375,0.2391685628214704,0.2374967926014025,50926249.075982094,True
A3_LLM_POLICY,2024-02-15,2024-02-16,227550,ETF_005,TIGER 200 산업재,6123.0,6166.0,0.0,0.0,0.0,HOLD,0.0,0.0,0.0,0.0,488145139.0,0.0,73221.77085,1017998791.846832,1017925570.075982,1026332368.6141891,0.0185353856691081,0.95,0.05,0.0,0.0,0.0,0.0,50926249.075982094,True
A3_LLM_POLICY,2024-02-15,2024-02-16,266390,ETF_006,KODEX 경기소비재,8223.0,8223.0,29252.0,29400.0,148.0,BUY,240539196.0,241756200.0,1217004.0,1217004.0,488145139.0,182.5506,73221.77085,1017998791.846832,1017925570.075982,1026332368.6141891,0.0185353856691081,0.95,0.05,0.25,0.2375,0.2362863275737477,0.2374988968809913,50926249.075982094,True
A3_LLM_POLICY,2024-02-15,2024-02-16,266410,ETF_007,KODEX 필수소비재,5960.0,5955.0,0.0,0.0,0.0,HOLD,0.0,0.0,0.0,0.0,488145139.0,0.0,73221.77085,1017998791.846832,1017925570.075982,1026332368.6141891,0.0185353856691081,0.95,0.05,0.0,0.0,0.0,0.0,50926249.075982094,True
A3_LLM_POLICY,2024-02-15,2024-02-16,266420,ETF_008,KODEX 헬스케어,13572.0,13612.0,7021.0,0.0,-7021.0,SELL,95289012.0,0.0,-95289012.0,95289012.0,488145139.0,14293.3518,73221.77085,1017998791.846832,1017925570.075982,1026332368.6141891,0.0185353856691081,0.95,0.05,0.0,0.0,0.0936042486132313,0.0,50926249.075982094,True
A3_LLM_POLICY,2024-02-15,2024-02-16,315270,ETF_009,TIGER 200 커뮤니케이션서비스,17911.0,17907.0,0.0,0.0,0.0,HOLD,0.0,0.0,0.0,0.0,488145139.0,0.0,73221.77085,1017998791.846832,1017925570.075982,1026332368.6141891,0.0185353856691081,0.95,0.05,0.0,0.0,0.0,0.0,50926249.075982094,True
A3_LLM_POLICY,2024-02-16,2024-02-19,117460,ETF_001,KODEX 에너지화학,15425.0,15533.0,0.0,0.0,0.0,HOLD,0.0,0.0,0.0,0.0,292127400.0,0.0,43819.10999999999,1029115943.6141891,1029072124.5041893,1044207056.895091,0.0174160816003856,0.95,0.05,0.0,0.0,0.0,0.0,51463137.50418913,True
A3_LLM_POLICY,2024-02-16,2024-02-19,117680,ETF_002,KODEX 철강,8794.0,8915.0,27952.0,16675.0,-11277.0,SELL,245809888.0,146639950.0,-99169938.0,99169938.0,292127400.0,14875.490699999997,43819.10999999999,1029115943.6141891,1029072124.5041893,1044207056.895091,0.0174160816003856,0.95,0.05,0.15,0.1425,0.2388553879913,0.1424972521441601,51463137.50418913,True
A3_LLM_POLICY,2024-02-16,2024-02-19,139260,ETF_003,TIGER 200 IT,31233.0,31720.0,7765.0,6260.0,-1505.0,SELL,242524245.0,195518580.0,-47005665.0,47005665.0,292127400.0,7050.849749999999,43819.10999999999,1029115943.6141891,1029072124.5041893,1044207056.895091,0.0174160816003856,0.95,0.05,0.1999999999999999,0.1899999999999999,0.235662703026707,0.1899950210916476,51463137.50418913,True
A3_LLM_POLICY,2024-02-16,2024-02-19,139270,ETF_004,TIGER 200 금융,6977.0,7154.0,35154.0,42036.0,6882.0,BUY,245269458.0,293285172.0,48015714.0,48015714.0,292127400.0,7202.357099999999,43819.10999999999,1029115943.6141891,1029072124.5041893,1044207056.895091,0.0174160816003856,0.95,0.05,0.3,0.285,0.2383302479394395,0.2849996273500323,51463137.50418913,True
A3_LLM_POLICY,2024-02-16,2024-02-19,227550,ETF_005,TIGER 200 산업재,6209.0,6185.0,0.0,0.0,0.0,HOLD,0.0,0.0,0.0,0.0,292127400.0,0.0,43819.10999999999,1029115943.6141891,1029072124.5041893,1044207056.895091,0.0174160816003856,0.95,0.05,0.0,0.0,0.0,0.0,51463137.50418913,True
A3_LLM_POLICY,2024-02-16,2024-02-19,266390,ETF_006,KODEX 경기소비재,8319.0,8362.0,29400.0,29379.0,-21.0,SELL,244578600.0,244403901.0,-174699.0,174699.0,292127400.0,26.20485,43819.10999999999,1029115943.6141891,1029072124.5041893,1044207056.895091,0.0174160816003856,0.95,0.05,0.25,0.2375,0.2376589358251079,0.2374992920129429,51463137.50418913,True
A3_LLM_POLICY,2024-02-16,2024-02-19,266410,ETF_007,KODEX 필수소비재,5974.0,6008.0,0.0,0.0,0.0,HOLD,0.0,0.0,0.0,0.0,292127400.0,0.0,43819.10999999999,1029115943.6141891,1029072124.5041893,1044207056.895091,0.0174160816003856,0.95,0.05,0.0,0.0,0.0,0.0,51463137.50418913,True
A3_LLM_POLICY,2024-02-16,2024-02-19,266420,ETF_008,KODEX 헬스케어,13612.0,13801.0,0.0,7182.0,7182.0,BUY,0.0,97761384.0,97761384.0,97761384.0,292127400.0,14664.207599999998,43819.10999999999,1029115943.6141891,1029072124.5041893,1044207056.895091,0.0174160816003856,0.95,0.05,0.0999999999999999,0.0949999999999999,0.0,0.0949995453886206,51463137.50418913,True
A3_LLM_POLICY,2024-02-16,2024-02-19,315270,ETF_009,TIGER 200 커뮤니케이션서비스,17988.0,18036.0,0.0,0.0,0.0,HOLD,0.0,0.0,0.0,0.0,292127400.0,0.0,43819.10999999999,1029115943.6141891,1029072124.5041893,1044207056.895091,0.0174160816003856,0.95,0.05,0.0,0.0,0.0,0.0,51463137.50418913,True
A3_LLM_POLICY,2024-02-19,2024-02-20,117460,ETF_001,KODEX 에너지화학,15533.0,15504.0,0.0,0.0,0.0,HOLD,0.0,0.0,0.0,0.0,395115422.0,0.0,59267.3133,1046931339.895091,1046872072.581791,1029100944.1583116,-0.0144665874809319,0.95,0.05,0.0,0.0,0.0,0.0,52380966.58179104,True
A3_LLM_POLICY,2024-02-19,2024-02-20,117680,ETF_002,KODEX 철강,8906.0,8892.0,16675.0,16750.0,75.0,BUY,148507550.0,149175500.0,667950.0,667950.0,395115422.0,100.19249999999998,59267.3133,1046931339.895091,1046872072.581791,1029100944.1583116,-0.0144665874809319,0.95,0.05,0.15,0.1425,0.1418503242198111,0.1424963984683477,52380966.58179104,True
A3_LLM_POLICY,2024-02-19,2024-02-20,139260,ETF_003,TIGER 200 IT,31686.0,31394.0,6260.0,3138.0,-3122.0,SELL,198354360.0,99430668.0,-98923692.0,98923692.0,395115422.0,14838.5538,59267.3133,1046931339.895091,1046872072.581791,1029100944.1583116,-0.0144665874809319,0.95,0.05,0.1,0.095,0.1894626251420425,0.0949788141303498,52380966.58179104,True
A3_LLM_POLICY,2024-02-19,2024-02-20,139270,ETF_004,TIGER 200 금융,7254.0,6973.0,42036.0,47985.0,5949.0,BUY,304929144.0,348083190.0,43154046.0,43154046.0,395115422.0,6473.106899999999,59267.3133,1046931339.895091,1046872072.581791,1029100944.1583116,-0.0144665874809319,0.95,0.05,0.35,0.3324999999999999,0.2912599254412957,0.3324983053006265,52380966.58179104,True
A3_LLM_POLICY,2024-02-19,2024-02-20,227550,ETF_005,TIGER 200 산업재,6175.0,6237.0,0.0,0.0,0.0,HOLD,0.0,0.0,0.0,0.0,395115422.0,0.0,59267.3133,1046931339.895091,1046872072.581791,1029100944.1583116,-0.0144665874809319,0.95,0.05,0.0,0.0,0.0,0.0,52380966.58179104,True
A3_LLM_POLICY,2024-02-19,2024-02-20,266390,ETF_006,KODEX 경기소비재,8324.0,8266.0,29379.0,29869.0,490.0,BUY,244550796.0,248629556.0,4078760.0,4078760.0,395115422.0,611.814,59267.3133,1046931339.895091,1046872072.581791,1029100944.1583116,-0.0144665874809319,0.95,0.05,0.25,0.2375,0.2335881892928198,0.2374975534372895,52380966.58179104,True
A3_LLM_POLICY,2024-02-19,2024-02-20,266410,ETF_007,KODEX 필수소비재,6022.0,5989.0,0.0,0.0,0.0,HOLD,0.0,0.0,0.0,0.0,395115422.0,0.0,59267.3133,1046931339.895091,1046872072.581791,1029100944.1583116,-0.0144665874809319,0.95,0.05,0.0,0.0,0.0,0.0,52380966.58179104,True
A3_LLM_POLICY,2024-02-19,2024-02-20,266420,ETF_008,KODEX 헬스케어,13801.0,13831.0,7182.0,0.0,-7182.0,SELL,99118782.0,0.0,-99118782.0,99118782.0,395115422.0,14867.8173,59267.3133,1046931339.895091,1046872072.581791,1029100944.1583116,-0.0144665874809319,0.95,0.05,0.0,0.0,0.094675532408775,0.0,52380966.58179104,True
A3_LLM_POLICY,2024-02-19,2024-02-20,315270,ETF_009,TIGER 200 커뮤니케이션서비스,18174.0,18002.0,0.0,8208.0,8208.0,BUY,0.0,149172192.0,149172192.0,149172192.0,395115422.0,22375.8288,59267.3133,1046931339.895091,1046872072.581791,1029100944.1583116,-0.0144665874809319,0.95,0.05,0.15,0.1425,0.0,0.1424932385789146,52380966.58179104,True
A3_LLM_POLICY,2024-02-20,2024-02-21,117460,ETF_001,KODEX 에너지화학,15278.0,15489.0,0.0,12819.0,12819.0,BUY,0.0,195848682.0,195848682.0,195848682.0,405108246.0,29377.3023,60766.2369,1030880635.1583116,1030819868.9214118,1032905113.9747256,0.0036965954000995,0.95,0.05,0.2,0.19,0.0,0.1899931189771539,51566842.92141175,True
A3_LLM_POLICY,2024-02-20,2024-02-21,117680,ETF_002,KODEX 철강,8892.0,8948.0,16750.0,16519.0,-231.0,SELL,148941000.0,146886948.0,-2054052.0,2054052.0,405108246.0,308.1078,60766.2369,1030880635.1583116,1030819868.9214118,1032905113.9747256,0.0036965954000995,0.95,0.05,0.15,0.1425,0.1444793848291924,0.142495262682212,51566842.92141175,True
A3_LLM_POLICY,2024-02-20,2024-02-21,139260,ETF_003,TIGER 200 IT,31477.0,31442.0,3138.0,3111.0,-27.0,SELL,98774826.0,97924947.0,-849879.0,849879.0,405108246.0,127.48185,60766.2369,1030880635.1583116,1030819868.9214118,1032905113.9747256,0.0036965954000995,0.95,0.05,0.1,0.095,0.0958159680483582,0.0949971473701441,51566842.92141175,True
A3_LLM_POLICY,2024-02-20,2024-02-21,139270,ETF_004,TIGER 200 금융,6995.0,6954.0,47985.0,48998.0,1013.0,BUY,335655075.0,342741010.0,7085935.0,7085935.0,405108246.0,1062.89025,60766.2369,1030880635.1583116,1030819868.9214118,1032905113.9747256,0.0036965954000995,0.95,0.05,0.35,0.3324999999999999,0.3256003300017888,0.3324936008059523,51566842.92141175,True
A3_LLM_POLICY,2024-02-20,2024-02-21,227550,ETF_005,TIGER 200 산업재,6242.0,6275.0,0.0,0.0,0.0,HOLD,0.0,0.0,0.0,0.0,405108246.0,0.0,60766.2369,1030880635.1583116,1030819868.9214118,1032905113.9747256,0.0036965954000995,0.95,0.05,0.0,0.0,0.0,0.0,51566842.92141175,True
A3_LLM_POLICY,2024-02-20,2024-02-21,266390,ETF_006,KODEX 경기소비재,8309.0,8333.0,29869.0,23571.0,-6298.0,SELL,248181521.0,195851439.0,-52330082.0,52330082.0,405108246.0,7849.5123,60766.2369,1030880635.1583116,1030819868.9214118,1032905113.9747256,0.0036965954000995,0.95,0.05,0.2,0.19,0.2407470977101892,0.189995793547254,51566842.92141175,True
A3_LLM_POLICY,2024-02-20,2024-02-21,266410,ETF_007,KODEX 필수소비재,6008.0,5974.0,0.0,0.0,0.0,HOLD,0.0,0.0,0.0,0.0,405108246.0,0.0,60766.2369,1030880635.1583116,1030819868.9214118,1032905113.9747256,0.0036965954000995,0.95,0.05,0.0,0.0,0.0,0.0,51566842.92141175,True
A3_LLM_POLICY,2024-02-20,2024-02-21,266420,ETF_008,KODEX 헬스케어,13861.0,13821.0,0.0,0.0,0.0,HOLD,0.0,0.0,0.0,0.0,405108246.0,0.0,60766.2369,1030880635.1583116,1030819868.9214118,1032905113.9747256,0.0036965954000995,0.95,0.05,0.0,0.0,0.0,0.0,51566842.92141175,True
A3_LLM_POLICY,2024-02-20,2024-02-21,315270,ETF_009,TIGER 200 커뮤니케이션서비스,17902.0,17816.0,8208.0,0.0,-8208.0,SELL,146939616.0,0.0,-146939616.0,146939616.0,405108246.0,22040.9424,60766.2369,1030880635.1583116,1030819868.9214118,1032905113.9747256,0.0036965954000995,0.95,0.05,0.0,0.0,0.1425379534628997,0.0,51566842.92141175,True
A3_LLM_POLICY,2024-02-21,2024-02-22,117460,ETF_001,KODEX 에너지화학,15401.0,15210.0,12819.0,9573.0,-3246.0,SELL,197425419.0,147433773.0,-49991646.0,49991646.0,393663579.0,7498.746899999999,59049.53685,1034693874.9747256,1034634825.4378756,1028126584.85232,-0.004626300187456,0.95,0.05,0.15,0.1425,0.1908056322502368,0.1424983669359896,51748811.43787551,True
A3_LLM_POLICY,2024-02-21,2024-02-22,117680,ETF_002,KODEX 철강,8967.0,8883.0,16519.0,27403.0,10884.0,BUY,148125873.0,245722701.0,97596828.0,97596828.0,393663579.0,14639.524199999998,59049.53685,1034693874.9747256,1034634825.4378756,1028126584.85232,-0.004626300187456,0.95,0.05,0.25,0.2375,0.1431591281079327,0.2374970327294037,51748811.43787551,True
A3_LLM_POLICY,2024-02-21,2024-02-22,139260,ETF_003,TIGER 200 IT,31817.0,32002.0,3111.0,0.0,-3111.0,SELL,98982687.0,0.0,-98982687.0,98982687.0,393663579.0,14847.40305,59049.53685,1034693874.9747256,1034634825.4378756,1028126584.85232,-0.004626300187456,0.95,0.05,0.0,0.0,0.0956637411257681,0.0,51748811.43787551,True
A3_LLM_POLICY,2024-02-21,2024-02-22,139270,ETF_004,TIGER 200 금융,7004.0,6950.0,48998.0,49117.0,119.0,BUY,343181992.0,344015468.0,833476.0,833476.0,393663579.0,125.0214,59049.53685,1034693874.9747256,1034634825.4378756,1028126584.85232,-0.004626300187456,0.95,0.05,0.35,0.3324999999999999,0.3316749043366889,0.332499409010717,51748811.43787551,True
A3_LLM_POLICY,2024-02-21,2024-02-22,227550,ETF_005,TIGER 200 산업재,6323.0,6323.0,0.0,15544.0,15544.0,BUY,0.0,98284712.0,98284712.0,98284712.0,393663579.0,14742.706799999998,59049.53685,1034693874.9747256,1034634825.4378756,1028126584.85232,-0.004626300187456,0.95,0.05,0.1,0.095,0.0,0.0949945909257444,51748811.43787551,True
A3_LLM_POLICY,2024-02-21,2024-02-22,266390,ETF_006,KODEX 경기소비재,8290.0,8305.0,23571.0,17784.0,-5787.0,SELL,195403590.0,147429360.0,-47974230.0,47974230.0,393663579.0,7196.1345,59049.53685,1034693874.9747256,1034634825.4378756,1028126584.85232,-0.004626300187456,0.95,0.05,0.15,0.1425,0.1888515963282117,0.1424941016629759,51748811.43787551,True
A3_LLM_POLICY,2024-02-21,2024-02-22,266410,ETF_007,KODEX 필수소비재,6041.0,5955.0,0.0,0.0,0.0,HOLD,0.0,0.0,0.0,0.0,393663579.0,0.0,59049.53685,1034693874.9747256,1034634825.4378756,1028126584.85232,-0.004626300187456,0.95,0.05,0.0,0.0,0.0,0.0,51748811.43787551,True
A3_LLM_POLICY,2024-02-21,2024-02-22,266420,ETF_008,KODEX 헬스케어,13811.0,13796.0,0.0,0.0,0.0,HOLD,0.0,0.0,0.0,0.0,393663579.0,0.0,59049.53685,1034693874.9747256,1034634825.4378756,1028126584.85232,-0.004626300187456,0.95,0.05,0.0,0.0,0.0,0.0,51748811.43787551,True
A3_LLM_POLICY,2024-02-21,2024-02-22,315270,ETF_009,TIGER 200 커뮤니케이션서비스,18050.0,17773.0,0.0,0.0,0.0,HOLD,0.0,0.0,0.0,0.0,393663579.0,0.0,59049.53685,1034693874.9747256,1034634825.4378756,1028126584.85232,-0.004626300187456,0.95,0.05,0.0,0.0,0.0,0.0,51748811.43787551,True
A3_LLM_POLICY,2024-02-22,2024-02-23,117460,ETF_001,KODEX 에너지화학,15102.0,15058.0,9573.0,9684.0,111.0,BUY,144571446.0,146247768.0,1676322.0,1676322.0,391452468.0,251.4483,58717.8702,1026360117.85232,1026301399.98212,1033408631.0282576,0.0051375445920371,0.95,0.05,0.15,0.1425,0.1408584019247735,0.1424998231538492,51332653.98211992,True
A3_LLM_POLICY,2024-02-22,2024-02-23,117680,ETF_002,KODEX 철강,8887.0,8850.0,27403.0,16456.0,-10947.0,SELL,243530461.0,146244472.0,-97285989.0,97285989.0,391452468.0,14592.89835,58717.8702,1026360117.85232,1026301399.98212,1033408631.0282576,0.0051375445920371,0.95,0.05,0.15,0.1425,0.2372758418454456,0.1424966116216424,51332653.98211992,True
A3_LLM_POLICY,2024-02-22,2024-02-23,139260,ETF_003,TIGER 200 IT,32508.0,31988.0,0.0,0.0,0.0,HOLD,0.0,0.0,0.0,0.0,391452468.0,0.0,58717.8702,1026360117.85232,1026301399.98212,1033408631.0282576,0.0051375445920371,0.95,0.05,0.0,0.0,0.0,0.0,51332653.98211992,True
A3_LLM_POLICY,2024-02-22,2024-02-23,139270,ETF_004,TIGER 200 금융,6959.0,7118.0,49117.0,49036.0,-81.0,SELL,341805203.0,341241524.0,-563679.0,563679.0,391452468.0,84.55184999999999,58717.8702,1026360117.85232,1026301399.98212,1033408631.0282576,0.0051375445920371,0.95,0.05,0.35,0.3324999999999999,0.333026583023544,0.3324964031092085,51332653.98211992,True
A3_LLM_POLICY,2024-02-22,2024-02-23,227550,ETF_005,TIGER 200 산업재,6285.0,6261.0,15544.0,0.0,-15544.0,SELL,97694040.0,0.0,-97694040.0,97694040.0,391452468.0,14654.105999999998,58717.8702,1026360117.85232,1026301399.98212,1033408631.0282576,0.0051375445920371,0.95,0.05,0.0,0.0,0.0951849534103359,0.0,51332653.98211992,True
A3_LLM_POLICY,2024-02-22,2024-02-23,266390,ETF_006,KODEX 경기소비재,8266.0,8281.0,17784.0,29487.0,11703.0,BUY,147002544.0,243739542.0,96736998.0,96736998.0,391452468.0,14510.5497,58717.8702,1026360117.85232,1026301399.98212,1033408631.0282576,0.0051375445920371,0.95,0.05,0.25,0.2375,0.1432270617720473,0.2374931399335969,51332653.98211992,True
A3_LLM_POLICY,2024-02-22,2024-02-23,266410,ETF_007,KODEX 필수소비재,5993.0,5970.0,0.0,0.0,0.0,HOLD,0.0,0.0,0.0,0.0,391452468.0,0.0,58717.8702,1026360117.85232,1026301399.98212,1033408631.0282576,0.0051375445920371,0.95,0.05,0.0,0.0,0.0,0.0,51332653.98211992,True
A3_LLM_POLICY,2024-02-22,2024-02-23,266420,ETF_008,KODEX 헬스케어,13910.0,14119.0,0.0,0.0,0.0,HOLD,0.0,0.0,0.0,0.0,391452468.0,0.0,58717.8702,1026360117.85232,1026301399.98212,1033408631.0282576,0.0051375445920371,0.95,0.05,0.0,0.0,0.0,0.0,51332653.98211992,True
A3_LLM_POLICY,2024-02-22,2024-02-23,315270,ETF_009,TIGER 200 커뮤니케이션서비스,17720.0,17701.0,0.0,5502.0,5502.0,BUY,0.0,97495440.0,97495440.0,97495440.0,391452468.0,14624.316,58717.8702,1026360117.85232,1026301399.98212,1033408631.0282576,0.0051375445920371,0.95,0.05,0.0999999999999999,0.0949999999999999,0.0,0.0949968888298296,51332653.98211992,True
A3_LLM_POLICY,2024-02-23,2024-02-26,117460,ETF_001,KODEX 에너지화학,15117.0,15014.0,9684.0,9742.0,58.0,BUY,146393028.0,147269814.0,876786.0,876786.0,200705722.0,131.5179,30105.8583,1033598218.0282576,1033568112.1699576,1016416526.6084253,-0.0164427738550286,0.95,0.05,0.15,0.1425,0.1416343657008876,0.1424868010786533,51724986.16995764,True
A3_LLM_POLICY,2024-02-23,2024-02-26,117680,ETF_002,KODEX 철강,8883.0,8798.0,16456.0,16580.0,124.0,BUY,146178648.0,147280140.0,1101492.0,1101492.0,200705722.0,165.22379999999998,30105.8583,1033598218.0282576,1033568112.1699576,1016416526.6084253,-0.0164427738550286,0.95,0.05,0.15,0.1425,0.1414269543525892,0.142496791711954,51724986.16995764,True
A3_LLM_POLICY,2024-02-23,2024-02-26,139260,ETF_003,TIGER 200 IT,31973.0,31803.0,0.0,1535.0,1535.0,BUY,0.0,49078555.0,49078555.0,49078555.0,200705722.0,7361.783249999999,30105.8583,1033598218.0282576,1033568112.1699576,1016416526.6084253,-0.0164427738550286,0.95,0.05,0.05,0.0475,0.0,0.0474845870553808,51724986.16995764,True
A3_LLM_POLICY,2024-02-23,2024-02-26,139270,ETF_004,TIGER 200 금융,7036.0,6882.0,49036.0,48843.0,-193.0,SELL,345017296.0,343659348.0,-1357948.0,1357948.0,200705722.0,203.6922,30105.8583,1033598218.0282576,1033568112.1699576,1016416526.6084253,-0.0164427738550286,0.95,0.05,0.35,0.3324999999999999,0.3338021389570232,0.3324980172603171,51724986.16995764,True
A3_LLM_POLICY,2024-02-23,2024-02-26,227550,ETF_005,TIGER 200 산업재,6266.0,6332.0,0.0,0.0,0.0,HOLD,0.0,0.0,0.0,0.0,200705722.0,0.0,30105.8583,1033598218.0282576,1033568112.1699576,1016416526.6084253,-0.0164427738550286,0.95,0.05,0.0,0.0,0.0,0.0,51724986.16995764,True
A3_LLM_POLICY,2024-02-23,2024-02-26,266390,ETF_006,KODEX 경기소비재,8386.0,8180.0,29487.0,29271.0,-216.0,SELL,247277982.0,245466606.0,-1811376.0,1811376.0,200705722.0,271.7064,30105.8583,1033598218.0282576,1033568112.1699576,1016416526.6084253,-0.0164427738550286,0.95,0.05,0.25,0.2375,0.2392399461288928,0.2374943684017565,51724986.16995764,True
A3_LLM_POLICY,2024-02-23,2024-02-26,266410,ETF_007,KODEX 필수소비재,5993.0,5879.0,0.0,8191.0,8191.0,BUY,0.0,49088663.0,49088663.0,49088663.0,200705722.0,7363.299449999999,30105.8583,1033598218.0282576,1033568112.1699576,1016416526.6084253,-0.0164427738550286,0.95,0.05,0.05,0.0475,0.0,0.0474943667688617,51724986.16995764,True
A3_LLM_POLICY,2024-02-23,2024-02-26,266420,ETF_008,KODEX 헬스케어,14288.0,14348.0,0.0,0.0,0.0,HOLD,0.0,0.0,0.0,0.0,200705722.0,0.0,30105.8583,1033598218.0282576,1033568112.1699576,1016416526.6084253,-0.0164427738550286,0.95,0.05,0.0,0.0,0.0,0.0,51724986.16995764,True
A3_LLM_POLICY,2024-02-23,2024-02-26,315270,ETF_009,TIGER 200 커뮤니케이션서비스,17701.0,17629.0,5502.0,0.0,-5502.0,SELL,97390902.0,0.0,-97390902.0,97390902.0,200705722.0,14608.635299999996,30105.8583,1033598218.0282576,1033568112.1699576,1016416526.6084253,-0.0164427738550286,0.95,0.05,0.0,0.0,0.0942251063336657,0.0,51724986.16995764,True
A3_LLM_POLICY,2024-02-26,2024-02-27,117460,ETF_001,KODEX 에너지화학,14994.0,14847.0,9742.0,0.0,-9742.0,SELL,146071548.0,0.0,-146071548.0,146071548.0,578793271.0,21910.7322,86818.99064999999,1017117622.6084253,1017030803.6177752,1007856818.754148,-0.0084214567848863,0.95,0.05,0.0,0.0,0.1436132309116773,0.0,50890080.61777508,True
A3_LLM_POLICY,2024-02-26,2024-02-27,117680,ETF_002,KODEX 철강,8840.0,8705.0,16580.0,10929.0,-5651.0,SELL,146567200.0,96612360.0,-49954840.0,49954840.0,578793271.0,7493.226,86818.99064999999,1017117622.6084253,1017030803.6177752,1007856818.754148,-0.0084214567848863,0.95,0.05,0.1,0.095,0.1441005413160815,0.0949945268681451,50890080.61777508,True
A3_LLM_POLICY,2024-02-26,2024-02-27,139260,ETF_003,TIGER 200 IT,31788.0,31141.0,1535.0,7598.0,6063.0,BUY,48794580.0,241525224.0,192730644.0,192730644.0,578793271.0,28909.5966,86818.99064999999,1017117622.6084253,1017030803.6177752,1007856818.754148,-0.0084214567848863,0.95,0.05,0.25,0.2375,0.047973389621217,0.2374807362184587,50890080.61777508,True
A3_LLM_POLICY,2024-02-26,2024-02-27,139270,ETF_004,TIGER 200 금융,6909.0,6914.0,48843.0,48945.0,102.0,BUY,337456287.0,338161005.0,704718.0,704718.0,578793271.0,105.7077,86818.99064999999,1017117622.6084253,1017030803.6177752,1007856818.754148,-0.0084214567848863,0.95,0.05,0.35,0.3324999999999999,0.3317770526230628,0.3324982918876163,50890080.61777508,True
A3_LLM_POLICY,2024-02-26,2024-02-27,227550,ETF_005,TIGER 200 산업재,6356.0,6266.0,0.0,0.0,0.0,HOLD,0.0,0.0,0.0,0.0,578793271.0,0.0,86818.99064999999,1017117622.6084253,1017030803.6177752,1007856818.754148,-0.0084214567848863,0.95,0.05,0.0,0.0,0.0,0.0,50890080.61777508,True
A3_LLM_POLICY,2024-02-26,2024-02-27,266390,ETF_006,KODEX 경기소비재,8128.0,8066.0,29271.0,17830.0,-11441.0,SELL,237914688.0,144922240.0,-92992448.0,92992448.0,578793271.0,13948.8672,86818.99064999999,1017117622.6084253,1017030803.6177752,1007856818.754148,-0.0084214567848863,0.95,0.05,0.15,0.1425,0.2339106930325929,0.1424954283434519,50890080.61777508,True
A3_LLM_POLICY,2024-02-26,2024-02-27,266410,ETF_007,KODEX 필수소비재,5931.0,5836.0,8191.0,16290.0,8099.0,BUY,48580821.0,96615990.0,48035169.0,48035169.0,578793271.0,7205.275349999999,86818.99064999999,1017117622.6084253,1017030803.6177752,1007856818.754148,-0.0084214567848863,0.95,0.05,0.1,0.095,0.0477632280870458,0.0949980960815722,50890080.61777508,True
A3_LLM_POLICY,2024-02-26,2024-02-27,266420,ETF_008,KODEX 헬스케어,14432.0,14318.0,0.0,3347.0,3347.0,BUY,0.0,48303904.0,48303904.0,48303904.0,578793271.0,7245.585599999999,86818.99064999999,1017117622.6084253,1017030803.6177752,1007856818.754148,-0.0084214567848863,0.95,0.05,0.05,0.0475,0.0,0.0474950255470863,50890080.61777508,True
A3_LLM_POLICY,2024-02-27,2024-02-28,117460,ETF_001,KODEX 에너지화학,14911.0,15019.0,0.0,9652.0,9652.0,BUY,0.0,143920972.0,143920972.0,143920972.0,390008270.0,21588.145799999995,58501.24049999999,1010083441.754148,1010024940.513648,1017124656.8689902,0.0091955900306339,0.95,0.05,0.15,0.1425,0.0,0.1424924932317107,50542202.51364803,True
A3_LLM_POLICY,2024-02-27,2024-02-28,117680,ETF_002,KODEX 철강,8667.0,8780.0,10929.0,5535.0,-5394.0,SELL,94721643.0,47971845.0,-46749798.0,46749798.0,390008270.0,7012.469699999999,58501.24049999999,1010083441.754148,1010024940.513648,1017124656.8689902,0.0091955900306339,0.95,0.05,0.05,0.0475,0.0937760575854039,0.0474957033987734,50542202.51364803,True
A3_LLM_POLICY,2024-02-27,2024-02-28,139260,ETF_003,TIGER 200 IT,31141.0,31399.0,7598.0,7703.0,105.0,BUY,236609318.0,239879123.0,3269805.0,3269805.0,390008270.0,490.47075,58501.24049999999,1010083441.754148,1010024940.513648,1017124656.8689902,0.0091955900306339,0.95,0.05,0.25,0.2375,0.2342472990044224,0.2374982174974902,50542202.51364803,True
A3_LLM_POLICY,2024-02-27,2024-02-28,139270,ETF_004,TIGER 200 금융,6977.0,7027.0,48945.0,48134.0,-811.0,SELL,341489265.0,335830918.0,-5658347.0,5658347.0,390008270.0,848.7520499999998,58501.24049999999,1010083441.754148,1010024940.513648,1017124656.8689902,0.0091955900306339,0.95,0.05,0.35,0.3324999999999999,0.3380802524660311,0.3324976488493573,50542202.51364803,True
A3_LLM_POLICY,2024-02-27,2024-02-28,227550,ETF_005,TIGER 200 산업재,6337.0,6361.0,0.0,0.0,0.0,HOLD,0.0,0.0,0.0,0.0,390008270.0,0.0,58501.24049999999,1010083441.754148,1010024940.513648,1017124656.8689902,0.0091955900306339,0.95,0.05,0.0,0.0,0.0,0.0,50542202.51364803,True
A3_LLM_POLICY,2024-02-27,2024-02-28,266390,ETF_006,KODEX 경기소비재,8056.0,8099.0,17830.0,11910.0,-5920.0,SELL,143638480.0,95946960.0,-47691520.0,47691520.0,390008270.0,7153.727999999999,58501.24049999999,1010083441.754148,1010024940.513648,1017124656.8689902,0.0091955900306339,0.95,0.05,0.1,0.095,0.1422045685161932,0.0949946443413626,50542202.51364803,True
A3_LLM_POLICY,2024-02-27,2024-02-28,266410,ETF_007,KODEX 필수소비재,5826.0,5884.0,16290.0,8234.0,-8056.0,SELL,94905540.0,47971284.0,-46934256.0,46934256.0,390008270.0,7040.1384,58501.24049999999,1010083441.754148,1010024940.513648,1017124656.8689902,0.0091955900306339,0.95,0.05,0.05,0.0475,0.093958118781933,0.0474951479669444,50542202.51364803,True
A3_LLM_POLICY,2024-02-27,2024-02-28,266420,ETF_008,KODEX 헬스케어,14288.0,14388.0,3347.0,0.0,-3347.0,SELL,47821936.0,0.0,-47821936.0,47821936.0,390008270.0,7173.290399999999,58501.24049999999,1010083441.754148,1010024940.513648,1017124656.8689902,0.0091955900306339,0.95,0.05,0.0,0.0,0.0473445400876492,0.0,50542202.51364803,True
A3_LLM_POLICY,2024-02-27,2024-02-28,315270,ETF_009,TIGER 200 커뮤니케이션서비스,17466.0,17481.0,0.0,2746.0,2746.0,BUY,0.0,47961636.0,47961636.0,47961636.0,390008270.0,7194.245399999999,58501.24049999999,1010083441.754148,1010024940.513648,1017124656.8689902,0.0091955900306339,0.95,0.05,0.05,0.0475,0.0,0.0474855957275759,50542202.51364803,True
A3_LLM_POLICY,2024-02-28,2024-02-29,117460,ETF_001,KODEX 에너지화학,14891.0,14950.0,9652.0,3232.0,-6420.0,SELL,143727932.0,48127712.0,-95600220.0,95600220.0,289317095.0,14340.033,43397.56425,1013335539.8689902,1013292142.3047402,1017362995.0200052,0.0002343254087939,0.95,0.05,0.05,0.0475,0.1418364661507697,0.0474963833140294,50705855.30474019,True
A3_LLM_POLICY,2024-02-28,2024-02-29,117680,ETF_002,KODEX 철강,8747.0,8728.0,5535.0,16507.0,10972.0,BUY,48414645.0,144386729.0,95972084.0,95972084.0,289317095.0,14395.812599999996,43397.56425,1013335539.8689902,1013292142.3047402,1017362995.0200052,0.0002343254087939,0.95,0.05,0.15,0.1425,0.0477775061617392,0.1424926958099086,50705855.30474019,True
A3_LLM_POLICY,2024-02-28,2024-02-29,139260,ETF_003,TIGER 200 IT,31155.0,31369.0,7703.0,7724.0,21.0,BUY,239986965.0,240641220.0,654255.0,654255.0,289317095.0,98.13825,43397.56425,1013335539.8689902,1013292142.3047402,1017362995.0200052,0.0002343254087939,0.95,0.05,0.25,0.2375,0.2368287260812217,0.2374845416768552,50705855.30474019,True
A3_LLM_POLICY,2024-02-28,2024-02-29,139270,ETF_004,TIGER 200 금융,7027.0,7081.0,48134.0,47946.0,-188.0,SELL,338237618.0,336916542.0,-1321076.0,1321076.0,289317095.0,198.1614,43397.56425,1013335539.8689902,1013292142.3047402,1017362995.0200052,0.0002343254087939,0.95,0.05,0.35,0.3324999999999999,0.3337863962056727,0.3324969452873491,50705855.30474019,True
A3_LLM_POLICY,2024-02-28,2024-02-29,266390,ETF_006,KODEX 경기소비재,8099.0,8133.0,11910.0,11885.0,-25.0,SELL,96459090.0,96256615.0,-202475.0,202475.0,289317095.0,30.37125,43397.56425,1013335539.8689902,1013292142.3047402,1017362995.0200052,0.0002343254087939,0.95,0.05,0.1,0.095,0.0951896841716128,0.0949939420047841,50705855.30474019,True
