PJH-02/HYFE38_ML/testing/backtest_state/out_2024_kofr_decision_regime_a0_a6_k10/A2a_k10/trade_history.csv
strategy,decision_date,execution_date,ticker,ETF_id,name,open,close,prev_qty,target_qty,delta_qty,side,prev_value_open,target_value_open,delta_value_open,trade_turnover_value,day_turnover_value,commission_allocated,day_commission,nav_open_pre,nav_open_post,nav_close,daily_return,stock_ratio,cash_weight,target_sleeve_weight,target_portfolio_weight,prev_portfolio_weight_open,actual_portfolio_weight_open,cash_after_rebalance,rebalanced
A2a_LLM_OPAQUE,2024-01-05,2024-01-08,117460,ETF_001,KODEX 에너지화학,15298.0,15175.0,0.0,0.0,0.0,HOLD,0.0,0.0,0.0,0.0,949839216.0,0.0,142475.88239999997,1000000000.0,999857524.1176,998072116.4680238,-0.0019278835319762,0.95,0.05,0.0,0.0,0.0,0.0,50018308.11759997,True
A2a_LLM_OPAQUE,2024-01-05,2024-01-08,117680,ETF_002,KODEX 철강,8836.0,8724.0,0.0,0.0,0.0,HOLD,0.0,0.0,0.0,0.0,949839216.0,0.0,142475.88239999997,1000000000.0,999857524.1176,998072116.4680238,-0.0019278835319762,0.95,0.05,0.0,0.0,0.0,0.0,50018308.11759997,True
A2a_LLM_OPAQUE,2024-01-05,2024-01-08,139260,ETF_003,TIGER 200 IT,31194.0,31155.0,0.0,7612.0,7612.0,BUY,0.0,237448728.0,237448728.0,237448728.0,949839216.0,35617.3092,142475.88239999997,1000000000.0,999857524.1176,998072116.4680238,-0.0019278835319762,0.95,0.05,0.25,0.2375,0.0,0.2374825635377946,50018308.11759997,True
A2a_LLM_OPAQUE,2024-01-05,2024-01-08,139270,ETF_004,TIGER 200 금융,5704.0,5695.0,0.0,41631.0,41631.0,BUY,0.0,237463224.0,237463224.0,237463224.0,949839216.0,35619.48359999999,142475.88239999997,1000000000.0,999857524.1176,998072116.4680238,-0.0019278835319762,0.95,0.05,0.25,0.2375,0.0,0.2374970616034193,50018308.11759997,True
A2a_LLM_OPAQUE,2024-01-05,2024-01-08,266390,ETF_006,KODEX 경기소비재,7956.0,7985.0,0.0,29847.0,29847.0,BUY,0.0,237462732.0,237462732.0,237462732.0,949839216.0,35619.409799999994,142475.88239999997,1000000000.0,999857524.1176,998072116.4680238,-0.0019278835319762,0.95,0.05,0.25,0.2375,0.0,0.2374965695333112,50018308.11759997,True
A2a_LLM_OPAQUE,2024-01-05,2024-01-08,266410,ETF_007,KODEX 필수소비재,6217.0,6165.0,0.0,38196.0,38196.0,BUY,0.0,237464532.0,237464532.0,237464532.0,949839216.0,35619.67979999999,142475.88239999997,1000000000.0,999857524.1176,998072116.4680238,-0.0019278835319762,0.95,0.05,0.25,0.2375,0.0,0.2374983697898043,50018308.11759997,True
A2a_LLM_OPAQUE,2024-01-05,2024-01-08,266420,ETF_008,KODEX 헬스케어,13995.0,13701.0,0.0,0.0,0.0,HOLD,0.0,0.0,0.0,0.0,949839216.0,0.0,142475.88239999997,1000000000.0,999857524.1176,998072116.4680238,-0.0019278835319762,0.95,0.05,0.0,0.0,0.0,0.0,50018308.11759997,True
A2a_LLM_OPAQUE,2024-01-05,2024-01-08,315270,ETF_009,TIGER 200 커뮤니케이션서비스,17691.0,17643.0,0.0,0.0,0.0,HOLD,0.0,0.0,0.0,0.0,949839216.0,0.0,142475.88239999997,1000000000.0,999857524.1176,998072116.4680238,-0.0019278835319762,0.95,0.05,0.0,0.0,0.0,0.0,50018308.11759997,True
A2a_LLM_OPAQUE,2024-01-08,2024-01-09,117460,ETF_001,KODEX 에너지화학,15244.0,15170.0,0.0,0.0,0.0,HOLD,0.0,0.0,0.0,0.0,2737846.0,0.0,410.6769,1007082318.4680238,1007081907.7911236,1000259655.7402143,0.0021917647393376,0.95,0.05,0.0,0.0,0.0,0.0,50378207.79112375,True
A2a_LLM_OPAQUE,2024-01-08,2024-01-09,117680,ETF_002,KODEX 철강,8780.0,8672.0,0.0,0.0,0.0,HOLD,0.0,0.0,0.0,0.0,2737846.0,0.0,410.6769,1007082318.4680238,1007081907.7911236,1000259655.7402143,0.0021917647393376,0.95,0.05,0.0,0.0,0.0,0.0,50378207.79112375,True
A2a_LLM_OPAQUE,2024-01-08,2024-01-09,139260,ETF_003,TIGER 200 IT,31511.0,31004.0,7612.0,7590.0,-22.0,SELL,239861732.0,239168490.0,-693242.0,693242.0,2737846.0,103.9863,410.6769,1007082318.4680238,1007081907.7911236,1000259655.7402143,0.0021917647393376,0.95,0.05,0.25,0.2375,0.2381749014965115,0.2374866315735714,50378207.79112375,True
A2a_LLM_OPAQUE,2024-01-08,2024-01-09,139270,ETF_004,TIGER 200 금융,5744.0,5731.0,41631.0,41640.0,9.0,BUY,239128464.0,239180160.0,51696.0,51696.0,2737846.0,7.754399999999999,410.6769,1007082318.4680238,1007081907.7911236,1000259655.7402143,0.0021917647393376,0.95,0.05,0.25,0.2375,0.237446790212505,0.237498219508882,50378207.79112375,True
A2a_LLM_OPAQUE,2024-01-08,2024-01-09,266390,ETF_006,KODEX 경기소비재,8042.0,8009.0,29847.0,29741.0,-106.0,SELL,240029574.0,239177122.0,-852452.0,852452.0,2737846.0,127.8678,410.6769,1007082318.4680238,1007081907.7911236,1000259655.7402143,0.0021917647393376,0.95,0.05,0.25,0.2375,0.238341563145636,0.2374952028724232,50378207.79112375,True
A2a_LLM_OPAQUE,2024-01-08,2024-01-09,266410,ETF_007,KODEX 필수소비재,6232.0,6194.0,38196.0,38379.0,183.0,BUY,238037472.0,239177928.0,1140456.0,1140456.0,2737846.0,171.0684,410.6769,1007082318.4680238,1007081907.7911236,1000259655.7402143,0.0021917647393376,0.95,0.05,0.25,0.2375,0.2363634706268135,0.2374960032045449,50378207.79112375,True
A2a_LLM_OPAQUE,2024-01-08,2024-01-09,266420,ETF_008,KODEX 헬스케어,13885.0,13890.0,0.0,0.0,0.0,HOLD,0.0,0.0,0.0,0.0,2737846.0,0.0,410.6769,1007082318.4680238,1007081907.7911236,1000259655.7402143,0.0021917647393376,0.95,0.05,0.0,0.0,0.0,0.0,50378207.79112375,True
A2a_LLM_OPAQUE,2024-01-08,2024-01-09,315270,ETF_009,TIGER 200 커뮤니케이션서비스,17682.0,17825.0,0.0,0.0,0.0,HOLD,0.0,0.0,0.0,0.0,2737846.0,0.0,410.6769,1007082318.4680238,1007081907.7911236,1000259655.7402143,0.0021917647393376,0.95,0.05,0.0,0.0,0.0,0.0,50378207.79112375,True
A2a_LLM_OPAQUE,2024-01-09,2024-01-10,117460,ETF_001,KODEX 에너지화학,15264.0,15038.0,0.0,0.0,0.0,HOLD,0.0,0.0,0.0,0.0,482909676.0,0.0,72436.45139999999,1005667571.7402143,1005595135.2888144,994795308.9602948,-0.0054629282992283,0.95,0.05,0.0,0.0,0.0,0.0,50304796.288814425,True
A2a_LLM_OPAQUE,2024-01-09,2024-01-10,117680,ETF_002,KODEX 철강,8658.0,8579.0,0.0,0.0,0.0,HOLD,0.0,0.0,0.0,0.0,482909676.0,0.0,72436.45139999999,1005667571.7402143,1005595135.2888144,994795308.9602948,-0.0054629282992283,0.95,0.05,0.0,0.0,0.0,0.0,50304796.288814425,True
A2a_LLM_OPAQUE,2024-01-09,2024-01-10,139260,ETF_003,TIGER 200 IT,31185.0,30425.0,7590.0,7658.0,68.0,BUY,236694150.0,238814730.0,2120580.0,2120580.0,482909676.0,318.087,72436.45139999999,1005667571.7402143,1005595135.2888144,994795308.9602948,-0.0054629282992283,0.95,0.05,0.25,0.2375,0.2353602290172514,0.2374859639027695,50304796.288814425,True
A2a_LLM_OPAQUE,2024-01-09,2024-01-10,139270,ETF_004,TIGER 200 금융,5790.0,5695.0,41640.0,0.0,-41640.0,SELL,241095600.0,0.0,-241095600.0,241095600.0,482909676.0,36164.34,72436.45139999999,1005667571.7402143,1005595135.2888144,994795308.9602948,-0.0054629282992283,0.95,0.05,0.0,0.0,0.2397368740674479,0.0,50304796.288814425,True
A2a_LLM_OPAQUE,2024-01-09,2024-01-10,266390,ETF_006,KODEX 경기소비재,8013.0,7942.0,29741.0,29805.0,64.0,BUY,238314633.0,238827465.0,512832.0,512832.0,482909676.0,76.92479999999998,72436.45139999999,1005667571.7402143,1005595135.2888144,994795308.9602948,-0.0054629282992283,0.95,0.05,0.25,0.2375,0.2369715795723815,0.2374986280451794,50304796.288814425,True
A2a_LLM_OPAQUE,2024-01-09,2024-01-10,266410,ETF_007,KODEX 필수소비재,6232.0,6175.0,38379.0,38322.0,-57.0,SELL,239177928.0,238822704.0,-355224.0,355224.0,482909676.0,53.28359999999999,72436.45139999999,1005667571.7402143,1005595135.2888144,994795308.9602948,-0.0054629282992283,0.95,0.05,0.25,0.2375,0.2378300093599764,0.2374938935354021,50304796.288814425,True
A2a_LLM_OPAQUE,2024-01-09,2024-01-10,266420,ETF_008,KODEX 헬스케어,13920.0,13880.0,0.0,17157.0,17157.0,BUY,0.0,238825440.0,238825440.0,238825440.0,482909676.0,35823.81599999999,72436.45139999999,1005667571.7402143,1005595135.2888144,994795308.9602948,-0.0054629282992283,0.95,0.05,0.25,0.2375,0.0,0.2374966143122873,50304796.288814425,True
A2a_LLM_OPAQUE,2024-01-09,2024-01-10,315270,ETF_009,TIGER 200 커뮤니케이션서비스,17854.0,17844.0,0.0,0.0,0.0,HOLD,0.0,0.0,0.0,0.0,482909676.0,0.0,72436.45139999999,1005667571.7402143,1005595135.2888144,994795308.9602948,-0.0054629282992283,0.95,0.05,0.0,0.0,0.0,0.0,50304796.288814425,True
A2a_LLM_OPAQUE,2024-01-10,2024-01-11,117460,ETF_001,KODEX 에너지화학,14994.0,14974.0,0.0,0.0,0.0,HOLD,0.0,0.0,0.0,0.0,566861674.0,0.0,85029.2511,995371333.9602948,995286304.7091948,995836034.995303,0.0010461710320044,0.95,0.05,0.0,0.0,0.0,0.0,49793621.7091949,True
A2a_LLM_OPAQUE,2024-01-10,2024-01-11,117680,ETF_002,KODEX 철강,8579.0,8560.0,0.0,0.0,0.0,HOLD,0.0,0.0,0.0,0.0,566861674.0,0.0,85029.2511,995371333.9602948,995286304.7091948,995836034.995303,0.0010461710320044,0.95,0.05,0.0,0.0,0.0,0.0,49793621.7091949,True
A2a_LLM_OPAQUE,2024-01-10,2024-01-11,139260,ETF_003,TIGER 200 IT,30469.0,30727.0,7658.0,6206.0,-1452.0,SELL,233331602.0,189090614.0,-44240988.0,44240988.0,566861674.0,6636.1482,85029.2511,995371333.9602948,995286304.7091948,995836034.995303,0.0010461710320044,0.95,0.05,0.2,0.19,0.2344166383329937,0.1899861508244594,49793621.7091949,True
A2a_LLM_OPAQUE,2024-01-10,2024-01-11,139270,ETF_004,TIGER 200 금융,5771.0,5785.0,0.0,24576.0,24576.0,BUY,0.0,141828096.0,141828096.0,141828096.0,566861674.0,21274.2144,85029.2511,995371333.9602948,995286304.7091948,995836034.995303,0.0010461710320044,0.95,0.05,0.15,0.1425,0.0,0.1424997966202696,49793621.7091949,True
A2a_LLM_OPAQUE,2024-01-10,2024-01-11,266390,ETF_006,KODEX 경기소비재,7942.0,7932.0,29805.0,17858.0,-11947.0,SELL,236711310.0,141828236.0,-94883074.0,94883074.0,566861674.0,14232.4611,85029.2511,995371333.9602948,995286304.7091948,995836034.995303,0.0010461710320044,0.95,0.05,0.15,0.1425,0.2378120626180725,0.1424999372833123,49793621.7091949,True
A2a_LLM_OPAQUE,2024-01-10,2024-01-11,266410,ETF_007,KODEX 필수소비재,6179.0,6127.0,38322.0,22953.0,-15369.0,SELL,236791638.0,141826587.0,-94965051.0,94965051.0,566861674.0,14244.75765,85029.2511,995371333.9602948,995286304.7091948,995836034.995303,0.0010461710320044,0.95,0.05,0.15,0.1425,0.2378927641585523,0.1424982804736163,49793621.7091949,True
A2a_LLM_OPAQUE,2024-01-10,2024-01-11,266420,ETF_008,KODEX 헬스케어,13885.0,13841.0,17157.0,13619.0,-3538.0,SELL,238224945.0,189099815.0,-49125130.0,49125130.0,566861674.0,7368.769499999999,85029.2511,995371333.9602948,995286304.7091948,995836034.995303,0.0010461710320044,0.95,0.05,0.2,0.19,0.239332736308742,0.1899953954005743,49793621.7091949,True
A2a_LLM_OPAQUE,2024-01-10,2024-01-11,315270,ETF_009,TIGER 200 커뮤니케이션서비스,17945.0,18017.0,0.0,7903.0,7903.0,BUY,0.0,141819335.0,141819335.0,141819335.0,566861674.0,21272.90025,85029.2511,995371333.9602948,995286304.7091948,995836034.995303,0.0010461710320044,0.95,0.05,0.15,0.1425,0.0,0.1424909941280033,49793621.7091949,True
A2a_LLM_OPAQUE,2024-01-11,2024-01-12,117460,ETF_001,KODEX 에너지화학,15028.0,14783.0,0.0,0.0,0.0,HOLD,0.0,0.0,0.0,0.0,941910084.0,0.0,141286.5126,992858090.995303,992716804.4827032,982626210.1639652,-0.0132650600772848,0.95,0.05,0.0,0.0,0.0,0.0,49668297.48270309,True
A2a_LLM_OPAQUE,2024-01-11,2024-01-12,117680,ETF_002,KODEX 철강,8560.0,8443.0,0.0,27543.0,27543.0,BUY,0.0,235768080.0,235768080.0,235768080.0,941910084.0,35365.212,141286.5126,992858090.995303,992716804.4827032,982626210.1639652,-0.0132650600772848,0.95,0.05,0.25,0.2375,0.0,0.2374978230804271,49668297.48270309,True
A2a_LLM_OPAQUE,2024-01-11,2024-01-12,139260,ETF_003,TIGER 200 IT,30557.0,30090.0,6206.0,7715.0,1509.0,BUY,189636742.0,235747255.0,46110513.0,46110513.0,941910084.0,6916.576949999999,141286.5126,992858090.995303,992716804.4827032,982626210.1639652,-0.0132650600772848,0.95,0.05,0.25,0.2375,0.1910008527098734,0.2374768452951152,49668297.48270309,True
A2a_LLM_OPAQUE,2024-01-11,2024-01-12,139270,ETF_004,TIGER 200 금융,5830.0,5762.0,24576.0,0.0,-24576.0,SELL,143278080.0,0.0,-143278080.0,143278080.0,941910084.0,21491.712,141286.5126,992858090.995303,992716804.4827032,982626210.1639652,-0.0132650600772848,0.95,0.05,0.0,0.0,0.1443087197450031,0.0,49668297.48270309,True
A2a_LLM_OPAQUE,2024-01-11,2024-01-12,266390,ETF_006,KODEX 경기소비재,7942.0,7894.0,17858.0,29686.0,11828.0,BUY,141828236.0,235766212.0,93937976.0,93937976.0,941910084.0,14090.6964,141286.5126,992858090.995303,992716804.4827032,982626210.1639652,-0.0132650600772848,0.95,0.05,0.25,0.2375,0.1428484466071304,0.237495941375603,49668297.48270309,True
A2a_LLM_OPAQUE,2024-01-11,2024-01-12,266410,ETF_007,KODEX 필수소비재,6127.0,6079.0,22953.0,38480.0,15527.0,BUY,140633031.0,235766960.0,95133929.0,95133929.0,941910084.0,14270.089349999998,141286.5126,992858090.995303,992716804.4827032,982626210.1639652,-0.0132650600772848,0.95,0.05,0.25,0.2375,0.1416446441595904,0.2374966948634019,49668297.48270309,True
A2a_LLM_OPAQUE,2024-01-11,2024-01-12,266420,ETF_008,KODEX 헬스케어,13667.0,13562.0,13619.0,0.0,-13619.0,SELL,186130873.0,0.0,-186130873.0,186130873.0,941910084.0,27919.630949999995,141286.5126,992858090.995303,992716804.4827032,982626210.1639652,-0.0132650600772848,0.95,0.05,0.0,0.0,0.1874697650027817,0.0,49668297.48270309,True
A2a_LLM_OPAQUE,2024-01-11,2024-01-12,315270,ETF_009,TIGER 200 커뮤니케이션서비스,17911.0,17816.0,7903.0,0.0,-7903.0,SELL,141550633.0,0.0,-141550633.0,141550633.0,941910084.0,21232.594949999995,141286.5126,992858090.995303,992716804.4827032,982626210.1639652,-0.0132650600772848,0.95,0.05,0.0,0.0,0.142568846730252,0.0,49668297.48270309,True
A2a_LLM_OPAQUE,2024-01-12,2024-01-15,117460,ETF_001,KODEX 에너지화학,14876.0,14636.0,0.0,0.0,0.0,HOLD,0.0,0.0,0.0,0.0,1214486533.0,0.0,182172.97995,983818738.1639652,983636565.1840152,979293198.5629498,-0.0033919424970957,0.95,0.05,0.0,0.0,0.0,0.0,49220489.18401516,True
A2a_LLM_OPAQUE,2024-01-12,2024-01-15,117680,ETF_002,KODEX 철강,8424.0,8373.0,27543.0,5546.0,-21997.0,SELL,232022232.0,46719504.0,-185302728.0,185302728.0,1214486533.0,27795.4092,182172.97995,983818738.1639652,983636565.1840152,979293198.5629498,-0.0033919424970957,0.95,0.05,0.05,0.0475,0.2358383948175326,0.0474967133732568,49220489.18401516,True
A2a_LLM_OPAQUE,2024-01-12,2024-01-15,139260,ETF_003,TIGER 200 IT,30187.0,30177.0,7715.0,4643.0,-3072.0,SELL,232892705.0,140158241.0,-92734464.0,92734464.0,1214486533.0,13910.169599999996,182172.97995,983818738.1639652,983636565.1840152,979293198.5629498,-0.0033919424970957,0.95,0.05,0.15,0.1425,0.2367231848364994,0.1424898646115089,49220489.18401516,True
A2a_LLM_OPAQUE,2024-01-12,2024-01-15,139270,ETF_004,TIGER 200 금융,5848.0,5871.0,0.0,15979.0,15979.0,BUY,0.0,93445192.0,93445192.0,93445192.0,1214486533.0,14016.778799999998,182172.97995,983818738.1639652,983636565.1840152,979293198.5629498,-0.0033919424970957,0.95,0.05,0.1,0.095,0.0,0.0949997136213807,49220489.18401516,True
A2a_LLM_OPAQUE,2024-01-12,2024-01-15,227550,ETF_005,TIGER 200 산업재,6209.0,6209.0,0.0,30100.0,30100.0,BUY,0.0,186890900.0,186890900.0,186890900.0,1214486533.0,28033.634999999995,182172.97995,983818738.1639652,983636565.1840152,979293198.5629498,-0.0033919424970957,0.95,0.05,0.2,0.19,0.0,0.1899999518267574,49220489.18401516,True
A2a_LLM_OPAQUE,2024-01-12,2024-01-15,266390,ETF_006,KODEX 경기소비재,7889.0,7870.0,29686.0,5922.0,-23764.0,SELL,234192854.0,46718658.0,-187474196.0,187474196.0,1214486533.0,28121.1294,182172.97995,983818738.1639652,983636565.1840152,979293198.5629498,-0.0033919424970957,0.95,0.05,0.05,0.0475,0.2380447179091734,0.0474958532994958,49220489.18401516,True
A2a_LLM_OPAQUE,2024-01-12,2024-01-15,266410,ETF_007,KODEX 필수소비재,6108.0,6051.0,38480.0,15298.0,-23182.0,SELL,235035840.0,93440184.0,-141595656.0,141595656.0,1214486533.0,21239.3484,182172.97995,983818738.1639652,983636565.1840152,979293198.5629498,-0.0033919424970957,0.95,0.05,0.1,0.095,0.2389015688384139,0.0949946223100394,49220489.18401516,True
A2a_LLM_OPAQUE,2024-01-12,2024-01-15,266420,ETF_008,KODEX 헬스케어,13547.0,13319.0,0.0,13795.0,13795.0,BUY,0.0,186880865.0,186880865.0,186880865.0,1214486533.0,28032.12975,182172.97995,983818738.1639652,983636565.1840152,979293198.5629498,-0.0033919424970957,0.95,0.05,0.2,0.19,0.0,0.1899897498879975,49220489.18401516,True
A2a_LLM_OPAQUE,2024-01-12,2024-01-15,315270,ETF_009,TIGER 200 커뮤니케이션서비스,17887.0,17854.0,0.0,7836.0,7836.0,BUY,0.0,140162532.0,140162532.0,140162532.0,1214486533.0,21024.3798,182172.97995,983818738.1639652,983636565.1840152,979293198.5629498,-0.0033919424970957,0.95,0.05,0.15,0.1425,0.0,0.1424942269950882,49220489.18401516,True
A2a_LLM_OPAQUE,2024-01-15,2024-01-16,117460,ETF_001,KODEX 에너지화학,14720.0,14519.0,0.0,3157.0,3157.0,BUY,0.0,46471040.0,46471040.0,46471040.0,745415844.0,6970.655999999999,111812.3766,978598882.5629498,978487070.1863496,968509969.761669,-0.0110112362846024,0.95,0.05,0.05,0.0475,0.0,0.0474927481577755,48972973.18634975,True
A2a_LLM_OPAQUE,2024-01-15,2024-01-16,117680,ETF_002,KODEX 철강,8368.0,8340.0,5546.0,16662.0,11116.0,BUY,46408928.0,139427616.0,93018688.0,93018688.0,745415844.0,13952.8032,111812.3766,978598882.5629498,978487070.1863496,968509969.761669,-0.0110112362846024,0.95,0.05,0.15,0.1425,0.0474238514134157,0.1424930591810952,48972973.18634975,True
A2a_LLM_OPAQUE,2024-01-15,2024-01-16,139260,ETF_003,TIGER 200 IT,30075.0,29686.0,4643.0,6181.0,1538.0,BUY,139638225.0,185893575.0,46255350.0,46255350.0,745415844.0,6938.3025,111812.3766,978598882.5629498,978487070.1863496,968509969.761669,-0.0110112362846024,0.95,0.05,0.2,0.19,0.1426919931016961,0.1899806146284561,48972973.18634975,True
A2a_LLM_OPAQUE,2024-01-15,2024-01-16,139270,ETF_004,TIGER 200 금융,5907.0,5794.0,15979.0,0.0,-15979.0,SELL,94387953.0,0.0,-94387953.0,94387953.0,745415844.0,14158.19295,111812.3766,978598882.5629498,978487070.1863496,968509969.761669,-0.0110112362846024,0.95,0.05,0.0,0.0,0.0964521365002972,0.0,48972973.18634975,True
A2a_LLM_OPAQUE,2024-01-15,2024-01-16,227550,ETF_005,TIGER 200 산업재,6185.0,6175.0,30100.0,0.0,-30100.0,SELL,186168500.0,0.0,-186168500.0,186168500.0,745415844.0,27925.275,111812.3766,978598882.5629498,978487070.1863496,968509969.761669,-0.0110112362846024,0.95,0.05,0.0,0.0,0.1902398452698258,0.0,48972973.18634975,True
A2a_LLM_OPAQUE,2024-01-15,2024-01-16,266390,ETF_006,KODEX 경기소비재,7832.0,7775.0,5922.0,17803.0,11881.0,BUY,46381104.0,139433096.0,93051992.0,93051992.0,745415844.0,13957.7988,111812.3766,978598882.5629498,978487070.1863496,968509969.761669,-0.0110112362846024,0.95,0.05,0.15,0.1425,0.0473954189264225,0.1424986596638884,48972973.18634975,True
A2a_LLM_OPAQUE,2024-01-15,2024-01-16,266410,ETF_007,KODEX 필수소비재,6022.0,5922.0,15298.0,30872.0,15574.0,BUY,92124556.0,185911184.0,93786628.0,93786628.0,745415844.0,14067.9942,111812.3766,978598882.5629498,978487070.1863496,968509969.761669,-0.0110112362846024,0.95,0.05,0.2,0.19,0.0941392409510277,0.189998610778366,48972973.18634975,True
A2a_LLM_OPAQUE,2024-01-15,2024-01-16,266420,ETF_008,KODEX 헬스케어,13413.0,13309.0,13795.0,6930.0,-6865.0,SELL,185032335.0,92952090.0,-92080245.0,92080245.0,745415844.0,13812.036749999996,111812.3766,978598882.5629498,978487070.1863496,968509969.761669,-0.0110112362846024,0.95,0.05,0.1,0.095,0.1890788333166705,0.094995726394522,48972973.18634975,True
A2a_LLM_OPAQUE,2024-01-15,2024-01-16,315270,ETF_009,TIGER 200 커뮤니케이션서비스,17768.0,17557.0,7836.0,7847.0,11.0,BUY,139230048.0,139425496.0,195448.0,195448.0,745415844.0,29.3172,111812.3766,978598882.5629498,978487070.1863496,968509969.761669,-0.0110112362846024,0.95,0.05,0.15,0.1425,0.142274889621125,0.1424908925709635,48972973.18634975,True
A2a_LLM_OPAQUE,2024-01-16,2024-01-17,117460,ETF_001,KODEX 에너지화학,14519.0,14014.0,3157.0,3166.0,9.0,BUY,45836483.0,45967154.0,130671.0,130671.0,647533845.0,19.60065,97130.07675,967878557.761669,967781427.684919,948873663.9351788,-0.0202747585874849,0.95,0.05,0.05,0.0475,0.0473576799820859,0.0474974541616906,48437883.684919,True
A2a_LLM_OPAQUE,2024-01-16,2024-01-17,117680,ETF_002,KODEX 철강,8363.0,8134.0,16662.0,5496.0,-11166.0,SELL,139344306.0,45963048.0,-93381258.0,93381258.0,647533845.0,14007.1887,97130.07675,967878557.761669,967781427.684919,948873663.9351788,-0.0202747585874849,0.95,0.05,0.05,0.0475,0.1439687912110066,0.0474932114681624,48437883.684919,True
A2a_LLM_OPAQUE,2024-01-16,2024-01-17,139260,ETF_003,TIGER 200 IT,29978.0,29038.0,6181.0,4600.0,-1581.0,SELL,185294018.0,137898800.0,-47395218.0,47395218.0,647533845.0,7109.2827,97130.07675,967878557.761669,967781427.684919,948873663.9351788,-0.0202747585874849,0.95,0.05,0.15,0.1425,0.1914434579773249,0.1424896118639877,48437883.684919,True
A2a_LLM_OPAQUE,2024-01-16,2024-01-17,139270,ETF_004,TIGER 200 금융,5880.0,5717.0,0.0,23453.0,23453.0,BUY,0.0,137903640.0,137903640.0,137903640.0,647533845.0,20685.546,97130.07675,967878557.761669,967781427.684919,948873663.9351788,-0.0202747585874849,0.95,0.05,0.15,0.1425,0.0,0.1424946129932319,48437883.684919,True
A2a_LLM_OPAQUE,2024-01-16,2024-01-17,227550,ETF_005,TIGER 200 산업재,6052.0,6019.0,0.0,30383.0,30383.0,BUY,0.0,183877916.0,183877916.0,183877916.0,647533845.0,27581.687399999995,97130.07675,967878557.761669,967781427.684919,948873663.9351788,-0.0202747585874849,0.95,0.05,0.2,0.19,0.0,0.189999426254608,48437883.684919,True
A2a_LLM_OPAQUE,2024-01-16,2024-01-17,266390,ETF_006,KODEX 경기소비재,7727.0,7622.0,17803.0,11898.0,-5905.0,SELL,137563781.0,91935846.0,-45627935.0,45627935.0,647533845.0,6844.19025,97130.07675,967878557.761669,967781427.684919,948873663.9351788,-0.0202747585874849,0.95,0.05,0.1,0.095,0.1421291750879698,0.0949964975251949,48437883.684919,True
A2a_LLM_OPAQUE,2024-01-16,2024-01-17,266410,ETF_007,KODEX 필수소비재,5927.0,5793.0,30872.0,15511.0,-15361.0,SELL,182978344.0,91933697.0,-91044647.0,91044647.0,647533845.0,13656.69705,97130.07675,967878557.761669,967781427.684919,948873663.9351788,-0.0202747585874849,0.95,0.05,0.1,0.095,0.1890509326119989,0.0949942769824788,48437883.684919,True
A2a_LLM_OPAQUE,2024-01-16,2024-01-17,266420,ETF_008,KODEX 헬스케어,13284.0,12901.0,6930.0,3460.0,-3470.0,SELL,92058120.0,45962640.0,-46095480.0,46095480.0,647533845.0,6914.322,97130.07675,967878557.761669,967781427.684919,948873663.9351788,-0.0202747585874849,0.95,0.05,0.05,0.0475,0.0951132962516444,0.0474927898853666,48437883.684919,True
A2a_LLM_OPAQUE,2024-01-16,2024-01-17,315270,ETF_009,TIGER 200 커뮤니케이션서비스,17309.0,17026.0,7847.0,7967.0,120.0,BUY,135823723.0,137900803.0,2077080.0,2077080.0,647533845.0,311.56199999999995,97130.07675,967878557.761669,967781427.684919,948873663.9351788,-0.0202747585874849,0.95,0.05,0.15,0.1425,0.14033136896235,0.1424916815461935,48437883.684919,True
A2a_LLM_OPAQUE,2024-01-17,2024-01-18,117460,ETF_001,KODEX 에너지화학,14048.0,13980.0,3166.0,3211.0,45.0,BUY,44475968.0,45108128.0,632160.0,632160.0,456280385.0,94.824,68442.05774999999,949976242.9351788,949907800.8774288,949171919.3881956,0.0003143257783968,0.95,0.05,0.05,0.0475,0.0468179792187022,0.0474868486797704,47549349.87742889,True
A2a_LLM_OPAQUE,2024-01-17,2024-01-18,117680,ETF_002,KODEX 철강,8111.0,8106.0,5496.0,0.0,-5496.0,SELL,44578056.0,0.0,-44578056.0,44578056.0,456280385.0,6686.7084,68442.05774999999,949976242.9351788,949907800.8774288,949171919.3881956,0.0003143257783968,0.95,0.05,0.0,0.0,0.0469254429587264,0.0,47549349.87742889,True
A2a_LLM_OPAQUE,2024-01-17,2024-01-18,139260,ETF_003,TIGER 200 IT,29092.0,29262.0,4600.0,4652.0,52.0,BUY,133823200.0,135335984.0,1512784.0,1512784.0,456280385.0,226.9176,68442.05774999999,949976242.9351788,949907800.8774288,949171919.3881956,0.0003143257783968,0.95,0.05,0.15,0.1425,0.1408700491146191,0.1424727577507946,47549349.87742889,True
A2a_LLM_OPAQUE,2024-01-17,2024-01-18,139270,ETF_004,TIGER 200 금융,5717.0,5631.0,23453.0,23677.0,224.0,BUY,134080801.0,135361409.0,1280608.0,1280608.0,456280385.0,192.0912,68442.05774999999,949976242.9351788,949907800.8774288,949171919.3881956,0.0003143257783968,0.95,0.05,0.15,0.1425,0.1411412148431473,0.1424995235063516,47549349.87742889,True
A2a_LLM_OPAQUE,2024-01-17,2024-01-18,227550,ETF_005,TIGER 200 산업재,6028.0,6009.0,30383.0,0.0,-30383.0,SELL,183148724.0,0.0,-183148724.0,183148724.0,456280385.0,27472.3086,68442.05774999999,949976242.9351788,949907800.8774288,949171919.3881956,0.0003143257783968,0.95,0.05,0.0,0.0,0.1927929517838448,0.0,47549349.87742889,True
A2a_LLM_OPAQUE,2024-01-17,2024-01-18,266390,ETF_006,KODEX 경기소비재,7660.0,7607.0,11898.0,23561.0,11663.0,BUY,91138680.0,180477260.0,89338580.0,89338580.0,456280385.0,13400.786999999998,68442.05774999999,949976242.9351788,949907800.8774288,949171919.3881956,0.0003143257783968,0.95,0.05,0.2,0.19,0.0959378517913303,0.1899945024488622,47549349.87742889,True
A2a_LLM_OPAQUE,2024-01-17,2024-01-18,266410,ETF_007,KODEX 필수소비재,5803.0,5865.0,15511.0,31101.0,15590.0,BUY,90010333.0,180479103.0,90468770.0,90468770.0,456280385.0,13570.3155,68442.05774999999,949976242.9351788,949907800.8774288,949171919.3881956,0.0003143257783968,0.95,0.05,0.2,0.19,0.0947500884042021,0.1899964426371608,47549349.87742889,True
A2a_LLM_OPAQUE,2024-01-17,2024-01-18,266420,ETF_008,KODEX 헬스케어,12931.0,12797.0,3460.0,3489.0,29.0,BUY,44741260.0,45116259.0,374999.0,374999.0,456280385.0,56.24984999999999,68442.05774999999,949976242.9351788,949907800.8774288,949171919.3881956,0.0003143257783968,0.95,0.05,0.05,0.0475,0.047097240939164,0.0474954084578799,47549349.87742889,True
A2a_LLM_OPAQUE,2024-01-17,2024-01-18,315270,ETF_009,TIGER 200 커뮤니케이션서비스,17012.0,17060.0,7967.0,10609.0,2642.0,BUY,135534604.0,180480308.0,44945704.0,44945704.0,456280385.0,6741.8556,68442.05774999999,949976242.9351788,949907800.8774288,949171919.3881956,0.0003143257783968,0.95,0.05,0.2,0.19,0.1426715720608269,0.1899977111813278,47549349.87742889,True
A2a_LLM_OPAQUE,2024-01-18,2024-01-19,117460,ETF_001,KODEX 에너지화학,14014.0,13720.0,3211.0,6484.0,3273.0,BUY,44998954.0,90866776.0,45867822.0,45867822.0,546461501.0,6880.1733,81969.22515,956587091.3881956,956505122.1630456,951420412.2904028,0.0023688995178623,0.95,0.05,0.1,0.095,0.0470411470164182,0.0949987343450011,47880193.163045526,True
A2a_LLM_OPAQUE,2024-01-18,2024-01-19,117680,ETF_002,KODEX 철강,8115.0,8106.0,0.0,5598.0,5598.0,BUY,0.0,45427770.0,45427770.0,45427770.0,546461501.0,6814.1655,81969.22515,956587091.3881956,956505122.1630456,951420412.2904028,0.0023688995178623,0.95,0.05,0.05,0.0475,0.0,0.0474934937068286,47880193.163045526,True
A2a_LLM_OPAQUE,2024-01-18,2024-01-19,139260,ETF_003,TIGER 200 IT,29729.0,29905.0,4652.0,4584.0,-68.0,SELL,138299308.0,136277736.0,-2021572.0,2021572.0,546461501.0,303.2358,81969.22515,956587091.3881956,956505122.1630456,951420412.2904028,0.0023688995178623,0.95,0.05,0.15,0.1425,0.1445757623587629,0.1424746536556133,47880193.163045526,True
A2a_LLM_OPAQUE,2024-01-18,2024-01-19,139270,ETF_004,TIGER 200 금융,5631.0,5663.0,23677.0,16137.0,-7540.0,SELL,133325187.0,90867447.0,-42457740.0,42457740.0,546461501.0,6368.661,81969.22515,956587091.3881956,956505122.1630456,951420412.2904028,0.0023688995178623,0.95,0.05,0.1,0.095,0.1393759002188906,0.0949994358571879,47880193.163045526,True
A2a_LLM_OPAQUE,2024-01-18,2024-01-19,227550,ETF_005,TIGER 200 산업재,6033.0,5971.0,0.0,30123.0,30123.0,BUY,0.0,181732059.0,181732059.0,181732059.0,546461501.0,27259.80885,81969.22515,956587091.3881956,956505122.1630456,951420412.2904028,0.0023688995178623,0.95,0.05,0.2,0.19,0.0,0.1899959077992496,47880193.163045526,True
A2a_LLM_OPAQUE,2024-01-18,2024-01-19,266390,ETF_006,KODEX 경기소비재,7684.0,7650.0,23561.0,11825.0,-11736.0,SELL,181042724.0,90863300.0,-90179424.0,90179424.0,546461501.0,13526.9136,81969.22515,956587091.3881956,956505122.1630456,951420412.2904028,0.0023688995178623,0.95,0.05,0.1,0.095,0.1892590080190936,0.0949951002818691,47880193.163045526,True
A2a_LLM_OPAQUE,2024-01-18,2024-01-19,266410,ETF_007,KODEX 필수소비재,5898.0,5869.0,31101.0,23109.0,-7992.0,SELL,183433698.0,136296882.0,-47136816.0,47136816.0,546461501.0,7070.522400000001,81969.22515,956587091.3881956,956505122.1630456,951420412.2904028,0.0023688995178623,0.95,0.05,0.15,0.1425,0.1917584918836838,0.142494670276075,47880193.163045526,True
A2a_LLM_OPAQUE,2024-01-18,2024-01-19,266420,ETF_008,KODEX 헬스케어,12916.0,12737.0,3489.0,0.0,-3489.0,SELL,45063924.0,0.0,-45063924.0,45063924.0,546461501.0,6759.5886,81969.22515,956587091.3881956,956505122.1630456,951420412.2904028,0.0023688995178623,0.95,0.05,0.0,0.0,0.0471090655578504,0.0,47880193.163045526,True
A2a_LLM_OPAQUE,2024-01-18,2024-01-19,315270,ETF_009,TIGER 200 커뮤니케이션서비스,17237.0,17045.0,10609.0,7907.0,-2702.0,SELL,182867333.0,136292959.0,-46574374.0,46574374.0,546461501.0,6986.1561,81969.22515,956587091.3881956,956505122.1630456,951420412.2904028,0.0023688995178623,0.95,0.05,0.15,0.1425,0.191166423471828,0.1424905688866426,47880193.163045526,True
A2a_LLM_OPAQUE,2024-01-19,2024-01-22,117460,ETF_001,KODEX 에너지화학,13818.0,13240.0,6484.0,7229.0,745.0,BUY,89595912.0,99890322.0,10294410.0,10294410.0,199691430.0,1544.1615,29953.7145,956012423.2904028,955982469.5759028,947063729.0164384,-0.0045791358033576,0.95,0.05,0.1099999999999999,0.1044999999999999,0.0937183553448279,0.1044897005740218,47866936.5759027,True
A2a_LLM_OPAQUE,2024-01-19,2024-01-22,117680,ETF_002,KODEX 철강,8144.0,7999.0,5598.0,6690.0,1092.0,BUY,45590112.0,54483360.0,8893248.0,8893248.0,199691430.0,1333.9872,29953.7145,956012423.2904028,955982469.5759028,947063729.0164384,-0.0045791358033576,0.95,0.05,0.0599999999999999,0.0569999999999999,0.0476877819674016,0.0569920074205651,47866936.5759027,True
A2a_LLM_OPAQUE,2024-01-19,2024-01-22,139260,ETF_003,TIGER 200 IT,30260.0,29856.0,4584.0,4501.0,-83.0,SELL,138711840.0,136200260.0,-2511580.0,2511580.0,199691430.0,376.737,29953.7145,956012423.2904028,955982469.5759028,947063729.0164384,-0.0045791358033576,0.95,0.05,0.15,0.1425,0.1450941814360337,0.1424715037509231,47866936.5759027,True
A2a_LLM_OPAQUE,2024-01-19,2024-01-22,139270,ETF_004,TIGER 200 금융,5717.0,5663.0,16137.0,17474.0,1337.0,BUY,92255229.0,99898858.0,7643629.0,7643629.0,199691430.0,1146.54435,29953.7145,956012423.2904028,955982469.5759028,947063729.0164384,-0.0045791358033576,0.95,0.05,0.1099999999999999,0.1044999999999999,0.0965000315398371,0.1044986296080487,47866936.5759027,True
A2a_LLM_OPAQUE,2024-01-19,2024-01-22,227550,ETF_005,TIGER 200 산업재,5909.0,5933.0,30123.0,18443.0,-11680.0,SELL,177996807.0,108979687.0,-69017120.0,69017120.0,199691430.0,10352.568,29953.7145,956012423.2904028,955982469.5759028,947063729.0164384,-0.0045791358033576,0.95,0.05,0.1199999999999999,0.1139999999999999,0.1861867091510911,0.1139975788973892,47866936.5759027,True
A2a_LLM_OPAQUE,2024-01-19,2024-01-22,266390,ETF_006,KODEX 경기소비재,7650.0,7679.0,11825.0,14246.0,2421.0,BUY,90461250.0,108981900.0,18520650.0,18520650.0,199691430.0,2778.0975,29953.7145,956012423.2904028,955982469.5759028,947063729.0164384,-0.0045791358033576,0.95,0.05,0.1199999999999999,0.1139999999999999,0.0946235088542579,0.1139998937933946,47866936.5759027,True
A2a_LLM_OPAQUE,2024-01-19,2024-01-22,266410,ETF_007,KODEX 필수소비재,5912.0,5888.0,23109.0,23042.0,-67.0,SELL,136620408.0,136224304.0,-396104.0,396104.0,199691430.0,59.41559999999999,29953.7145,956012423.2904028,955982469.5759028,947063729.0164384,-0.0045791358033576,0.95,0.05,0.15,0.1425,0.1429065194882928,0.1424966548397403,47866936.5759027,True
A2a_LLM_OPAQUE,2024-01-19,2024-01-22,266420,ETF_008,KODEX 헬스케어,12836.0,13000.0,0.0,4245.0,4245.0,BUY,0.0,54488820.0,54488820.0,54488820.0,199691430.0,8173.322999999999,29953.7145,956012423.2904028,955982469.5759028,947063729.0164384,-0.0045791358033576,0.95,0.05,0.0599999999999999,0.0569999999999999,0.0,0.0569977188223677,47866936.5759027,True
A2a_LLM_OPAQUE,2024-01-19,2024-01-22,315270,ETF_009,TIGER 200 커뮤니케이션서비스,17313.0,16993.0,7907.0,6294.0,-1613.0,SELL,136893891.0,108968022.0,-27925869.0,27925869.0,199691430.0,4188.880349999999,29953.7145,956012423.2904028,955982469.5759028,947063729.0164384,-0.0045791358033576,0.95,0.05,0.1199999999999999,0.1139999999999999,0.1431925858545213,0.1139853767907908,47866936.5759027,True
A2a_LLM_OPAQUE,2024-01-22,2024-01-23,117460,ETF_001,KODEX 에너지화학,13264.0,13343.0,7229.0,0.0,-7229.0,SELL,95885456.0,0.0,-95885456.0,95885456.0,399365142.0,14382.818399999998,59904.77129999999,950690023.0164384,950630118.2451384,954386611.0448184,0.007732195631634,0.95,0.05,0.0,0.0,0.1008588011639857,0.0,47560641.24513841,True
A2a_LLM_OPAQUE,2024-01-22,2024-01-23,117680,ETF_002,KODEX 철강,7999.0,8055.0,6690.0,16935.0,10245.0,BUY,53513310.0,135463065.0,81949755.0,81949755.0,399365142.0,12292.46325,59904.77129999999,950690023.0164384,950630118.2451384,954386611.0448184,0.007732195631634,0.95,0.05,0.15,0.1425,0.0562889151084261,0.1424981834681028,47560641.24513841,True
A2a_LLM_OPAQUE,2024-01-22,2024-01-23,139260,ETF_003,TIGER 200 IT,29953.0,29885.0,4501.0,6030.0,1529.0,BUY,134818453.0,180616590.0,45798137.0,45798137.0,399365142.0,6869.720549999999,59904.77129999999,950690023.0164384,950630118.2451384,954386611.0448184,0.007732195631634,0.95,0.05,0.1999999999999999,0.1899999999999999,0.1418111579337241,0.1899967048523751,47560641.24513841,True
A2a_LLM_OPAQUE,2024-01-22,2024-01-23,139270,ETF_004,TIGER 200 금융,5762.0,5839.0,17474.0,15673.0,-1801.0,SELL,100685188.0,90307826.0,-10377362.0,10377362.0,399365142.0,1556.6043,59904.77129999999,950690023.0164384,950630118.2451384,954386611.0448184,0.007732195631634,0.95,0.05,0.0999999999999999,0.0949999999999999,0.1059074835775983,0.094997859069212,47560641.24513841,True
A2a_LLM_OPAQUE,2024-01-22,2024-01-23,227550,ETF_005,TIGER 200 산업재,5933.0,5881.0,18443.0,15221.0,-3222.0,SELL,109422319.0,90306193.0,-19116126.0,19116126.0,399365142.0,2867.4189,59904.77129999999,950690023.0164384,950630118.2451384,954386611.0448184,0.007732195631634,0.95,0.05,0.0999999999999999,0.0949999999999999,0.1150977882915133,0.0949961412612353,47560641.24513841,True
A2a_LLM_OPAQUE,2024-01-22,2024-01-23,266390,ETF_006,KODEX 경기소비재,7650.0,7755.0,14246.0,11805.0,-2441.0,SELL,108981900.0,90308250.0,-18673650.0,18673650.0,399365142.0,2801.0475,59904.77129999999,950690023.0164384,950630118.2451384,954386611.0448184,0.007732195631634,0.95,0.05,0.0999999999999999,0.0949999999999999,0.1146345258302091,0.0949983050891643,47560641.24513841,True
A2a_LLM_OPAQUE,2024-01-22,2024-01-23,266410,ETF_007,KODEX 필수소비재,5931.0,5931.0,23042.0,30453.0,7411.0,BUY,136662102.0,180616743.0,43954641.0,43954641.0,399365142.0,6593.19615,59904.77129999999,950690023.0164384,950630118.2451384,954386611.0448184,0.007732195631634,0.95,0.05,0.1999999999999999,0.1899999999999999,0.1437504325188831,0.1899968657982541,47560641.24513841,True
A2a_LLM_OPAQUE,2024-01-22,2024-01-23,266420,ETF_008,KODEX 헬스케어,13075.0,13085.0,4245.0,0.0,-4245.0,SELL,55503375.0,0.0,-55503375.0,55503375.0,399365142.0,8325.506249999999,59904.77129999999,950690023.0164384,950630118.2451384,954386611.0448184,0.007732195631634,0.95,0.05,0.0,0.0,0.0583821999350468,0.0,47560641.24513841,True
A2a_LLM_OPAQUE,2024-01-22,2024-01-23,315270,ETF_009,TIGER 200 커뮤니케이션서비스,17055.0,17251.0,6294.0,7942.0,1648.0,BUY,107344170.0,135450810.0,28106640.0,28106640.0,399365142.0,4215.996,59904.77129999999,950690023.0164384,950630118.2451384,954386611.0448184,0.007732195631634,0.95,0.05,0.15,0.1425,0.1129118507622583,0.1424852920187737,47560641.24513841,True
A2a_LLM_OPAQUE,2024-01-23,2024-01-24,117460,ETF_001,KODEX 에너지화학,13470.0,13504.0,0.0,3362.0,3362.0,BUY,0.0,45286140.0,45286140.0,45286140.0,275749846.0,6792.920999999999,41362.4769,953446308.0448184,953404945.5679184,953227380.851522,-0.0012146337552108,0.95,0.05,0.05,0.0475,0.0,0.0474993760107088,47706989.5679183,True
A2a_LLM_OPAQUE,2024-01-23,2024-01-24,117680,ETF_002,KODEX 철강,8055.0,8017.0,16935.0,16866.0,-69.0,SELL,136411425.0,135855630.0,-555795.0,555795.0,275749846.0,83.36925,41362.4769,953446308.0448184,953404945.5679184,953227380.851522,-0.0012146337552108,0.95,0.05,0.15,0.1425,0.1430719526091948,0.1424952016785211,47706989.5679183,True
A2a_LLM_OPAQUE,2024-01-23,2024-01-24,139260,ETF_003,TIGER 200 IT,29905.0,29710.0,6030.0,6057.0,27.0,BUY,180327150.0,181134585.0,807435.0,807435.0,275749846.0,121.11525,41362.4769,953446308.0448184,953404945.5679184,953227380.851522,-0.0012146337552108,0.95,0.05,0.2,0.19,0.1891319400772418,0.1899870415420416,47706989.5679183,True
A2a_LLM_OPAQUE,2024-01-23,2024-01-24,139270,ETF_004,TIGER 200 금융,5839.0,5902.0,15673.0,15511.0,-162.0,SELL,91514647.0,90568729.0,-945918.0,945918.0,275749846.0,141.8877,41362.4769,953446308.0448184,953404945.5679184,953227380.851522,-0.0012146337552108,0.95,0.05,0.1,0.095,0.0959830105039309,0.0949950274760223,47706989.5679183,True
A2a_LLM_OPAQUE,2024-01-23,2024-01-24,227550,ETF_005,TIGER 200 산업재,5838.0,5885.0,15221.0,23271.0,8050.0,BUY,88860198.0,135856098.0,46995900.0,46995900.0,275749846.0,7049.384999999999,41362.4769,953446308.0448184,953404945.5679184,953227380.851522,-0.0012146337552108,0.95,0.05,0.15,0.1425,0.0931989533655239,0.1424956925507388,47706989.5679183,True
A2a_LLM_OPAQUE,2024-01-23,2024-01-24,266390,ETF_006,KODEX 경기소비재,7722.0,7765.0,11805.0,17593.0,5788.0,BUY,91158210.0,135853146.0,44694936.0,44694936.0,275749846.0,6704.240399999999,41362.4769,953446308.0448184,953404945.5679184,953227380.851522,-0.0012146337552108,0.95,0.05,0.15,0.1425,0.0956091698408621,0.1424925962798272,47706989.5679183,True
A2a_LLM_OPAQUE,2024-01-23,2024-01-24,266410,ETF_007,KODEX 필수소비재,5974.0,5931.0,30453.0,30322.0,-131.0,SELL,181926222.0,181143628.0,-782594.0,782594.0,275749846.0,117.38909999999998,41362.4769,953446308.0448184,953404945.5679184,953227380.851522,-0.0012146337552108,0.95,0.05,0.2,0.19,0.1908090895784855,0.1899965264938892,47706989.5679183,True
A2a_LLM_OPAQUE,2024-01-23,2024-01-24,266420,ETF_008,KODEX 헬스케어,13115.0,12851.0,0.0,0.0,0.0,HOLD,0.0,0.0,0.0,0.0,275749846.0,0.0,41362.4769,953446308.0448184,953404945.5679184,953227380.851522,-0.0012146337552108,0.95,0.05,0.0,0.0,0.0,0.0,47706989.5679183,True
A2a_LLM_OPAQUE,2024-01-23,2024-01-24,315270,ETF_009,TIGER 200 커뮤니케이션서비스,17084.0,17213.0,7942.0,0.0,-7942.0,SELL,135681128.0,0.0,-135681128.0,135681128.0,275749846.0,20352.1692,41362.4769,953446308.0448184,953404945.5679184,953227380.851522,-0.0012146337552108,0.95,0.05,0.0,0.0,0.142305997574456,0.0,47706989.5679183,True
A2a_LLM_OPAQUE,2024-01-24,2024-01-25,117460,ETF_001,KODEX 에너지화학,13549.0,13553.0,3362.0,0.0,-3362.0,SELL,45551738.0,0.0,-45551738.0,45551738.0,361968867.0,6832.7607,54295.33005,951961674.851522,951907379.521472,952901549.1667782,-0.0003418194769569,0.95,0.05,0.0,0.0,0.0478503906232409,0.0,47633696.52147198,True
A2a_LLM_OPAQUE,2024-01-24,2024-01-25,117680,ETF_002,KODEX 철강,8003.0,8050.0,16866.0,11299.0,-5567.0,SELL,134978598.0,90425897.0,-44552701.0,44552701.0,361968867.0,6682.90515,54295.33005,951961674.851522,951907379.521472,952901549.1667782,-0.0003418194769569,0.95,0.05,0.1,0.095,0.1417899497068017,0.0949944279720338,47633696.52147198,True
A2a_LLM_OPAQUE,2024-01-24,2024-01-25,139260,ETF_003,TIGER 200 IT,29764.0,29355.0,6057.0,4557.0,-1500.0,SELL,180280548.0,135634548.0,-44646000.0,44646000.0,361968867.0,6696.9,54295.33005,951961674.851522,951907379.521472,952901549.1667782,-0.0003418194769569,0.95,0.05,0.15,0.1425,0.1893779474138162,0.1424871273381493,47633696.52147198,True
A2a_LLM_OPAQUE,2024-01-24,2024-01-25,139270,ETF_004,TIGER 200 금융,5920.0,5907.0,15511.0,15275.0,-236.0,SELL,91825120.0,90428000.0,-1397120.0,1397120.0,361968867.0,209.568,54295.33005,951961674.851522,951907379.521472,952901549.1667782,-0.0003418194769569,0.95,0.05,0.1,0.095,0.0964588411758509,0.094996637220586,47633696.52147198,True
A2a_LLM_OPAQUE,2024-01-24,2024-01-25,227550,ETF_005,TIGER 200 산업재,5781.0,5852.0,23271.0,15642.0,-7629.0,SELL,134529651.0,90426402.0,-44103249.0,44103249.0,361968867.0,6615.48735,54295.33005,951961674.851522,951907379.521472,952901549.1667782,-0.0003418194769569,0.95,0.05,0.1,0.095,0.1413183477380879,0.0949949584858326,47633696.52147198,True
A2a_LLM_OPAQUE,2024-01-24,2024-01-25,266390,ETF_006,KODEX 경기소비재,7751.0,7765.0,17593.0,17500.0,-93.0,SELL,136363343.0,135642500.0,-720843.0,720843.0,361968867.0,108.12645,54295.33005,951961674.851522,951907379.521472,952901549.1667782,-0.0003418194769569,0.95,0.05,0.15,0.1425,0.1432445723419156,0.142495481092066,47633696.52147198,True
A2a_LLM_OPAQUE,2024-01-24,2024-01-25,266410,ETF_007,KODEX 필수소비재,5960.0,5970.0,30322.0,30346.0,24.0,BUY,180719120.0,180862160.0,143040.0,143040.0,361968867.0,21.456,54295.33005,951961674.851522,951907379.521472,952901549.1667782,-0.0003418194769569,0.95,0.05,0.2,0.19,0.1898386508345379,0.1899997456589948,47633696.52147198,True
A2a_LLM_OPAQUE,2024-01-24,2024-01-25,266420,ETF_008,KODEX 헬스케어,12831.0,12966.0,0.0,0.0,0.0,HOLD,0.0,0.0,0.0,0.0,361968867.0,0.0,54295.33005,951961674.851522,951907379.521472,952901549.1667782,-0.0003418194769569,0.95,0.05,0.0,0.0,0.0,0.0,47633696.52147198,True
A2a_LLM_OPAQUE,2024-01-24,2024-01-25,315270,ETF_009,TIGER 200 커뮤니케이션서비스,17036.0,17117.0,0.0,10616.0,10616.0,BUY,0.0,180854176.0,180854176.0,180854176.0,361968867.0,27128.1264,54295.33005,951961674.851522,951907379.521472,952901549.1667782,-0.0003418194769569,0.95,0.05,0.2,0.19,0.0,0.1899913582883622,47633696.52147198,True
A2a_LLM_OPAQUE,2024-01-25,2024-01-26,117460,ETF_001,KODEX 에너지화학,13460.0,13823.0,0.0,0.0,0.0,HOLD,0.0,0.0,0.0,0.0,6480843.0,0.0,972.12645,950877666.1667782,950876694.0403284,958249118.716991,0.0056118804244664,0.95,0.05,0.0,0.0,0.0,0.0,47580762.04032826,True
A2a_LLM_OPAQUE,2024-01-25,2024-01-26,117680,ETF_002,KODEX 철강,7984.0,8148.0,11299.0,11314.0,15.0,BUY,90211216.0,90330976.0,119760.0,119760.0,6480843.0,17.964,972.12645,950877666.1667782,950876694.0403284,958249118.716991,0.0056118804244664,0.95,0.05,0.1,0.095,0.0948715268112917,0.094997570732519,47580762.04032826,True
A2a_LLM_OPAQUE,2024-01-25,2024-01-26,139260,ETF_003,TIGER 200 IT,29160.0,29306.0,4557.0,4646.0,89.0,BUY,132882120.0,135477360.0,2595240.0,2595240.0,6480843.0,389.286,972.12645,950877666.1667782,950876694.0403284,958249118.716991,0.0056118804244664,0.95,0.05,0.15,0.1425,0.1397468094246871,0.1424762651657273,47580762.04032826,True
A2a_LLM_OPAQUE,2024-01-25,2024-01-26,139270,ETF_004,TIGER 200 금융,5979.0,5988.0,15275.0,15108.0,-167.0,SELL,91329225.0,90330732.0,-998493.0,998493.0,6480843.0,149.77395,972.12645,950877666.1667782,950876694.0403284,958249118.716991,0.0056118804244664,0.95,0.05,0.1,0.095,0.0960472921487057,0.0949973141272184,47580762.04032826,True
A2a_LLM_OPAQUE,2024-01-25,2024-01-26,227550,ETF_005,TIGER 200 산업재,5833.0,5885.0,15642.0,15486.0,-156.0,SELL,91239786.0,90329838.0,-909948.0,909948.0,6480843.0,136.49219999999997,972.12645,950877666.1667782,950876694.0403284,958249118.716991,0.0056118804244664,0.95,0.05,0.1,0.095,0.0959532327305677,0.0949963739422232,47580762.04032826,True
A2a_LLM_OPAQUE,2024-01-25,2024-01-26,266390,ETF_006,KODEX 경기소비재,7717.0,7798.0,17500.0,17558.0,58.0,BUY,135047500.0,135495086.0,447586.0,447586.0,6480843.0,67.13789999999999,972.12645,950877666.1667782,950876694.0403284,958249118.716991,0.0056118804244664,0.95,0.05,0.15,0.1425,0.1420240529409105,0.1424949069098263,47580762.04032826,True
A2a_LLM_OPAQUE,2024-01-25,2024-01-26,266410,ETF_007,KODEX 필수소비재,5950.0,5965.0,30346.0,30364.0,18.0,BUY,180558700.0,180665800.0,107100.0,107100.0,6480843.0,16.064999999999998,972.12645,950877666.1667782,950876694.0403284,958249118.716991,0.0056118804244664,0.95,0.05,0.2,0.19,0.1898863612265461,0.1899991882568295,47580762.04032826,True
A2a_LLM_OPAQUE,2024-01-25,2024-01-26,266420,ETF_008,KODEX 헬스케어,12916.0,13274.0,0.0,0.0,0.0,HOLD,0.0,0.0,0.0,0.0,6480843.0,0.0,972.12645,950877666.1667782,950876694.0403284,958249118.716991,0.0056118804244664,0.95,0.05,0.0,0.0,0.0,0.0,47580762.04032826,True
A2a_LLM_OPAQUE,2024-01-25,2024-01-26,315270,ETF_009,TIGER 200 커뮤니케이션서비스,17141.0,17332.0,10616.0,10540.0,-76.0,SELL,181968856.0,180666140.0,-1302716.0,1302716.0,6480843.0,195.4074,972.12645,950877666.1667782,950876694.0403284,958249118.716991,0.0056118804244664,0.95,0.05,0.2,0.19,0.1913693658760135,0.1899995458215927,47580762.04032826,True
A2a_LLM_OPAQUE,2024-01-26,2024-01-29,117460,ETF_001,KODEX 에너지화학,13798.0,13990.0,0.0,0.0,0.0,HOLD,0.0,0.0,0.0,0.0,5646670.0,0.0,847.0004999999999,962967770.716991,962966923.716491,962365945.1100394,0.0042961963779946,0.95,0.05,0.0,0.0,0.0,0.0,48190297.71649098,True
A2a_LLM_OPAQUE,2024-01-26,2024-01-29,117680,ETF_002,KODEX 철강,8195.0,8363.0,11314.0,11163.0,-151.0,SELL,92718230.0,91480785.0,-1237445.0,1237445.0,5646670.0,185.61675,847.0004999999999,962967770.716991,962966923.716491,962365945.1100394,0.0042961963779946,0.95,0.05,0.1,0.095,0.0962838350560428,0.094998885991782,48190297.71649098,True
A2a_LLM_OPAQUE,2024-01-26,2024-01-29,139260,ETF_003,TIGER 200 IT,29311.0,29569.0,4646.0,4681.0,35.0,BUY,136178906.0,137204791.0,1025885.0,1025885.0,5646670.0,153.88275,847.0004999999999,962967770.716991,962966923.716491,962365945.1100394,0.0042961963779946,0.95,0.05,0.15,0.1425,0.1414158501884296,0.1424813123076642,48190297.71649098,True
A2a_LLM_OPAQUE,2024-01-26,2024-01-29,139270,ETF_004,TIGER 200 금융,6024.0,6065.0,15108.0,15186.0,78.0,BUY,91010592.0,91480464.0,469872.0,469872.0,5646670.0,70.48079999999999,847.0004999999999,962967770.716991,962966923.716491,962365945.1100394,0.0042961963779946,0.95,0.05,0.1,0.095,0.0945105275249625,0.0949985526469992,48190297.71649098,True
A2a_LLM_OPAQUE,2024-01-26,2024-01-29,227550,ETF_005,TIGER 200 산업재,5885.0,5828.0,15486.0,15544.0,58.0,BUY,91135110.0,91476440.0,341330.0,341330.0,5646670.0,51.19949999999999,847.0004999999999,962967770.716991,962966923.716491,962365945.1100394,0.0042961963779946,0.95,0.05,0.1,0.095,0.0946398340332242,0.094994373894956,48190297.71649098,True
A2a_LLM_OPAQUE,2024-01-26,2024-01-29,266390,ETF_006,KODEX 경기소비재,7846.0,7918.0,17558.0,17489.0,-69.0,SELL,137760068.0,137218694.0,-541374.0,541374.0,5646670.0,81.20609999999999,847.0004999999999,962967770.716991,962966923.716491,962365945.1100394,0.0042961963779946,0.95,0.05,0.15,0.1425,0.1430578179137073,0.1424957499790499,48190297.71649098,True
A2a_LLM_OPAQUE,2024-01-26,2024-01-29,266410,ETF_007,KODEX 필수소비재,6003.0,5979.0,30364.0,30478.0,114.0,BUY,182275092.0,182959434.0,684342.0,684342.0,5646670.0,102.65129999999998,847.0004999999999,962967770.716991,962966923.716491,962365945.1100394,0.0042961963779946,0.95,0.05,0.2,0.19,0.1892847274258042,0.1899955538388413,48190297.71649098,True
A2a_LLM_OPAQUE,2024-01-26,2024-01-29,266420,ETF_008,KODEX 헬스케어,13503.0,13299.0,0.0,0.0,0.0,HOLD,0.0,0.0,0.0,0.0,5646670.0,0.0,847.0004999999999,962967770.716991,962966923.716491,962365945.1100394,0.0042961963779946,0.95,0.05,0.0,0.0,0.0,0.0,48190297.71649098,True
A2a_LLM_OPAQUE,2024-01-26,2024-01-29,315270,ETF_009,TIGER 200 커뮤니케이션서비스,17486.0,17108.0,10540.0,10463.0,-77.0,SELL,184302440.0,182956018.0,-1346422.0,1346422.0,5646670.0,201.96329999999995,847.0004999999999,962967770.716991,962966923.716491,962365945.1100394,0.0042961963779946,0.95,0.05,0.2,0.19,0.191390039837756,0.1899920064688166,48190297.71649098,True
A2a_LLM_OPAQUE,2024-01-29,2024-01-30,117460,ETF_001,KODEX 에너지화학,13994.0,13911.0,0.0,0.0,0.0,HOLD,0.0,0.0,0.0,0.0,369468804.0,0.0,55420.32059999999,966272066.1100394,966216645.7894392,964861307.2563002,0.0025929451877846,0.95,0.05,0.0,0.0,0.0,0.0,48339232.78943932,True
A2a_LLM_OPAQUE,2024-01-29,2024-01-30,117680,ETF_002,KODEX 철강,8448.0,8331.0,11163.0,0.0,-11163.0,SELL,94305024.0,0.0,-94305024.0,94305024.0,369468804.0,14145.753599999996,55420.32059999999,966272066.1100394,966216645.7894392,964861307.2563002,0.0025929451877846,0.95,0.05,0.0,0.0,0.0975967611064734,0.0,48339232.78943932,True
A2a_LLM_OPAQUE,2024-01-29,2024-01-30,139260,ETF_003,TIGER 200 IT,29729.0,29613.0,4681.0,6175.0,1494.0,BUY,139161449.0,183576575.0,44415126.0,44415126.0,369468804.0,6662.268899999998,55420.32059999999,966272066.1100394,966216645.7894392,964861307.2563002,0.0025929451877846,0.95,0.05,0.2,0.19,0.1440189092500913,0.1899952518930268,48339232.78943932,True
A2a_LLM_OPAQUE,2024-01-29,2024-01-30,139270,ETF_004,TIGER 200 금융,6106.0,6115.0,15186.0,30065.0,14879.0,BUY,92725716.0,183576890.0,90851174.0,90851174.0,369468804.0,13627.6761,55420.32059999999,966272066.1100394,966216645.7894392,964861307.2563002,0.0025929451877846,0.95,0.05,0.2,0.19,0.0959623270217152,0.1899955779068678,48339232.78943932,True
A2a_LLM_OPAQUE,2024-01-29,2024-01-30,227550,ETF_005,TIGER 200 산업재,5824.0,5762.0,15544.0,0.0,-15544.0,SELL,90528256.0,0.0,-90528256.0,90528256.0,369468804.0,13579.238399999998,55420.32059999999,966272066.1100394,966216645.7894392,964861307.2563002,0.0025929451877846,0.95,0.05,0.0,0.0,0.0936881642087029,0.0,48339232.78943932,True
A2a_LLM_OPAQUE,2024-01-29,2024-01-30,266390,ETF_006,KODEX 경기소비재,7946.0,7932.0,17489.0,23103.0,5614.0,BUY,138967594.0,183576438.0,44608844.0,44608844.0,369468804.0,6691.326599999999,55420.32059999999,966272066.1100394,966216645.7894392,964861307.2563002,0.0025929451877846,0.95,0.05,0.2,0.19,0.1438182876997029,0.18999511010288,48339232.78943932,True
A2a_LLM_OPAQUE,2024-01-29,2024-01-30,266410,ETF_007,KODEX 필수소비재,6017.0,5974.0,30478.0,30510.0,32.0,BUY,183386126.0,183578670.0,192544.0,192544.0,369468804.0,28.881599999999995,55420.32059999999,966272066.1100394,966216645.7894392,964861307.2563002,0.0025929451877846,0.95,0.05,0.2,0.19,0.1897872580941566,0.189997420143811,48339232.78943932,True
A2a_LLM_OPAQUE,2024-01-29,2024-01-30,266420,ETF_008,KODEX 헬스케어,13423.0,13448.0,0.0,0.0,0.0,HOLD,0.0,0.0,0.0,0.0,369468804.0,0.0,55420.32059999999,966272066.1100394,966216645.7894392,964861307.2563002,0.0025929451877846,0.95,0.05,0.0,0.0,0.0,0.0,48339232.78943932,True
A2a_LLM_OPAQUE,2024-01-29,2024-01-30,315270,ETF_009,TIGER 200 커뮤니케이션서비스,17108.0,17175.0,10463.0,10730.0,267.0,BUY,179001004.0,183568840.0,4567836.0,4567836.0,369468804.0,685.1753999999999,55420.32059999999,966272066.1100394,966216645.7894392,964861307.2563002,0.0025929451877846,0.95,0.05,0.2,0.19,0.1852490724694253,0.1899872464420405,48339232.78943932,True
A2a_LLM_OPAQUE,2024-01-30,2024-01-31,117460,ETF_001,KODEX 에너지화학,13784.0,13798.0,0.0,0.0,0.0,HOLD,0.0,0.0,0.0,0.0,321235622.0,0.0,48185.34329999999,959059195.2563002,959011009.9130002,957946840.1299626,-0.0071662808678687,0.95,0.05,0.0,0.0,0.0,0.0,47988227.91300023,True
A2a_LLM_OPAQUE,2024-01-30,2024-01-31,117680,ETF_002,KODEX 철강,8260.0,8246.0,0.0,19464.0,19464.0,BUY,0.0,160772640.0,160772640.0,160772640.0,321235622.0,24115.896,48185.34329999999,959059195.2563002,959011009.9130002,957946840.1299626,-0.0071662808678687,0.95,0.05,0.1764705882352941,0.1676470588235294,0.0,0.1676442067277048,47988227.91300023,True
A2a_LLM_OPAQUE,2024-01-30,2024-01-31,139260,ETF_003,TIGER 200 IT,29364.0,29321.0,6175.0,5475.0,-700.0,SELL,181322700.0,160767900.0,-20554800.0,20554800.0,321235622.0,3083.22,48185.34329999999,959059195.2563002,959011009.9130002,957946840.1299626,-0.0071662808678687,0.95,0.05,0.1764705882352941,0.1676470588235294,0.1890630952675899,0.1676392641358565,47988227.91300023,True
A2a_LLM_OPAQUE,2024-01-30,2024-01-31,139270,ETF_004,TIGER 200 금융,6115.0,6247.0,30065.0,26291.0,-3774.0,SELL,183847475.0,160769465.0,-23078010.0,23078010.0,321235622.0,3461.701499999999,48185.34329999999,959059195.2563002,959011009.9130002,957946840.1299626,-0.0071662808678687,0.95,0.05,0.1764705882352941,0.1676470588235294,0.1916956491417283,0.1676408960253592,47988227.91300023,True
A2a_LLM_OPAQUE,2024-01-30,2024-01-31,227550,ETF_005,TIGER 200 산업재,5762.0,5762.0,0.0,0.0,0.0,HOLD,0.0,0.0,0.0,0.0,321235622.0,0.0,48185.34329999999,959059195.2563002,959011009.9130002,957946840.1299626,-0.0071662808678687,0.95,0.05,0.0,0.0,0.0,0.0,47988227.91300023,True
A2a_LLM_OPAQUE,2024-01-30,2024-01-31,266390,ETF_006,KODEX 경기소비재,7903.0,7880.0,23103.0,20343.0,-2760.0,SELL,182583009.0,160770729.0,-21812280.0,21812280.0,321235622.0,3271.842,48185.34329999999,959059195.2563002,959011009.9130002,957946840.1299626,-0.0071662808678687,0.95,0.05,0.1764705882352941,0.1676470588235294,0.1903772049765982,0.167642214049852,47988227.91300023,True
A2a_LLM_OPAQUE,2024-01-30,2024-01-31,266410,ETF_007,KODEX 필수소비재,5974.0,5846.0,30510.0,26912.0,-3598.0,SELL,182266740.0,160772288.0,-21494452.0,21494452.0,321235622.0,3224.1678,48185.34329999999,959059195.2563002,959011009.9130002,957946840.1299626,-0.0071662808678687,0.95,0.05,0.1764705882352941,0.1676470588235294,0.1900474349253184,0.1676438396829093,47988227.91300023,True
A2a_LLM_OPAQUE,2024-01-30,2024-01-31,266420,ETF_008,KODEX 헬스케어,13498.0,13264.0,0.0,0.0,0.0,HOLD,0.0,0.0,0.0,0.0,321235622.0,0.0,48185.34329999999,959059195.2563002,959011009.9130002,957946840.1299626,-0.0071662808678687,0.95,0.05,0.0,0.0,0.0,0.0,47988227.91300023,True
A2a_LLM_OPAQUE,2024-01-30,2024-01-31,315270,ETF_009,TIGER 200 커뮤니케이션서비스,16840.0,16821.0,10730.0,6364.0,-4366.0,SELL,180693200.0,107169760.0,-73523440.0,73523440.0,321235622.0,11028.516,48185.34329999999,959059195.2563002,959011009.9130002,957946840.1299626,-0.0071662808678687,0.95,0.05,0.1176470588235294,0.1117647058823529,0.1884067228527133,0.1117502915943814,47988227.91300023,True
A2a_LLM_OPAQUE,2024-01-31,2024-02-01,117460,ETF_001,KODEX 에너지화학,13730.0,14146.0,0.0,0.0,0.0,HOLD,0.0,0.0,0.0,0.0,282031719.0,0.0,42304.75785,955572254.1299626,955529949.3721124,975042419.5167816,0.0178460627152334,0.95,0.05,0.0,0.0,0.0,0.0,47812982.37211251,True
A2a_LLM_OPAQUE,2024-01-31,2024-02-01,117680,ETF_002,KODEX 철강,8167.0,8410.0,19464.0,16672.0,-2792.0,SELL,158962488.0,136160224.0,-22802264.0,22802264.0,282031719.0,3420.3396,42304.75785,955572254.1299626,955529949.3721124,975042419.5167816,0.0178460627152334,0.95,0.05,0.15,0.1425,0.1663531850291462,0.1424970761926113,47812982.37211251,True
A2a_LLM_OPAQUE,2024-01-31,2024-02-01,139260,ETF_003,TIGER 200 IT,29194.0,29705.0,5475.0,4664.0,-811.0,SELL,159837150.0,136160816.0,-23676334.0,23676334.0,282031719.0,3551.4501,42304.75785,955572254.1299626,955529949.3721124,975042419.5167816,0.0178460627152334,0.95,0.05,0.15,0.1425,0.1672685129870476,0.1424976957440973,47812982.37211251,True
A2a_LLM_OPAQUE,2024-01-31,2024-02-01,139270,ETF_004,TIGER 200 금융,6256.0,6569.0,26291.0,21765.0,-4526.0,SELL,164476496.0,136161840.0,-28314656.0,28314656.0,282031719.0,4247.1984,42304.75785,955572254.1299626,955529949.3721124,975042419.5167816,0.0178460627152334,0.95,0.05,0.15,0.1425,0.1721235576788004,0.1424987674007216,47812982.37211251,True
A2a_LLM_OPAQUE,2024-01-31,2024-02-01,266390,ETF_006,KODEX 경기소비재,7880.0,8075.0,20343.0,23039.0,2696.0,BUY,160302840.0,181547320.0,21244480.0,21244480.0,282031719.0,3186.672,42304.75785,955572254.1299626,955529949.3721124,975042419.5167816,0.0178460627152334,0.95,0.05,0.2,0.19,0.1677558544706322,0.1899964727628855,47812982.37211251,True
A2a_LLM_OPAQUE,2024-01-31,2024-02-01,266410,ETF_007,KODEX 필수소비재,5831.0,5879.0,26912.0,15567.0,-11345.0,SELL,156923872.0,90771177.0,-66152695.0,66152695.0,282031719.0,9922.904249999998,42304.75785,955572254.1299626,955529949.3721124,975042419.5167816,0.0178460627152334,0.95,0.05,0.1,0.095,0.1642197869619784,0.0949956378234366,47812982.37211251,True
A2a_LLM_OPAQUE,2024-01-31,2024-02-01,266420,ETF_008,KODEX 헬스케어,13130.0,13165.0,0.0,6913.0,6913.0,BUY,0.0,90767690.0,90767690.0,90767690.0,282031719.0,13615.1535,42304.75785,955572254.1299626,955529949.3721124,975042419.5167816,0.0178460627152334,0.95,0.05,0.1,0.095,0.0,0.0949919885395997,47812982.37211251,True
A2a_LLM_OPAQUE,2024-01-31,2024-02-01,315270,ETF_009,TIGER 200 커뮤니케이션서비스,16825.0,16921.0,6364.0,8092.0,1728.0,BUY,107074300.0,136147900.0,29073600.0,29073600.0,282031719.0,4361.039999999999,42304.75785,955572254.1299626,955529949.3721124,975042419.5167816,0.0178460627152334,0.95,0.05,0.15,0.1425,0.1120525418535617,0.142484178637691,47812982.37211251,True
A2a_LLM_OPAQUE,2024-02-01,2024-02-02,117460,ETF_001,KODEX 에너지화학,14078.0,14426.0,0.0,7372.0,7372.0,BUY,0.0,103783016.0,103783016.0,103783016.0,463069546.0,15567.4524,69460.4319,983394194.5167816,983324734.0848815,1003183864.4246436,0.0288617647238449,0.95,0.05,0.1111111111111111,0.1055555555555555,0.0,0.1055429731426254,49213605.08488166,True
A2a_LLM_OPAQUE,2024-02-01,2024-02-02,117680,ETF_002,KODEX 철강,8438.0,8583.0,16672.0,12300.0,-4372.0,SELL,140678336.0,103787400.0,-36890936.0,36890936.0,463069546.0,5533.6404,69460.4319,983394194.5167816,983324734.0848815,1003183864.4246436,0.0288617647238449,0.95,0.05,0.1111111111111111,0.1055555555555555,0.1430538605824557,0.1055474314866984,49213605.08488166,True
A2a_LLM_OPAQUE,2024-02-01,2024-02-02,139260,ETF_003,TIGER 200 IT,29715.0,30542.0,4664.0,3493.0,-1171.0,SELL,138590760.0,103794495.0,-34796265.0,34796265.0,463069546.0,5219.4397500000005,69460.4319,983394194.5167816,983324734.0848815,1003183864.4246436,0.0288617647238449,0.95,0.05,0.1111111111111111,0.1055555555555555,0.1409310333259598,0.1055546468040336,49213605.08488166,True
A2a_LLM_OPAQUE,2024-02-01,2024-02-02,139270,ETF_004,TIGER 200 금융,6628.0,6905.0,21765.0,15660.0,-6105.0,SELL,144258420.0,103794480.0,-40463940.0,40463940.0,463069546.0,6069.591,69460.4319,983394194.5167816,983324734.0848815,1003183864.4246436,0.0288617647238449,0.95,0.05,0.1111111111111111,0.1055555555555555,0.1466943986494504,0.1055546315496629,49213605.08488166,True
A2a_LLM_OPAQUE,2024-02-01,2024-02-02,227550,ETF_005,TIGER 200 산업재,5900.0,6019.0,0.0,17592.0,17592.0,BUY,0.0,103792800.0,103792800.0,103792800.0,463069546.0,15568.919999999998,69460.4319,983394194.5167816,983324734.0848815,1003183864.4246436,0.0288617647238449,0.95,0.05,0.1111111111111111,0.1055555555555555,0.0,0.1055529230601459,49213605.08488166,True
A2a_LLM_OPAQUE,2024-02-01,2024-02-02,266390,ETF_006,KODEX 경기소비재,8075.0,8228.0,23039.0,12853.0,-10186.0,SELL,186039925.0,103787975.0,-82251950.0,82251950.0,463069546.0,12337.7925,69460.4319,983394194.5167816,983324734.0848815,1003183864.4246436,0.0288617647238449,0.95,0.05,0.1111111111111111,0.1055555555555555,0.1891814351125145,0.1055480162375747,49213605.08488166,True
A2a_LLM_OPAQUE,2024-02-01,2024-02-02,266410,ETF_007,KODEX 필수소비재,6012.0,5998.0,15567.0,17264.0,1697.0,BUY,93588804.0,103791168.0,10202364.0,10202364.0,463069546.0,1530.3546,69460.4319,983394194.5167816,983324734.0848815,1003183864.4246436,0.0288617647238449,0.95,0.05,0.1111111111111111,0.1055555555555555,0.0951691646359448,0.1055512633846151,49213605.08488166,True
A2a_LLM_OPAQUE,2024-02-01,2024-02-02,266420,ETF_008,KODEX 헬스케어,13130.0,13547.0,6913.0,7905.0,992.0,BUY,90767690.0,103792650.0,13024960.0,13024960.0,463069546.0,1953.744,69460.4319,983394194.5167816,983324734.0848815,1003183864.4246436,0.0288617647238449,0.95,0.05,0.1111111111111111,0.1055555555555555,0.0923004126993054,0.105552770516439,49213605.08488166,True
A2a_LLM_OPAQUE,2024-02-01,2024-02-02,315270,ETF_009,TIGER 200 커뮤니케이션서비스,17505.0,17701.0,8092.0,5929.0,-2163.0,SELL,141650460.0,103787145.0,-37863315.0,37863315.0,463069546.0,5679.49725,69460.4319,983394194.5167816,983324734.0848815,1003183864.4246436,0.0288617647238449,0.95,0.05,0.1111111111111111,0.1055555555555555,0.1440424000770148,0.1055471721623967,49213605.08488166,True
A2a_LLM_OPAQUE,2024-02-02,2024-02-05,117460,ETF_001,KODEX 에너지화학,14308.0,14396.0,7372.0,3316.0,-4056.0,SELL,105478576.0,47445328.0,-58033248.0,58033248.0,309253726.0,8704.9872,46388.0589,999057949.4246436,999011561.3657436,991788436.5447028,-0.0113592615312612,0.95,0.05,0.05,0.0475,0.1055780358494169,0.0474922711956783,50024504.36574364,True
A2a_LLM_OPAQUE,2024-02-02,2024-02-05,117680,ETF_002,KODEX 철강,8546.0,8522.0,12300.0,16657.0,4357.0,BUY,105115800.0,142350722.0,37234922.0,37234922.0,309253726.0,5585.2383,46388.0589,999057949.4246436,999011561.3657436,991788436.5447028,-0.0113592615312612,0.95,0.05,0.15,0.1425,0.1052149177738249,0.1424915661690572,50024504.36574364,True
A2a_LLM_OPAQUE,2024-02-02,2024-02-05,139260,ETF_003,TIGER 200 IT,30420.0,30031.0,3493.0,4679.0,1186.0,BUY,106257060.0,142335180.0,36078120.0,36078120.0,309253726.0,5411.718,46388.0589,999057949.4246436,999011561.3657436,991788436.5447028,-0.0113592615312612,0.95,0.05,0.15,0.1425,0.1063572539122413,0.1424760087915442,50024504.36574364,True
A2a_LLM_OPAQUE,2024-02-02,2024-02-05,139270,ETF_004,TIGER 200 금융,6927.0,6732.0,15660.0,20551.0,4891.0,BUY,108476820.0,142356777.0,33879957.0,33879957.0,309253726.0,5081.99355,46388.0589,999057949.4246436,999011561.3657436,991788436.5447028,-0.0113592615312612,0.95,0.05,0.15,0.1425,0.1085791070102306,0.1424976271599747,50024504.36574364,True
A2a_LLM_OPAQUE,2024-02-02,2024-02-05,227550,ETF_005,TIGER 200 산업재,5923.0,5952.0,17592.0,14420.0,-3172.0,SELL,104197416.0,85409660.0,-18787756.0,18787756.0,309253726.0,2818.1634,46388.0589,999057949.4246436,999011561.3657436,991788436.5447028,-0.0113592615312612,0.95,0.05,0.09,0.0854999999999999,0.1042956677938523,0.0854941657364174,50024504.36574364,True
A2a_LLM_OPAQUE,2024-02-02,2024-02-05,266390,ETF_006,KODEX 경기소비재,8214.0,8233.0,12853.0,17331.0,4478.0,BUY,105574542.0,142356834.0,36782292.0,36782292.0,309253726.0,5517.3438,46388.0589,999057949.4246436,999011561.3657436,991788436.5447028,-0.0113592615312612,0.95,0.05,0.15,0.1425,0.1056740923394886,0.1424976842163715,50024504.36574364,True
A2a_LLM_OPAQUE,2024-02-02,2024-02-05,266410,ETF_007,KODEX 필수소비재,6022.0,5955.0,17264.0,6303.0,-10961.0,SELL,103963808.0,37956666.0,-66007142.0,66007142.0,309253726.0,9901.0713,46388.0589,999057949.4246436,999011561.3657436,991788436.5447028,-0.0113592615312612,0.95,0.05,0.04,0.038,0.1040618395157884,0.0379942209558712,50024504.36574364,True
A2a_LLM_OPAQUE,2024-02-02,2024-02-05,266420,ETF_008,KODEX 헬스케어,13552.0,13423.0,7905.0,7003.0,-902.0,SELL,107128560.0,94904656.0,-12223904.0,12223904.0,309253726.0,1833.5856,46388.0589,999057949.4246436,999011561.3657436,991788436.5447028,-0.0113592615312612,0.95,0.05,0.1,0.095,0.1072295756834678,0.0949985562431893,50024504.36574364,True
A2a_LLM_OPAQUE,2024-02-02,2024-02-05,315270,ETF_009,TIGER 200 커뮤니케이션서비스,17481.0,17371.0,5929.0,6514.0,585.0,BUY,103644849.0,113871234.0,10226385.0,10226385.0,309253726.0,1533.95775,46388.0589,999057949.4246436,999011561.3657436,991788436.5447028,-0.0113592615312612,0.95,0.05,0.12,0.1139999999999999,0.1037425797569489,0.1139839000905327,50024504.36574364,True
A2a_LLM_OPAQUE,2024-02-05,2024-02-06,117460,ETF_001,KODEX 에너지화학,14220.0,14239.0,3316.0,0.0,-3316.0,SELL,47153520.0,0.0,-47153520.0,47153520.0,526434681.0,7073.027999999999,78965.20215,988331395.5447028,988252430.3425528,983175319.98999,-0.0086844292969578,0.95,0.05,0.0,0.0,0.0477102318236203,0.0,49442786.34255278,True
A2a_LLM_OPAQUE,2024-02-05,2024-02-06,117680,ETF_002,KODEX 철강,8466.0,8377.0,16657.0,22179.0,5522.0,BUY,141018162.0,187767414.0,46749252.0,46749252.0,526434681.0,7012.3878,78965.20215,988331395.5447028,988252430.3425528,983175319.98999,-0.0086844292969578,0.95,0.05,0.2,0.19,0.1426830743571392,0.1899994457235133,49442786.34255278,True
A2a_LLM_OPAQUE,2024-02-05,2024-02-06,139260,ETF_003,TIGER 200 IT,30031.0,30197.0,4679.0,6252.0,1573.0,BUY,140515049.0,187753812.0,47238763.0,47238763.0,526434681.0,7085.81445,78965.20215,988331395.5447028,988252430.3425528,983175319.98999,-0.0086844292969578,0.95,0.05,0.2,0.19,0.1421740214197662,0.1899856820336074,49442786.34255278,True
A2a_LLM_OPAQUE,2024-02-05,2024-02-06,139270,ETF_004,TIGER 200 금융,6709.0,6632.0,20551.0,27987.0,7436.0,BUY,137876659.0,187764783.0,49888124.0,49888124.0,526434681.0,7483.2186,78965.20215,988331395.5447028,988252430.3425528,983175319.98999,-0.0086844292969578,0.95,0.05,0.2,0.19,0.139504481615715,0.1899967834482492,49442786.34255278,True
A2a_LLM_OPAQUE,2024-02-05,2024-02-06,227550,ETF_005,TIGER 200 산업재,5876.0,5885.0,14420.0,0.0,-14420.0,SELL,84731920.0,0.0,-84731920.0,84731920.0,526434681.0,12709.788,78965.20215,988331395.5447028,988252430.3425528,983175319.98999,-0.0086844292969578,0.95,0.05,0.0,0.0,0.0857322962540326,0.0,49442786.34255278,True
A2a_LLM_OPAQUE,2024-02-05,2024-02-06,266390,ETF_006,KODEX 경기소비재,8238.0,8262.0,17331.0,22792.0,5461.0,BUY,142772778.0,187760496.0,44987718.0,44987718.0,526434681.0,6748.1577,78965.20215,988331395.5447028,988252430.3425528,983175319.98999,-0.0086844292969578,0.95,0.05,0.2,0.19,0.144458405999855,0.1899924454877561,49442786.34255278,True
A2a_LLM_OPAQUE,2024-02-05,2024-02-06,266410,ETF_007,KODEX 필수소비재,5960.0,5946.0,6303.0,0.0,-6303.0,SELL,37565880.0,0.0,-37565880.0,37565880.0,526434681.0,5634.8820000000005,78965.20215,988331395.5447028,988252430.3425528,983175319.98999,-0.0086844292969578,0.95,0.05,0.0,0.0,0.0380093966146812,0.0,49442786.34255278,True
A2a_LLM_OPAQUE,2024-02-05,2024-02-06,266420,ETF_008,KODEX 헬스케어,13353.0,13527.0,7003.0,0.0,-7003.0,SELL,93511059.0,0.0,-93511059.0,93511059.0,526434681.0,14026.658849999998,78965.20215,988331395.5447028,988252430.3425528,983175319.98999,-0.0086844292969578,0.95,0.05,0.0,0.0,0.0946150850023973,0.0,49442786.34255278,True
A2a_LLM_OPAQUE,2024-02-05,2024-02-06,315270,ETF_009,TIGER 200 커뮤니케이션서비스,17371.0,17136.0,6514.0,10809.0,4295.0,BUY,113154694.0,187763139.0,74608445.0,74608445.0,526434681.0,11191.26675,78965.20215,988331395.5447028,988252430.3425528,983175319.98999,-0.0086844292969578,0.95,0.05,0.2,0.19,0.1144906399918993,0.1899951199056668,49442786.34255278,True
A2a_LLM_OPAQUE,2024-02-06,2024-02-07,117460,ETF_001,KODEX 에너지화학,14514.0,14519.0,0.0,0.0,0.0,HOLD,0.0,0.0,0.0,0.0,6138443.0,0.0,920.76645,990528348.98999,990527428.2235398,999597168.3860393,0.0167028688191812,0.95,0.05,0.0,0.0,0.0,0.0,49550911.22353983,True
A2a_LLM_OPAQUE,2024-02-06,2024-02-07,117680,ETF_002,KODEX 철강,8466.0,8635.0,22179.0,22230.0,51.0,BUY,187767414.0,188199180.0,431766.0,431766.0,6138443.0,64.7649,920.76645,990528348.98999,990527428.2235398,999597168.3860393,0.0167028688191812,0.95,0.05,0.2,0.19,0.1895628875149918,0.1899989587744436,49550911.22353983,True
A2a_LLM_OPAQUE,2024-02-06,2024-02-07,139260,ETF_003,TIGER 200 IT,30357.0,30659.0,6252.0,6199.0,-53.0,SELL,189791964.0,188183043.0,-1608921.0,1608921.0,6138443.0,241.33815,920.76645,990528348.98999,990527428.2235398,999597168.3860393,0.0167028688191812,0.95,0.05,0.2,0.19,0.191606796709579,0.1899826674537389,49550911.22353983,True
A2a_LLM_OPAQUE,2024-02-06,2024-02-07,139270,ETF_004,TIGER 200 금융,6632.0,6778.0,27987.0,28377.0,390.0,BUY,185609784.0,188196264.0,2586480.0,2586480.0,6138443.0,387.972,920.76645,990528348.98999,990527428.2235398,999597168.3860393,0.0167028688191812,0.95,0.05,0.2,0.19,0.1873846257800298,0.1899960148882705,49550911.22353983,True
A2a_LLM_OPAQUE,2024-02-06,2024-02-07,266390,ETF_006,KODEX 경기소비재,8309.0,8362.0,22792.0,22650.0,-142.0,SELL,189378728.0,188198850.0,-1179878.0,1179878.0,6138443.0,176.9817,920.76645,990528348.98999,990527428.2235398,999597168.3860393,0.0167028688191812,0.95,0.05,0.2,0.19,0.1911896092556093,0.1899986256186009,49550911.22353983,True
A2a_LLM_OPAQUE,2024-02-06,2024-02-07,266410,ETF_007,KODEX 필수소비재,6012.0,5979.0,0.0,0.0,0.0,HOLD,0.0,0.0,0.0,0.0,6138443.0,0.0,920.76645,990528348.98999,990527428.2235398,999597168.3860393,0.0167028688191812,0.95,0.05,0.0,0.0,0.0,0.0,49550911.22353983,True
A2a_LLM_OPAQUE,2024-02-06,2024-02-07,266420,ETF_008,KODEX 헬스케어,13597.0,13478.0,0.0,0.0,0.0,HOLD,0.0,0.0,0.0,0.0,6138443.0,0.0,920.76645,990528348.98999,990527428.2235398,999597168.3860393,0.0167028688191812,0.95,0.05,0.0,0.0,0.0,0.0,49550911.22353983,True
A2a_LLM_OPAQUE,2024-02-06,2024-02-07,315270,ETF_009,TIGER 200 커뮤니케이션서비스,17442.0,17265.0,10809.0,10790.0,-19.0,SELL,188530578.0,188199180.0,-331398.0,331398.0,6138443.0,49.7097,920.76645,990528348.98999,990527428.2235398,999597168.3860393,0.0167028688191812,0.95,0.05,0.2,0.19,0.1903333490578423,0.1899989587744436,49550911.22353983,True
A2a_LLM_OPAQUE,2024-02-07,2024-02-08,117460,ETF_001,KODEX 에너지화학,14808.0,14808.0,0.0,0.0,0.0,HOLD,0.0,0.0,0.0,0.0,382354053.0,0.0,57353.10795,1004196184.3860393,1004138831.2780892,1006056104.5226418,0.0064615390488063,0.95,0.05,0.0,0.0,0.0,0.0,50229179.278089285,True
A2a_LLM_OPAQUE,2024-02-07,2024-02-08,117680,ETF_002,KODEX 철강,8649.0,8611.0,22230.0,22058.0,-172.0,SELL,192267270.0,190779642.0,-1487628.0,1487628.0,382354053.0,223.1442,57353.10795,1004196184.3860393,1004138831.2780892,1006056104.5226418,0.0064615390488063,0.95,0.05,0.2,0.19,0.1914638523721849,0.1899932918211833,50229179.278089285,True
A2a_LLM_OPAQUE,2024-02-07,2024-02-08,139260,ETF_003,TIGER 200 IT,30771.0,30795.0,6199.0,6200.0,1.0,BUY,190749429.0,190780200.0,30771.0,30771.0,382354053.0,4.61565,57353.10795,1004196184.3860393,1004138831.2780892,1006056104.5226418,0.0064615390488063,0.95,0.05,0.2,0.19,0.1899523538984798,0.1899938475212345,50229179.278089285,True
A2a_LLM_OPAQUE,2024-02-07,2024-02-08,139270,ETF_004,TIGER 200 금융,6832.0,6977.0,28377.0,27925.0,-452.0,SELL,193871664.0,190783600.0,-3088064.0,3088064.0,382354053.0,463.2096,57353.10795,1004196184.3860393,1004138831.2780892,1006056104.5226418,0.0064615390488063,0.95,0.05,0.2,0.19,0.1930615421711965,0.1899972335072099,50229179.278089285,True
A2a_LLM_OPAQUE,2024-02-07,2024-02-08,227550,ETF_005,TIGER 200 산업재,6000.0,6019.0,0.0,31797.0,31797.0,BUY,0.0,190782000.0,190782000.0,190782000.0,382354053.0,28617.3,57353.10795,1004196184.3860393,1004138831.2780892,1006056104.5226418,0.0064615390488063,0.95,0.05,0.2,0.19,0.0,0.189995640102045,50229179.278089285,True
A2a_LLM_OPAQUE,2024-02-07,2024-02-08,266390,ETF_006,KODEX 경기소비재,8453.0,8362.0,22650.0,22570.0,-80.0,SELL,191460450.0,190784210.0,-676240.0,676240.0,382354053.0,101.436,57353.10795,1004196184.3860393,1004138831.2780892,1006056104.5226418,0.0064615390488063,0.95,0.05,0.2,0.19,0.190660403790578,0.189997840992929,50229179.278089285,True
A2a_LLM_OPAQUE,2024-02-07,2024-02-08,266410,ETF_007,KODEX 필수소비재,6036.0,5950.0,0.0,0.0,0.0,HOLD,0.0,0.0,0.0,0.0,382354053.0,0.0,57353.10795,1004196184.3860393,1004138831.2780892,1006056104.5226418,0.0064615390488063,0.95,0.05,0.0,0.0,0.0,0.0,50229179.278089285,True
A2a_LLM_OPAQUE,2024-02-07,2024-02-08,266420,ETF_008,KODEX 헬스케어,13468.0,13358.0,0.0,0.0,0.0,HOLD,0.0,0.0,0.0,0.0,382354053.0,0.0,57353.10795,1004196184.3860393,1004138831.2780892,1006056104.5226418,0.0064615390488063,0.95,0.05,0.0,0.0,0.0,0.0,50229179.278089285,True
A2a_LLM_OPAQUE,2024-02-07,2024-02-08,315270,ETF_009,TIGER 200 커뮤니케이션서비스,17265.0,17275.0,10790.0,0.0,-10790.0,SELL,186289350.0,0.0,-186289350.0,186289350.0,382354053.0,27943.4025,57353.10795,1004196184.3860393,1004138831.2780892,1006056104.5226418,0.0064615390488063,0.95,0.05,0.0,0.0,0.1855109120075938,0.0,50229179.278089285,True
A2a_LLM_OPAQUE,2024-02-08,2024-02-13,117460,ETF_001,KODEX 에너지화학,14857.0,15033.0,0.0,0.0,0.0,HOLD,0.0,0.0,0.0,0.0,7322110.0,0.0,1098.3165,1009398383.5226418,1009397285.2061418,1010486658.649577,0.00440388374666,0.95,0.05,0.0,0.0,0.0,0.0,50513714.20614183,True
A2a_LLM_OPAQUE,2024-02-08,2024-02-13,117680,ETF_002,KODEX 철강,8677.0,8616.0,22058.0,22102.0,44.0,BUY,191397266.0,191779054.0,381788.0,381788.0,7322110.0,57.26819999999999,1098.3165,1009398383.5226418,1009397285.2061418,1010486658.649577,0.00440388374666,0.95,0.05,0.2,0.19,0.1896151897252437,0.1899936296745977,50513714.20614183,True
A2a_LLM_OPAQUE,2024-02-08,2024-02-13,139260,ETF_003,TIGER 200 IT,30795.0,31360.0,6200.0,6227.0,27.0,BUY,190929000.0,191760465.0,831465.0,831465.0,7322110.0,124.71975,1098.3165,1009398383.5226418,1009397285.2061418,1010486658.649577,0.00440388374666,0.95,0.05,0.2,0.19,0.189151283692062,0.1899752137344397,50513714.20614183,True
A2a_LLM_OPAQUE,2024-02-08,2024-02-13,139270,ETF_004,TIGER 200 금융,6986.0,6964.0,27925.0,27452.0,-473.0,SELL,195084050.0,191779672.0,-3304378.0,3304378.0,7322110.0,495.6567,1098.3165,1009398383.5226418,1009397285.2061418,1010486658.649577,0.00440388374666,0.95,0.05,0.2,0.19,0.1932676465353424,0.1899942419211423,50513714.20614183,True
A2a_LLM_OPAQUE,2024-02-08,2024-02-13,227550,ETF_005,TIGER 200 산업재,6047.0,6080.0,31797.0,31715.0,-82.0,SELL,192276459.0,191780605.0,-495854.0,495854.0,7322110.0,74.3781,1098.3165,1009398383.5226418,1009397285.2061418,1010486658.649577,0.00440388374666,0.95,0.05,0.2,0.19,0.1904861966679452,0.1899951662351004,50513714.20614183,True
A2a_LLM_OPAQUE,2024-02-08,2024-02-13,266390,ETF_006,KODEX 경기소비재,8395.0,8328.0,22570.0,22845.0,275.0,BUY,189475150.0,191783775.0,2308625.0,2308625.0,7322110.0,346.29375,1098.3165,1009398383.5226418,1009397285.2061418,1010486658.649577,0.00440388374666,0.95,0.05,0.2,0.19,0.1877109703096229,0.1899983067230395,50513714.20614183,True
A2a_LLM_OPAQUE,2024-02-08,2024-02-13,266410,ETF_007,KODEX 필수소비재,6008.0,5927.0,0.0,0.0,0.0,HOLD,0.0,0.0,0.0,0.0,7322110.0,0.0,1098.3165,1009398383.5226418,1009397285.2061418,1010486658.649577,0.00440388374666,0.95,0.05,0.0,0.0,0.0,0.0,50513714.20614183,True
A2a_LLM_OPAQUE,2024-02-08,2024-02-13,266420,ETF_008,KODEX 헬스케어,13388.0,13801.0,0.0,0.0,0.0,HOLD,0.0,0.0,0.0,0.0,7322110.0,0.0,1098.3165,1009398383.5226418,1009397285.2061418,1010486658.649577,0.00440388374666,0.95,0.05,0.0,0.0,0.0,0.0,50513714.20614183,True
A2a_LLM_OPAQUE,2024-02-08,2024-02-13,315270,ETF_009,TIGER 200 커뮤니케이션서비스,17452.0,17471.0,0.0,0.0,0.0,HOLD,0.0,0.0,0.0,0.0,7322110.0,0.0,1098.3165,1009398383.5226418,1009397285.2061418,1010486658.649577,0.00440388374666,0.95,0.05,0.0,0.0,0.0,0.0,50513714.20614183,True
A2a_LLM_OPAQUE,2024-02-13,2024-02-14,117460,ETF_001,KODEX 에너지화학,14636.0,14891.0,0.0,0.0,0.0,HOLD,0.0,0.0,0.0,0.0,380954715.0,0.0,57143.20724999999,997063002.649577,997005859.442327,997075191.7381648,-0.0132722849892302,0.95,0.05,0.0,0.0,0.0,0.0,49921116.44232702,True
A2a_LLM_OPAQUE,2024-02-13,2024-02-14,117680,ETF_002,KODEX 철강,8508.0,8541.0,22102.0,16698.0,-5404.0,SELL,188043816.0,142066584.0,-45977232.0,45977232.0,380954715.0,6896.584799999999,57143.20724999999,997063002.649577,997005859.442327,997075191.7381648,-0.0132722849892302,0.95,0.05,0.15,0.1425,0.1885977270245669,0.1424932287554103,49921116.44232702,True
A2a_LLM_OPAQUE,2024-02-13,2024-02-14,139260,ETF_003,TIGER 200 IT,30883.0,30922.0,6227.0,6133.0,-94.0,SELL,192308441.0,189405439.0,-2903002.0,2903002.0,380954715.0,435.4503,57143.20724999999,997063002.649577,997005859.442327,997075191.7381648,-0.0132722849892302,0.95,0.05,0.1999999999999999,0.1899999999999999,0.1928749141117091,0.1899742486026546,49921116.44232702,True
A2a_LLM_OPAQUE,2024-02-13,2024-02-14,139270,ETF_004,TIGER 200 금융,6941.0,6827.0,27452.0,20468.0,-6984.0,SELL,190544332.0,142068388.0,-48475944.0,48475944.0,380954715.0,7271.391599999999,57143.20724999999,997063002.649577,997005859.442327,997075191.7381648,-0.0132722849892302,0.95,0.05,0.15,0.1425,0.1911056086663039,0.1424950381730611,49921116.44232702,True
A2a_LLM_OPAQUE,2024-02-13,2024-02-14,227550,ETF_005,TIGER 200 산업재,5914.0,5962.0,31715.0,16015.0,-15700.0,SELL,187562510.0,94712710.0,-92849800.0,92849800.0,380954715.0,13927.469999999998,57143.20724999999,997063002.649577,997005859.442327,997075191.7381648,-0.0132722849892302,0.95,0.05,0.0999999999999999,0.0949999999999999,0.1881150032661675,0.0949971448041211,49921116.44232702,True
A2a_LLM_OPAQUE,2024-02-13,2024-02-14,266390,ETF_006,KODEX 경기소비재,8233.0,8214.0,22845.0,23008.0,163.0,BUY,188082885.0,189424864.0,1341979.0,1341979.0,380954715.0,201.29684999999995,57143.20724999999,997063002.649577,997005859.442327,997075191.7381648,-0.0132722849892302,0.95,0.05,0.1999999999999999,0.1899999999999999,0.1886369111081165,0.1899937319385007,49921116.44232702,True
A2a_LLM_OPAQUE,2024-02-13,2024-02-14,266410,ETF_007,KODEX 필수소비재,5898.0,5879.0,0.0,8029.0,8029.0,BUY,0.0,47355042.0,47355042.0,47355042.0,380954715.0,7103.256299999999,57143.20724999999,997063002.649577,997005859.442327,997075191.7381648,-0.0132722849892302,0.95,0.05,0.0499999999999999,0.0474999999999999,0.0,0.0474972554589477,49921116.44232702,True
A2a_LLM_OPAQUE,2024-02-13,2024-02-14,266420,ETF_008,KODEX 헬스케어,13527.0,13607.0,0.0,3500.0,3500.0,BUY,0.0,47344500.0,47344500.0,47344500.0,380954715.0,7101.674999999998,57143.20724999999,997063002.649577,997005859.442327,997075191.7381648,-0.0132722849892302,0.95,0.05,0.0499999999999999,0.0474999999999999,0.0,0.0474866817999264,49921116.44232702,True
A2a_LLM_OPAQUE,2024-02-13,2024-02-14,315270,ETF_009,TIGER 200 커뮤니케이션서비스,17352.0,17562.0,0.0,5458.0,5458.0,BUY,0.0,94707216.0,94707216.0,94707216.0,380954715.0,14206.0824,57143.20724999999,997063002.649577,997005859.442327,997075191.7381648,-0.0132722849892302,0.95,0.05,0.0999999999999999,0.0949999999999999,0.0,0.0949916343049119,49921116.44232702,True
A2a_LLM_OPAQUE,2024-02-14,2024-02-15,117460,ETF_001,KODEX 에너지화학,14940.0,15156.0,0.0,6376.0,6376.0,BUY,0.0,95257440.0,95257440.0,95257440.0,201795982.0,14288.615999999998,30269.3973,1002842984.7381648,1002812715.3408648,998909423.0619364,0.0018396118356671,0.95,0.05,0.0999999999999999,0.0949999999999999,0.0,0.0949902594400402,50191863.34086478,True
A2a_LLM_OPAQUE,2024-02-14,2024-02-15,117680,ETF_002,KODEX 철강,8602.0,8555.0,16698.0,16612.0,-86.0,SELL,143636196.0,142896424.0,-739772.0,739772.0,201795982.0,110.96579999999996,30269.3973,1002842984.7381648,1002812715.3408648,998909423.0619364,0.0018396118356671,0.95,0.05,0.15,0.1425,0.1432289981442133,0.1424956243713246,50191863.34086478,True
A2a_LLM_OPAQUE,2024-02-14,2024-02-15,139260,ETF_003,TIGER 200 IT,31082.0,30785.0,6133.0,6130.0,-3.0,SELL,190625906.0,190532660.0,-93246.0,93246.0,201795982.0,13.9869,30269.3973,1002842984.7381648,1002812715.3408648,998909423.0619364,0.0018396118356671,0.95,0.05,0.1999999999999999,0.1899999999999999,0.1900854958363906,0.1899982490102713,50191863.34086478,True
A2a_LLM_OPAQUE,2024-02-14,2024-02-15,139270,ETF_004,TIGER 200 금융,6791.0,6755.0,20468.0,21042.0,574.0,BUY,138998188.0,142896222.0,3898034.0,3898034.0,201795982.0,584.7050999999999,30269.3973,1002842984.7381648,1002812715.3408648,998909423.0619364,0.0018396118356671,0.95,0.05,0.15,0.1425,0.1386041385494574,0.1424954229378995,50191863.34086478,True
A2a_LLM_OPAQUE,2024-02-14,2024-02-15,227550,ETF_005,TIGER 200 산업재,6104.0,6109.0,16015.0,0.0,-16015.0,SELL,97755560.0,0.0,-97755560.0,97755560.0,201795982.0,14663.334,30269.3973,1002842984.7381648,1002812715.3408648,998909423.0619364,0.0018396118356671,0.95,0.05,0.0,0.0,0.0974784303103274,0.0,50191863.34086478,True
A2a_LLM_OPAQUE,2024-02-14,2024-02-15,266390,ETF_006,KODEX 경기소비재,8219.0,8157.0,23008.0,23182.0,174.0,BUY,189102752.0,190532858.0,1430106.0,1430106.0,201795982.0,214.5159,30269.3973,1002842984.7381648,1002812715.3408648,998909423.0619364,0.0018396118356671,0.95,0.05,0.1999999999999999,0.1899999999999999,0.1885666598638802,0.1899984464549158,50191863.34086478,True
A2a_LLM_OPAQUE,2024-02-14,2024-02-15,266410,ETF_007,KODEX 필수소비재,5912.0,5898.0,8029.0,8057.0,28.0,BUY,47467448.0,47632984.0,165536.0,165536.0,201795982.0,24.8304,30269.3973,1002842984.7381648,1002812715.3408648,998909423.0619364,0.0018396118356671,0.95,0.05,0.0499999999999999,0.0474999999999999,0.0473328813407349,0.0474993817602413,50191863.34086478,True
A2a_LLM_OPAQUE,2024-02-14,2024-02-15,266420,ETF_008,KODEX 헬스케어,13696.0,13498.0,3500.0,3477.0,-23.0,SELL,47936000.0,47620992.0,-315008.0,315008.0,201795982.0,47.25119999999999,30269.3973,1002842984.7381648,1002812715.3408648,998909423.0619364,0.0018396118356671,0.95,0.05,0.0499999999999999,0.0474999999999999,0.0478001050309144,0.0474874233957167,50191863.34086478,True
A2a_LLM_OPAQUE,2024-02-14,2024-02-15,315270,ETF_009,TIGER 200 커뮤니케이션서비스,17844.0,17902.0,5458.0,5338.0,-120.0,SELL,97392552.0,95251272.0,-2141280.0,2141280.0,201795982.0,321.19199999999995,30269.3973,1002842984.7381648,1002812715.3408648,998909423.0619364,0.0018396118356671,0.95,0.05,0.0999999999999999,0.0949999999999999,0.0971164514108143,0.094984108740208,50191863.34086478,True
A2a_LLM_OPAQUE,2024-02-15,2024-02-16,117460,ETF_001,KODEX 에너지화학,15249.0,15425.0,6376.0,6280.0,-96.0,SELL,97227624.0,95763720.0,-1463904.0,1463904.0,194967196.0,219.5856,29245.0794,1008086909.0619364,1008057663.9825366,1015007972.5283068,0.0161161253409982,0.95,0.05,0.1,0.095,0.0964476605399766,0.094998255974431,50430851.98253656,True
A2a_LLM_OPAQUE,2024-02-15,2024-02-16,117680,ETF_002,KODEX 철강,8649.0,8794.0,16612.0,16608.0,-4.0,SELL,143677188.0,143642592.0,-34596.0,34596.0,194967196.0,5.1894,29245.0794,1008086909.0619364,1008057663.9825366,1015007972.5283068,0.0161161253409982,0.95,0.05,0.15,0.1425,0.1425246044844458,0.1424944198454985,50430851.98253656,True
A2a_LLM_OPAQUE,2024-02-15,2024-02-16,139260,ETF_003,TIGER 200 IT,31131.0,31238.0,6130.0,6152.0,22.0,BUY,190833030.0,191517912.0,684882.0,684882.0,194967196.0,102.7323,29245.0794,1008086909.0619364,1008057663.9825366,1015007972.5283068,0.0161161253409982,0.95,0.05,0.2,0.19,0.1893021606416627,0.1899870601086148,50430851.98253656,True
A2a_LLM_OPAQUE,2024-02-15,2024-02-16,139270,ETF_004,TIGER 200 금융,6877.0,6977.0,21042.0,20888.0,-154.0,SELL,144705834.0,143646776.0,-1059058.0,1059058.0,194967196.0,158.8587,29245.0794,1008086909.0619364,1008057663.9825366,1015007972.5283068,0.0161161253409982,0.95,0.05,0.15,0.1425,0.1435449986496247,0.1424985704017111,50430851.98253656,True
A2a_LLM_OPAQUE,2024-02-15,2024-02-16,227550,ETF_005,TIGER 200 산업재,6123.0,6166.0,0.0,15640.0,15640.0,BUY,0.0,95763720.0,95763720.0,95763720.0,194967196.0,14364.558,29245.0794,1008086909.0619364,1008057663.9825366,1015007972.5283068,0.0161161253409982,0.95,0.05,0.1,0.095,0.0,0.094998255974431,50430851.98253656,True
A2a_LLM_OPAQUE,2024-02-15,2024-02-16,266390,ETF_006,KODEX 경기소비재,8223.0,8223.0,23182.0,23292.0,110.0,BUY,190625586.0,191530116.0,904530.0,904530.0,194967196.0,135.6795,29245.0794,1008086909.0619364,1008057663.9825366,1015007972.5283068,0.0161161253409982,0.95,0.05,0.2,0.19,0.1890963807648136,0.1899991665589063,50430851.98253656,True
A2a_LLM_OPAQUE,2024-02-15,2024-02-16,266410,ETF_007,KODEX 필수소비재,5960.0,5955.0,8057.0,8034.0,-23.0,SELL,48019720.0,47882640.0,-137080.0,137080.0,194967196.0,20.562,29245.0794,1008086909.0619364,1008057663.9825366,1015007972.5283068,0.0161161253409982,0.95,0.05,0.05,0.0475,0.0476345040971558,0.047499901752475,50430851.98253656,True
A2a_LLM_OPAQUE,2024-02-15,2024-02-16,266420,ETF_008,KODEX 헬스케어,13572.0,13612.0,3477.0,1411.0,-2066.0,SELL,47189844.0,19150092.0,-28039752.0,28039752.0,194967196.0,4205.962799999999,29245.0794,1008086909.0619364,1008057663.9825366,1015007972.5283068,0.0161161253409982,0.95,0.05,0.02,0.019,0.0468112853919628,0.0189970203930037,50430851.98253656,True
A2a_LLM_OPAQUE,2024-02-15,2024-02-16,315270,ETF_009,TIGER 200 커뮤니케이션서비스,17911.0,17907.0,5338.0,1604.0,-3734.0,SELL,95608918.0,28729244.0,-66879674.0,66879674.0,194967196.0,10031.9511,29245.0794,1008086909.0619364,1008057663.9825366,1015007972.5283068,0.0161161253409982,0.95,0.05,0.03,0.0284999999999999,0.0948419398571178,0.0284996037691924,50430851.98253656,True
A2a_LLM_OPAQUE,2024-02-16,2024-02-19,117460,ETF_001,KODEX 에너지화학,15425.0,15533.0,6280.0,6270.0,-10.0,SELL,96869000.0,96714750.0,-154250.0,154250.0,193979100.0,23.1375,29096.865,1018168334.5283068,1018139237.6633068,1029441422.6641568,0.0142200362228657,0.95,0.05,0.0999999999999999,0.0949999999999999,0.0951404563616458,0.0949916734590903,50957437.66330683,True
A2a_LLM_OPAQUE,2024-02-16,2024-02-19,117680,ETF_002,KODEX 철강,8794.0,8915.0,16608.0,16498.0,-110.0,SELL,146050752.0,145083412.0,-967340.0,967340.0,193979100.0,145.101,29096.865,1018168334.5283068,1018139237.6633068,1029441422.6641568,0.0142200362228657,0.95,0.05,0.1499999999999999,0.1424999999999999,0.1434446024759371,0.1424985960986785,50957437.66330683,True
A2a_LLM_OPAQUE,2024-02-16,2024-02-19,139260,ETF_003,TIGER 200 IT,31233.0,31720.0,6152.0,4645.0,-1507.0,SELL,192145416.0,145077285.0,-47068131.0,47068131.0,193979100.0,7060.21965,29096.865,1018168334.5283068,1018139237.6633068,1029441422.6641568,0.0142200362228657,0.95,0.05,0.1499999999999999,0.1424999999999999,0.1887167470092422,0.1424925782577257,50957437.66330683,True
A2a_LLM_OPAQUE,2024-02-16,2024-02-19,139270,ETF_004,TIGER 200 금융,6977.0,7154.0,20888.0,27726.0,6838.0,BUY,145735576.0,193444302.0,47708726.0,47708726.0,193979100.0,7156.3089,29096.865,1018168334.5283068,1018139237.6633068,1029441422.6641568,0.0142200362228657,0.95,0.05,0.1999999999999999,0.1899999999999999,0.1431350505194367,0.1899978852047454,50957437.66330683,True
A2a_LLM_OPAQUE,2024-02-16,2024-02-19,227550,ETF_005,TIGER 200 산업재,6209.0,6185.0,15640.0,15577.0,-63.0,SELL,97108760.0,96717593.0,-391167.0,391167.0,193979100.0,58.67505,29096.865,1018168334.5283068,1018139237.6633068,1029441422.6641568,0.0142200362228657,0.95,0.05,0.0999999999999999,0.0949999999999999,0.0953759380515287,0.0949944658080096,50957437.66330683,True
A2a_LLM_OPAQUE,2024-02-16,2024-02-19,266390,ETF_006,KODEX 경기소비재,8319.0,8362.0,23292.0,17440.0,-5852.0,SELL,193766148.0,145083360.0,-48682788.0,48682788.0,193979100.0,7302.418199999999,29096.865,1018168334.5283068,1018139237.6633068,1029441422.6641568,0.0142200362228657,0.95,0.05,0.1499999999999999,0.1424999999999999,0.1903085584465433,0.142498545025114,50957437.66330683,True
A2a_LLM_OPAQUE,2024-02-16,2024-02-19,266410,ETF_007,KODEX 필수소비재,5974.0,6008.0,8034.0,8095.0,61.0,BUY,47995116.0,48359530.0,364414.0,364414.0,193979100.0,54.6621,29096.865,1018168334.5283068,1018139237.6633068,1029441422.6641568,0.0142200362228657,0.95,0.05,0.0499999999999999,0.0474999999999999,0.0471386846088029,0.0474979533359191,50957437.66330683,True
A2a_LLM_OPAQUE,2024-02-16,2024-02-19,266420,ETF_008,KODEX 헬스케어,13612.0,13801.0,1411.0,3552.0,2141.0,BUY,19206532.0,48349824.0,29143292.0,29143292.0,193979100.0,4371.4938,29096.865,1018168334.5283068,1018139237.6633068,1029441422.6641568,0.0142200362228657,0.95,0.05,0.0499999999999999,0.0474999999999999,0.0188638080253182,0.0474884202586729,50957437.66330683,True
A2a_LLM_OPAQUE,2024-02-16,2024-02-19,315270,ETF_009,TIGER 200 커뮤니케이션서비스,17988.0,18036.0,1604.0,2688.0,1084.0,BUY,28852752.0,48351744.0,19498992.0,19498992.0,193979100.0,2924.8488,29096.865,1018168334.5283068,1018139237.6633068,1029441422.6641568,0.0142200362228657,0.95,0.05,0.0499999999999999,0.0474999999999999,0.0283378995609471,0.0474903060518228,50957437.66330683,True
A2a_LLM_OPAQUE,2024-02-19,2024-02-20,117460,ETF_001,KODEX 에너지화학,15533.0,15504.0,6270.0,6309.0,39.0,BUY,97391910.0,97997697.0,605787.0,605787.0,104416129.0,90.86804999999998,15662.419349999998,1031573394.6641568,1031557732.2448068,1020582627.7002876,-0.0086054386085835,0.95,0.05,0.0999999999999999,0.0949999999999999,0.094411033188489,0.0949997212339671,51604434.24480677,True
A2a_LLM_OPAQUE,2024-02-19,2024-02-20,117680,ETF_002,KODEX 철강,8906.0,8892.0,16498.0,16505.0,7.0,BUY,146931188.0,146993530.0,62342.0,62342.0,104416129.0,9.351299999999998,15662.419349999998,1031573394.6641568,1031557732.2448068,1020582627.7002876,-0.0086054386085835,0.95,0.05,0.15,0.1425,0.1424340611729672,0.1424966586020566,51604434.24480677,True
A2a_LLM_OPAQUE,2024-02-19,2024-02-20,139260,ETF_003,TIGER 200 IT,31686.0,31394.0,4645.0,4639.0,-6.0,SELL,147181470.0,146991354.0,-190116.0,190116.0,104416129.0,28.5174,15662.419349999998,1031573394.6641568,1031557732.2448068,1020582627.7002876,-0.0086054386085835,0.95,0.05,0.15,0.1425,0.1426766827850547,0.1424945491709196,51604434.24480677,True
A2a_LLM_OPAQUE,2024-02-19,2024-02-20,139270,ETF_004,TIGER 200 금융,7254.0,6973.0,27726.0,27019.0,-707.0,SELL,201124404.0,195995826.0,-5128578.0,5128578.0,104416129.0,769.2867,15662.419349999998,1031573394.6641568,1031557732.2448068,1020582627.7002876,-0.0086054386085835,0.95,0.05,0.1999999999999999,0.1899999999999999,0.1949685839517787,0.1899998612520571,51604434.24480677,True
A2a_LLM_OPAQUE,2024-02-19,2024-02-20,227550,ETF_005,TIGER 200 산업재,6175.0,6237.0,15577.0,7935.0,-7642.0,SELL,96187975.0,48998625.0,-47189350.0,47189350.0,104416129.0,7078.402499999998,15662.419349999998,1031573394.6641568,1031557732.2448068,1020582627.7002876,-0.0086054386085835,0.95,0.05,0.0499999999999999,0.0474999999999999,0.0932439470594483,0.0474996439543645,51604434.24480677,True
A2a_LLM_OPAQUE,2024-02-19,2024-02-20,266390,ETF_006,KODEX 경기소비재,8324.0,8266.0,17440.0,17659.0,219.0,BUY,145170560.0,146993516.0,1822956.0,1822956.0,104416129.0,273.4434,15662.419349999998,1031573394.6641568,1031557732.2448068,1020582627.7002876,-0.0086054386085835,0.95,0.05,0.15,0.1425,0.1407273207615657,0.1424966450303489,51604434.24480677,True
A2a_LLM_OPAQUE,2024-02-19,2024-02-20,266410,ETF_007,KODEX 필수소비재,6022.0,5989.0,8095.0,8136.0,41.0,BUY,48748090.0,48994992.0,246902.0,246902.0,104416129.0,37.0353,15662.419349999998,1031573394.6641568,1031557732.2448068,1020582627.7002876,-0.0086054386085835,0.95,0.05,0.0499999999999999,0.0474999999999999,0.0472560558968958,0.0474961220962208,51604434.24480677,True
A2a_LLM_OPAQUE,2024-02-19,2024-02-20,266420,ETF_008,KODEX 헬스케어,13801.0,13831.0,3552.0,3550.0,-2.0,SELL,49021152.0,48993550.0,-27602.0,27602.0,104416129.0,4.140299999999999,15662.419349999998,1031573394.6641568,1031557732.2448068,1020582627.7002876,-0.0086054386085835,0.95,0.05,0.0499999999999999,0.0474999999999999,0.04752076028091,0.0474947242103294,51604434.24480677,True
A2a_LLM_OPAQUE,2024-02-19,2024-02-20,315270,ETF_009,TIGER 200 커뮤니케이션서비스,18174.0,18002.0,2688.0,5392.0,2704.0,BUY,48851712.0,97994208.0,49142496.0,49142496.0,104416129.0,7371.374399999999,15662.419349999998,1031573394.6641568,1031557732.2448068,1020582627.7002876,-0.0086054386085835,0.95,0.05,0.0999999999999999,0.0949999999999999,0.0473565063355519,0.094996338970531,51604434.24480677,True
A2a_LLM_OPAQUE,2024-02-20,2024-02-21,117460,ETF_001,KODEX 에너지화학,15278.0,15489.0,6309.0,15864.0,9555.0,BUY,96388902.0,242370192.0,145981290.0,145981290.0,782201031.0,21897.1935,117330.15465,1020657144.7002876,1020539814.5456376,1023730811.5355276,0.0030846927527405,0.95,0.05,0.25,0.2375,0.0944380808976791,0.2374921473376396,51041836.54563749,True
A2a_LLM_OPAQUE,2024-02-20,2024-02-21,117680,ETF_002,KODEX 철강,8892.0,8948.0,16505.0,27258.0,10753.0,BUY,146762460.0,242378136.0,95615676.0,95615676.0,782201031.0,14342.3514,117330.15465,1020657144.7002876,1020539814.5456376,1023730811.5355276,0.0030846927527405,0.95,0.05,0.25,0.2375,0.143792125261707,0.2374999314533466,51041836.54563749,True
A2a_LLM_OPAQUE,2024-02-20,2024-02-21,139260,ETF_003,TIGER 200 IT,31477.0,31442.0,4639.0,7700.0,3061.0,BUY,146021803.0,242372900.0,96351097.0,96351097.0,782201031.0,14452.66455,117330.15465,1020657144.7002876,1020539814.5456376,1023730811.5355276,0.0030846927527405,0.95,0.05,0.25,0.2375,0.143066458465716,0.23749480083529,51041836.54563749,True
A2a_LLM_OPAQUE,2024-02-20,2024-02-21,139270,ETF_004,TIGER 200 금융,6995.0,6954.0,27019.0,34650.0,7631.0,BUY,188997905.0,242376750.0,53378845.0,53378845.0,782201031.0,8006.826749999999,117330.15465,1020657144.7002876,1020539814.5456376,1023730811.5355276,0.0030846927527405,0.95,0.05,0.25,0.2375,0.1851727644110095,0.2374985733485669,51041836.54563749,True
A2a_LLM_OPAQUE,2024-02-20,2024-02-21,227550,ETF_005,TIGER 200 산업재,6242.0,6275.0,7935.0,0.0,-7935.0,SELL,49530270.0,0.0,-49530270.0,49530270.0,782201031.0,7429.540499999999,117330.15465,1020657144.7002876,1020539814.5456376,1023730811.5355276,0.0030846927527405,0.95,0.05,0.0,0.0,0.0485278237233565,0.0,51041836.54563749,True
A2a_LLM_OPAQUE,2024-02-20,2024-02-21,266390,ETF_006,KODEX 경기소비재,8309.0,8333.0,17659.0,0.0,-17659.0,SELL,146728631.0,0.0,-146728631.0,146728631.0,782201031.0,22009.29465,117330.15465,1020657144.7002876,1020539814.5456376,1023730811.5355276,0.0030846927527405,0.95,0.05,0.0,0.0,0.1437589809289841,0.0,51041836.54563749,True
A2a_LLM_OPAQUE,2024-02-20,2024-02-21,266410,ETF_007,KODEX 필수소비재,6008.0,5974.0,8136.0,0.0,-8136.0,SELL,48881088.0,0.0,-48881088.0,48881088.0,782201031.0,7332.163199999999,117330.15465,1020657144.7002876,1020539814.5456376,1023730811.5355276,0.0030846927527405,0.95,0.05,0.0,0.0,0.0478917805590375,0.0,51041836.54563749,True
A2a_LLM_OPAQUE,2024-02-20,2024-02-21,266420,ETF_008,KODEX 헬스케어,13861.0,13821.0,3550.0,0.0,-3550.0,SELL,49206550.0,0.0,-49206550.0,49206550.0,782201031.0,7380.982499999999,117330.15465,1020657144.7002876,1020539814.5456376,1023730811.5355276,0.0030846927527405,0.95,0.05,0.0,0.0,0.0482106555129728,0.0,51041836.54563749,True
A2a_LLM_OPAQUE,2024-02-20,2024-02-21,315270,ETF_009,TIGER 200 커뮤니케이션서비스,17902.0,17816.0,5392.0,0.0,-5392.0,SELL,96527584.0,0.0,-96527584.0,96527584.0,782201031.0,14479.1376,117330.15465,1020657144.7002876,1020539814.5456376,1023730811.5355276,0.0030846927527405,0.95,0.05,0.0,0.0,0.0945739561038834,0.0,51041836.54563749,True
A2a_LLM_OPAQUE,2024-02-21,2024-02-22,117460,ETF_001,KODEX 에너지화학,15401.0,15210.0,15864.0,9505.0,-6359.0,SELL,244321464.0,146386505.0,-97934959.0,97934959.0,683626845.0,14690.24385,102544.02675,1027472681.5355276,1027370137.5087776,1022164289.652076,-0.0015302087871145,0.95,0.05,0.15,0.1425,0.237788768879839,0.142486626441144,51434262.5087775,True
A2a_LLM_OPAQUE,2024-02-21,2024-02-22,117680,ETF_002,KODEX 철강,8967.0,8883.0,27258.0,16326.0,-10932.0,SELL,244422486.0,146395242.0,-98027244.0,98027244.0,683626845.0,14704.086599999997,102544.02675,1027472681.5355276,1027370137.5087776,1022164289.652076,-0.0015302087871145,0.95,0.05,0.15,0.1425,0.2378870897421018,0.1424951306789849,51434262.5087775,True
A2a_LLM_OPAQUE,2024-02-21,2024-02-22,139260,ETF_003,TIGER 200 IT,31817.0,32002.0,7700.0,4601.0,-3099.0,SELL,244990900.0,146390017.0,-98600883.0,98600883.0,683626845.0,14790.13245,102544.02675,1027472681.5355276,1027370137.5087776,1022164289.652076,-0.0015302087871145,0.95,0.05,0.15,0.1425,0.2384403054238565,0.1424900448780557,51434262.5087775,True
A2a_LLM_OPAQUE,2024-02-21,2024-02-22,139270,ETF_004,TIGER 200 금융,7004.0,6950.0,34650.0,27869.0,-6781.0,SELL,242688600.0,195194476.0,-47494124.0,47494124.0,683626845.0,7124.118599999999,102544.02675,1027472681.5355276,1027370137.5087776,1022164289.652076,-0.0015302087871145,0.95,0.05,0.2,0.19,0.2361995645833708,0.1899943057263841,51434262.5087775,True
A2a_LLM_OPAQUE,2024-02-21,2024-02-22,227550,ETF_005,TIGER 200 산업재,6323.0,6323.0,0.0,7717.0,7717.0,BUY,0.0,48794591.0,48794591.0,48794591.0,683626845.0,7319.188649999999,102544.02675,1027472681.5355276,1027370137.5087776,1022164289.652076,-0.0015302087871145,0.95,0.05,0.05,0.0475,0.0,0.0474946557414251,51434262.5087775,True
A2a_LLM_OPAQUE,2024-02-21,2024-02-22,266390,ETF_006,KODEX 경기소비재,8290.0,8305.0,0.0,11773.0,11773.0,BUY,0.0,97598170.0,97598170.0,97598170.0,683626845.0,14639.7255,102544.02675,1027472681.5355276,1027370137.5087776,1022164289.652076,-0.0015302087871145,0.95,0.05,0.1,0.095,0.0,0.0949980600338075,51434262.5087775,True
A2a_LLM_OPAQUE,2024-02-21,2024-02-22,266410,ETF_007,KODEX 필수소비재,6041.0,5955.0,0.0,8078.0,8078.0,BUY,0.0,48799198.0,48799198.0,48799198.0,683626845.0,7319.879699999999,102544.02675,1027472681.5355276,1027370137.5087776,1022164289.652076,-0.0015302087871145,0.95,0.05,0.05,0.0475,0.0,0.0474991400064741,51434262.5087775,True
A2a_LLM_OPAQUE,2024-02-21,2024-02-22,266420,ETF_008,KODEX 헬스케어,13811.0,13796.0,0.0,7066.0,7066.0,BUY,0.0,97588526.0,97588526.0,97588526.0,683626845.0,14638.2789,102544.02675,1027472681.5355276,1027370137.5087776,1022164289.652076,-0.0015302087871145,0.95,0.05,0.1,0.095,0.0,0.0949886729593269,51434262.5087775,True
A2a_LLM_OPAQUE,2024-02-21,2024-02-22,315270,ETF_009,TIGER 200 커뮤니케이션서비스,18050.0,17773.0,0.0,2703.0,2703.0,BUY,0.0,48789150.0,48789150.0,48789150.0,683626845.0,7318.372499999999,102544.02675,1027472681.5355276,1027370137.5087776,1022164289.652076,-0.0015302087871145,0.95,0.05,0.05,0.0475,0.0,0.0474893596949455,51434262.5087775,True
A2a_LLM_OPAQUE,2024-02-22,2024-02-23,117460,ETF_001,KODEX 에너지화학,15102.0,15058.0,9505.0,9661.0,156.0,BUY,143544510.0,145900422.0,2355912.0,2355912.0,203793530.0,353.38679999999994,30569.0295,1023998816.652076,1023968247.622576,1027268099.0629483,0.0049931400094302,0.95,0.05,0.15,0.1425,0.140180347541136,0.1424852990693295,51262023.62257588,True
A2a_LLM_OPAQUE,2024-02-22,2024-02-23,117680,ETF_002,KODEX 철강,8887.0,8850.0,16326.0,16418.0,92.0,BUY,145089162.0,145906766.0,817604.0,817604.0,203793530.0,122.6406,30569.0295,1023998816.652076,1023968247.622576,1027268099.0629483,0.0049931400094302,0.95,0.05,0.15,0.1425,0.1416887985030718,0.1424914945739408,51262023.62257588,True
A2a_LLM_OPAQUE,2024-02-22,2024-02-23,139260,ETF_003,TIGER 200 IT,32508.0,31988.0,4601.0,2992.0,-1609.0,SELL,149569308.0,97263936.0,-52305372.0,52305372.0,203793530.0,7845.805799999999,30569.0295,1023998816.652076,1023968247.622576,1027268099.0629483,0.0049931400094302,0.95,0.05,0.1,0.095,0.1460639461371752,0.0949872578820925,51262023.62257588,True
A2a_LLM_OPAQUE,2024-02-22,2024-02-23,139270,ETF_004,TIGER 200 금융,6959.0,7118.0,27869.0,27957.0,88.0,BUY,193940371.0,194552763.0,612392.0,612392.0,203793530.0,91.8588,30569.0295,1023998816.652076,1023968247.622576,1027268099.0629483,0.0049931400094302,0.95,0.05,0.2,0.19,0.1893951124221808,0.1899988241351309,51262023.62257588,True
A2a_LLM_OPAQUE,2024-02-22,2024-02-23,227550,ETF_005,TIGER 200 산업재,6285.0,6261.0,7717.0,0.0,-7717.0,SELL,48501345.0,0.0,-48501345.0,48501345.0,203793530.0,7275.201749999998,30569.0295,1023998816.652076,1023968247.622576,1027268099.0629483,0.0049931400094302,0.95,0.05,0.0,0.0,0.0473646494617769,0.0,51262023.62257588,True
A2a_LLM_OPAQUE,2024-02-22,2024-02-23,266390,ETF_006,KODEX 경기소비재,8266.0,8281.0,11773.0,17652.0,5879.0,BUY,97315618.0,145911432.0,48595814.0,48595814.0,203793530.0,7289.3721,30569.0295,1023998816.652076,1023968247.622576,1027268099.0629483,0.0049931400094302,0.95,0.05,0.15,0.1425,0.0950348930267025,0.1424960513558633,51262023.62257588,True
A2a_LLM_OPAQUE,2024-02-22,2024-02-23,266410,ETF_007,KODEX 필수소비재,5993.0,5970.0,8078.0,8115.0,37.0,BUY,48411454.0,48633195.0,221741.0,221741.0,203793530.0,33.261149999999994,30569.0295,1023998816.652076,1023968247.622576,1027268099.0629483,0.0049931400094302,0.95,0.05,0.05,0.0475,0.0472768651806447,0.0474948272203902,51262023.62257588,True
A2a_LLM_OPAQUE,2024-02-22,2024-02-23,266420,ETF_008,KODEX 헬스케어,13910.0,14119.0,7066.0,6993.0,-73.0,SELL,98288060.0,97272630.0,-1015430.0,1015430.0,203793530.0,152.31449999999998,30569.0295,1023998816.652076,1023968247.622576,1027268099.0629483,0.0049931400094302,0.95,0.05,0.1,0.095,0.0959845445147573,0.0949957483797424,51262023.62257588,True
A2a_LLM_OPAQUE,2024-02-22,2024-02-23,315270,ETF_009,TIGER 200 커뮤니케이션서비스,17720.0,17701.0,2703.0,5489.0,2786.0,BUY,47897160.0,97265080.0,49367920.0,49367920.0,203793530.0,7405.187999999999,30569.0295,1023998816.652076,1023968247.622576,1027268099.0629483,0.0049931400094302,0.95,0.05,0.1,0.095,0.0467746243658736,0.0949883751042355,51262023.62257588,True
A2a_LLM_OPAQUE,2024-02-23,2024-02-26,117460,ETF_001,KODEX 에너지화학,15117.0,15014.0,9661.0,7186.0,-2475.0,SELL,146045337.0,108630762.0,-37414575.0,37414575.0,403863053.0,5612.18625,60579.45795,1029264460.0629483,1029203880.6049984,1020900047.882734,-0.0061990158032,0.95,0.05,0.1111111111111111,0.1055555555555555,0.1418929173859438,0.1055483408555974,51531092.60499847,True
A2a_LLM_OPAQUE,2024-02-23,2024-02-26,117680,ETF_002,KODEX 철강,8883.0,8798.0,16418.0,12229.0,-4189.0,SELL,145841094.0,108630207.0,-37210887.0,37210887.0,403863053.0,5581.63305,60579.45795,1029264460.0629483,1029203880.6049984,1020900047.882734,-0.0061990158032,0.95,0.05,0.1111111111111111,0.1055555555555555,0.1416944815048608,0.1055478016038413,51531092.60499847,True
A2a_LLM_OPAQUE,2024-02-23,2024-02-26,139260,ETF_003,TIGER 200 IT,31973.0,31803.0,2992.0,3397.0,405.0,BUY,95663216.0,108612281.0,12949065.0,12949065.0,403863053.0,1942.35975,60579.45795,1029264460.0629483,1029203880.6049984,1020900047.882734,-0.0061990158032,0.95,0.05,0.1111111111111111,0.1055555555555555,0.0929432810632064,0.1055303842579317,51531092.60499847,True
A2a_LLM_OPAQUE,2024-02-23,2024-02-26,139270,ETF_004,TIGER 200 금융,7036.0,6882.0,27957.0,15440.0,-12517.0,SELL,196705452.0,108635840.0,-88069612.0,88069612.0,403863053.0,13210.4418,60579.45795,1029264460.0629483,1029203880.6049984,1020900047.882734,-0.0061990158032,0.95,0.05,0.1111111111111111,0.1055555555555555,0.1911126436717437,0.1055532747662595,51531092.60499847,True
A2a_LLM_OPAQUE,2024-02-23,2024-02-26,227550,ETF_005,TIGER 200 산업재,6266.0,6332.0,0.0,17337.0,17337.0,BUY,0.0,108633642.0,108633642.0,108633642.0,403863053.0,16295.046299999998,60579.45795,1029264460.0629483,1029203880.6049984,1020900047.882734,-0.0061990158032,0.95,0.05,0.1111111111111111,0.1055555555555555,0.0,0.1055511391349804,51531092.60499847,True
A2a_LLM_OPAQUE,2024-02-23,2024-02-26,266390,ETF_006,KODEX 경기소비재,8386.0,8180.0,17652.0,12954.0,-4698.0,SELL,148029672.0,108632244.0,-39397428.0,39397428.0,403863053.0,5909.614199999999,60579.45795,1029264460.0629483,1029203880.6049984,1020900047.882734,-0.0061990158032,0.95,0.05,0.1111111111111111,0.1055555555555555,0.143820832977121,0.1055497808035299,51531092.60499847,True
A2a_LLM_OPAQUE,2024-02-23,2024-02-26,266410,ETF_007,KODEX 필수소비재,5993.0,5879.0,8115.0,18127.0,10012.0,BUY,48633195.0,108635111.0,60001916.0,60001916.0,403863053.0,9000.2874,60579.45795,1029264460.0629483,1029203880.6049984,1020900047.882734,-0.0061990158032,0.95,0.05,0.1111111111111111,0.1055555555555555,0.0472504364884275,0.1055525664517907,51531092.60499847,True
A2a_LLM_OPAQUE,2024-02-23,2024-02-26,266420,ETF_008,KODEX 헬스케어,14288.0,14348.0,6993.0,7603.0,610.0,BUY,99915984.0,108631664.0,8715680.0,8715680.0,403863053.0,1307.352,60579.45795,1029264460.0629483,1029203880.6049984,1020900047.882734,-0.0061990158032,0.95,0.05,0.1111111111111111,0.1055555555555555,0.0970751326572465,0.1055492172611542,51531092.60499847,True
