PJH-02/HYFE38_ML/testing/backtest_state/out_2024_kofr_decision_regime_a0_a6_k10/A0/trade_history.csv
strategy,decision_date,execution_date,ticker,ETF_id,name,open,close,prev_qty,target_qty,delta_qty,side,prev_value_open,target_value_open,delta_value_open,trade_turnover_value,day_turnover_value,commission_allocated,day_commission,nav_open_pre,nav_open_post,nav_close,daily_return,stock_ratio,cash_weight,target_sleeve_weight,target_portfolio_weight,prev_portfolio_weight_open,actual_portfolio_weight_open,cash_after_rebalance,rebalanced
A0_EQUAL_WEIGHT,2024-01-05,2024-01-08,117460,ETF_001,KODEX 에너지화학,15298.0,15175.0,0.0,7761.0,7761.0,BUY,0.0,118727778.0,118727778.0,118727778.0,949813774.0,17809.166699999998,142472.0661,1000000000.0,999857527.9339,993692524.7275871,-0.006307475272412932,0.95,0.050000000000000044,0.125,0.11875,0.0,0.11874469580214934,50043753.9339,True
A0_EQUAL_WEIGHT,2024-01-05,2024-01-08,117680,ETF_002,KODEX 철강,8836.0,8724.0,0.0,13437.0,13437.0,BUY,0.0,118729332.0,118729332.0,118729332.0,949813774.0,17809.3998,142472.0661,1000000000.0,999857527.9339,993692524.7275871,-0.006307475272412932,0.95,0.050000000000000044,0.125,0.11875,0.0,0.11874625002358248,50043753.9339,True
A0_EQUAL_WEIGHT,2024-01-05,2024-01-08,139260,ETF_003,TIGER 200 IT,31194.0,31155.0,0.0,3806.0,3806.0,BUY,0.0,118724364.0,118724364.0,118724364.0,949813774.0,17808.6546,142472.0661,1000000000.0,999857527.9339,993692524.7275871,-0.006307475272412932,0.95,0.050000000000000044,0.125,0.11875,0.0,0.1187412813156804,50043753.9339,True
A0_EQUAL_WEIGHT,2024-01-05,2024-01-08,139270,ETF_004,TIGER 200 금융,5704.0,5695.0,0.0,20815.0,20815.0,BUY,0.0,118728760.0,118728760.0,118728760.0,949813774.0,17809.314,142472.0661,1000000000.0,999857527.9339,993692524.7275871,-0.006307475272412932,0.95,0.050000000000000044,0.125,0.11875,0.0,0.11874567794207685,50043753.9339,True
A0_EQUAL_WEIGHT,2024-01-05,2024-01-08,266390,ETF_006,KODEX 경기소비재,7956.0,7985.0,0.0,14923.0,14923.0,BUY,0.0,118727388.0,118727388.0,118727388.0,949813774.0,17809.1082,142472.0661,1000000000.0,999857527.9339,993692524.7275871,-0.006307475272412932,0.95,0.050000000000000044,0.125,0.11875,0.0,0.11874430574657732,50043753.9339,True
A0_EQUAL_WEIGHT,2024-01-05,2024-01-08,266410,ETF_007,KODEX 필수소비재,6217.0,6165.0,0.0,19098.0,19098.0,BUY,0.0,118732266.0,118732266.0,118732266.0,949813774.0,17809.8399,142472.0661,1000000000.0,999857527.9339,993692524.7275871,-0.006307475272412932,0.95,0.050000000000000044,0.125,0.11875,0.0,0.1187491844416551,50043753.9339,True
A0_EQUAL_WEIGHT,2024-01-05,2024-01-08,266420,ETF_008,KODEX 헬스케어,13995.0,13701.0,0.0,8483.0,8483.0,BUY,0.0,118719585.0,118719585.0,118719585.0,949813774.0,17807.93775,142472.0661,1000000000.0,999857527.9339,993692524.7275871,-0.006307475272412932,0.95,0.050000000000000044,0.125,0.11875,0.0,0.11873650163470938,50043753.9339,True
A0_EQUAL_WEIGHT,2024-01-05,2024-01-08,315270,ETF_009,TIGER 200 커뮤니케이션서비스,17691.0,17643.0,0.0,6711.0,6711.0,BUY,0.0,118724301.0,118724301.0,118724301.0,949813774.0,17808.64515,142472.0661,1000000000.0,999857527.9339,993692524.7275871,-0.006307475272412932,0.95,0.050000000000000044,0.125,0.11875,0.0,0.11874121830670338,50043753.9339,True
A0_EQUAL_WEIGHT,2024-01-08,2024-01-09,117460,ETF_001,KODEX 에너지화학,15244.0,15170.0,7761.0,7800.0,39.0,BUY,118308684.0,118903200.0,594516.0,594516.0,5785709.0,89.17739999999999,867.8563499999999,1001308154.7275871,1001307286.8712372,996883996.8396392,0.0032117300197331833,0.95,0.050000000000000044,0.125,0.11875,0.11815412012916914,0.11874796234783651,50121202.87123716,True
A0_EQUAL_WEIGHT,2024-01-08,2024-01-09,117680,ETF_002,KODEX 철강,8780.0,8672.0,13437.0,13542.0,105.0,BUY,117976860.0,118898760.0,921900.0,921900.0,5785709.0,138.285,867.8563499999999,1001308154.7275871,1001307286.8712372,996883996.8396392,0.0032117300197331833,0.95,0.050000000000000044,0.125,0.11875,0.11782272963920526,0.11874352814461217,50121202.87123716,True
A0_EQUAL_WEIGHT,2024-01-08,2024-01-09,139260,ETF_003,TIGER 200 IT,31511.0,31004.0,3806.0,3773.0,-33.0,SELL,119930866.0,118891003.0,-1039863.0,1039863.0,5785709.0,155.97944999999999,867.8563499999999,1001308154.7275871,1001307286.8712372,996883996.8396392,0.0032117300197331833,0.95,0.050000000000000044,0.125,0.11875,0.11977418283647957,0.11873578127199703,50121202.87123716,True
A0_EQUAL_WEIGHT,2024-01-08,2024-01-09,139270,ETF_004,TIGER 200 금융,5744.0,5731.0,20815.0,20700.0,-115.0,SELL,119561360.0,118900800.0,-660560.0,660560.0,5785709.0,99.084,867.8563499999999,1001308154.7275871,1001307286.8712372,996883996.8396392,0.0032117300197331833,0.95,0.050000000000000044,0.125,0.11875,0.11940515957600235,0.11874556548122876,50121202.87123716,True
A0_EQUAL_WEIGHT,2024-01-08,2024-01-09,266390,ETF_006,KODEX 경기소비재,8042.0,8009.0,14923.0,14785.0,-138.0,SELL,120010766.0,118900970.0,-1109796.0,1109796.0,5785709.0,166.46939999999998,867.8563499999999,1001308154.7275871,1001307286.8712372,996883996.8396392,0.0032117300197331833,0.95,0.050000000000000044,0.125,0.11875,0.11985397845146858,0.11874573525928014,50121202.87123716,True
A0_EQUAL_WEIGHT,2024-01-08,2024-01-09,266410,ETF_007,KODEX 필수소비재,6232.0,6194.0,19098.0,19079.0,-19.0,SELL,119018736.0,118900328.0,-118408.0,118408.0,5785709.0,17.7612,867.8563499999999,1001308154.7275871,1001307286.8712372,996883996.8396392,0.0032117300197331833,0.95,0.050000000000000044,0.125,0.11875,0.11886324448479088,0.11874509409746256,50121202.87123716,True
A0_EQUAL_WEIGHT,2024-01-08,2024-01-09,266420,ETF_008,KODEX 헬스케어,13885.0,13890.0,8483.0,8563.0,80.0,BUY,117786455.0,118897255.0,1110800.0,1110800.0,5785709.0,166.61999999999998,867.8563499999999,1001308154.7275871,1001307286.8712372,996883996.8396392,0.0032117300197331833,0.95,0.050000000000000044,0.125,0.11875,0.11763257339299771,0.11874202510951022,50121202.87123716,True
A0_EQUAL_WEIGHT,2024-01-08,2024-01-09,315270,ETF_009,TIGER 200 커뮤니케이션서비스,17682.0,17825.0,6711.0,6724.0,13.0,BUY,118663902.0,118893768.0,229866.0,229866.0,5785709.0,34.479899999999994,867.8563499999999,1001308154.7275871,1001307286.8712372,996883996.8396392,0.0032117300197331833,0.95,0.050000000000000044,0.125,0.11875,0.11850887405614244,0.11873854266206804,50121202.87123716,True
A0_EQUAL_WEIGHT,2024-01-09,2024-01-10,117460,ETF_001,KODEX 에너지화학,15264.0,15038.0,7800.0,7784.0,-16.0,SELL,119059200.0,118814976.0,-244224.0,244224.0,6072924.0,36.633599999999994,910.9386,1000567849.8396392,1000566938.9010392,990338119.5930854,-0.006566337976440351,0.95,0.050000000000000044,0.125,0.11875,0.11899163062163311,0.11874765333591675,50069228.90103924,True
A0_EQUAL_WEIGHT,2024-01-09,2024-01-10,117680,ETF_002,KODEX 철강,8658.0,8579.0,13542.0,13723.0,181.0,BUY,117246636.0,118813734.0,1567098.0,1567098.0,6072924.0,235.06469999999996,910.9386,1000567849.8396392,1000566938.9010392,990338119.5930854,-0.006566337976440351,0.95,0.050000000000000044,0.125,0.11875,0.11718009530167404,0.11874641203965589,50069228.90103924,True
A0_EQUAL_WEIGHT,2024-01-09,2024-01-10,139260,ETF_003,TIGER 200 IT,31185.0,30425.0,3773.0,3810.0,37.0,BUY,117661005.0,118814850.0,1153845.0,1153845.0,6072924.0,173.07674999999998,910.9386,1000567849.8396392,1000566938.9010392,990338119.5930854,-0.006566337976440351,0.95,0.050000000000000044,0.125,0.11875,0.11759422913584272,0.11874752740731057,50069228.90103924,True
A0_EQUAL_WEIGHT,2024-01-09,2024-01-10,139270,ETF_004,TIGER 200 금융,5790.0,5695.0,20700.0,20521.0,-179.0,SELL,119853000.0,118816590.0,-1036410.0,1036410.0,6072924.0,155.4615,910.9386,1000567849.8396392,1000566938.9010392,990338119.5930854,-0.006566337976440351,0.95,0.050000000000000044,0.125,0.11875,0.11978498011824867,0.11874926642139584,50069228.90103924,True
A0_EQUAL_WEIGHT,2024-01-09,2024-01-10,266390,ETF_006,KODEX 경기소비재,8013.0,7942.0,14785.0,14828.0,43.0,BUY,118472205.0,118816764.0,344559.0,344559.0,6072924.0,51.68384999999999,910.9386,1000567849.8396392,1000566938.9010392,990338119.5930854,-0.006566337976440351,0.95,0.050000000000000044,0.125,0.11875,0.11840496875747858,0.11874944032280436,50069228.90103924,True
A0_EQUAL_WEIGHT,2024-01-09,2024-01-10,266410,ETF_007,KODEX 필수소비재,6232.0,6175.0,19079.0,19065.0,-14.0,SELL,118900328.0,118813080.0,-87248.0,87248.0,6072924.0,13.087200000000001,910.9386,1000567849.8396392,1000566938.9010392,990338119.5930854,-0.006566337976440351,0.95,0.050000000000000044,0.125,0.11875,0.11883284878587308,0.11874575841022383,50069228.90103924,True
A0_EQUAL_WEIGHT,2024-01-09,2024-01-10,266420,ETF_008,KODEX 헬스케어,13920.0,13880.0,8563.0,8535.0,-28.0,SELL,119196960.0,118807200.0,-389760.0,389760.0,6072924.0,58.464,910.9386,1000567849.8396392,1000566938.9010392,990338119.5930854,-0.006566337976440351,0.95,0.050000000000000044,0.125,0.11875,0.11912931243903517,0.1187398817419357,50069228.90103924,True
A0_EQUAL_WEIGHT,2024-01-09,2024-01-10,315270,ETF_009,TIGER 200 커뮤니케이션서비스,17854.0,17844.0,6724.0,6654.0,-70.0,SELL,120050296.0,118800516.0,-1249780.0,1249780.0,6072924.0,187.46699999999998,910.9386,1000567849.8396392,1000566938.9010392,990338119.5930854,-0.006566337976440351,0.95,0.050000000000000044,0.125,0.11875,0.11998216414732937,0.11873320152920816,50069228.90103924,True
A0_EQUAL_WEIGHT,2024-01-10,2024-01-11,117460,ETF_001,KODEX 에너지화학,14994.0,14974.0,7784.0,7860.0,76.0,BUY,116713296.0,117852840.0,1139544.0,1139544.0,5971485.0,170.93159999999997,895.7227499999999,992513848.5930854,992512952.8703355,992344544.6607598,0.0020260000377434473,0.95,0.050000000000000044,0.125,0.11875,0.11759361964112056,0.11874186594660656,49674135.87033546,True
A0_EQUAL_WEIGHT,2024-01-10,2024-01-11,117680,ETF_002,KODEX 철강,8579.0,8560.0,13723.0,13738.0,15.0,BUY,117729617.0,117858302.0,128685.0,128685.0,5971485.0,19.30275,895.7227499999999,992513848.5930854,992512952.8703355,992344544.6607598,0.0020260000377434473,0.95,0.050000000000000044,0.125,0.11875,0.11861760636074231,0.11874736914934482,49674135.87033546,True
A0_EQUAL_WEIGHT,2024-01-10,2024-01-11,139260,ETF_003,TIGER 200 IT,30469.0,30727.0,3810.0,3868.0,58.0,BUY,116086890.0,117854092.0,1767202.0,1767202.0,5971485.0,265.08029999999997,895.7227499999999,992513848.5930854,992512952.8703355,992344544.6607598,0.0020260000377434473,0.95,0.050000000000000044,0.125,0.11875,0.11696248890084127,0.11874312739110093,49674135.87033546,True
A0_EQUAL_WEIGHT,2024-01-10,2024-01-11,139270,ETF_004,TIGER 200 금융,5771.0,5785.0,20521.0,20422.0,-99.0,SELL,118426691.0,117855362.0,-571329.0,571329.0,5971485.0,85.69934999999998,895.7227499999999,992513848.5930854,992512952.8703355,992344544.6607598,0.0020260000377434473,0.95,0.050000000000000044,0.125,0.11875,0.11931993812264984,0.11874440697137878,49674135.87033546,True
A0_EQUAL_WEIGHT,2024-01-10,2024-01-11,266390,ETF_006,KODEX 경기소비재,7942.0,7932.0,14828.0,14840.0,12.0,BUY,117763976.0,117859280.0,95304.0,95304.0,5971485.0,14.295599999999999,895.7227499999999,992513848.5930854,992512952.8703355,992344544.6607598,0.0020260000377434473,0.95,0.050000000000000044,0.125,0.11875,0.11865222451750526,0.11874835452691311,49674135.87033546,True
A0_EQUAL_WEIGHT,2024-01-10,2024-01-11,266410,ETF_007,KODEX 필수소비재,6179.0,6127.0,19065.0,19074.0,9.0,BUY,117802635.0,117858246.0,55611.0,55611.0,5971485.0,8.34165,895.7227499999999,992513848.5930854,992512952.8703355,992344544.6607598,0.0020260000377434473,0.95,0.050000000000000044,0.125,0.11875,0.1186911751075195,0.11874731272690738,49674135.87033546,True
A0_EQUAL_WEIGHT,2024-01-10,2024-01-11,266420,ETF_008,KODEX 헬스케어,13885.0,13841.0,8535.0,8488.0,-47.0,SELL,118508475.0,117855880.0,-652595.0,652595.0,5971485.0,97.88925,895.7227499999999,992513848.5930854,992512952.8703355,992344544.6607598,0.0020260000377434473,0.95,0.050000000000000044,0.125,0.11875,0.11940233898800394,0.11874492887892518,49674135.87033546,True
A0_EQUAL_WEIGHT,2024-01-10,2024-01-11,315270,ETF_009,TIGER 200 커뮤니케이션서비스,17945.0,18017.0,6654.0,6567.0,-87.0,SELL,119406030.0,117844815.0,-1561215.0,1561215.0,5971485.0,234.18224999999998,895.7227499999999,992513848.5930854,992512952.8703355,992344544.6607598,0.0020260000377434473,0.95,0.050000000000000044,0.125,0.11875,0.12030666390122535,0.1187337804098115,49674135.87033546,True
A0_EQUAL_WEIGHT,2024-01-11,2024-01-12,117460,ETF_001,KODEX 에너지화학,15028.0,14783.0,7860.0,7830.0,-30.0,SELL,118120080.0,117669240.0,-450840.0,450840.0,5147723.0,67.62599999999999,772.1584499999999,991005800.6607598,991005028.5023098,981152731.0759478,-0.011278152981269218,0.95,0.050000000000000044,0.125,0.11875,0.11919211766595376,0.11873727843523828,49601868.5023098,True
A0_EQUAL_WEIGHT,2024-01-11,2024-01-12,117680,ETF_002,KODEX 철강,8560.0,8443.0,13738.0,13747.0,9.0,BUY,117597280.0,117674320.0,77040.0,77040.0,5147723.0,11.555999999999997,772.1584499999999,991005800.6607598,991005028.5023098,981152731.0759478,-0.011278152981269218,0.95,0.050000000000000044,0.125,0.11875,0.11866457282247109,0.11874240454444447,49601868.5023098,True
A0_EQUAL_WEIGHT,2024-01-11,2024-01-12,139260,ETF_003,TIGER 200 IT,30557.0,30090.0,3868.0,3851.0,-17.0,SELL,118194476.0,117675007.0,-519469.0,519469.0,5147723.0,77.92034999999998,772.1584499999999,991005800.6607598,991005028.5023098,981152731.0759478,-0.011278152981269218,0.95,0.050000000000000044,0.125,0.11875,0.11926718887133964,0.11874309778007926,49601868.5023098,True
A0_EQUAL_WEIGHT,2024-01-11,2024-01-12,139270,ETF_004,TIGER 200 금융,5830.0,5762.0,20422.0,20185.0,-237.0,SELL,119060260.0,117678550.0,-1381710.0,1381710.0,5147723.0,207.25649999999996,772.1584499999999,991005800.6607598,991005028.5023098,981152731.0759478,-0.011278152981269218,0.95,0.050000000000000044,0.125,0.11875,0.1201408305790095,0.1187466729385276,49601868.5023098,True
A0_EQUAL_WEIGHT,2024-01-11,2024-01-12,266390,ETF_006,KODEX 경기소비재,7942.0,7894.0,14840.0,14817.0,-23.0,SELL,117859280.0,117676614.0,-182666.0,182666.0,5147723.0,27.399899999999995,772.1584499999999,991005800.6607598,991005028.5023098,981152731.0759478,-0.011278152981269218,0.95,0.050000000000000044,0.125,0.11875,0.11892895068970992,0.1187447193662002,49601868.5023098,True
A0_EQUAL_WEIGHT,2024-01-11,2024-01-12,266410,ETF_007,KODEX 필수소비재,6127.0,6079.0,19074.0,19207.0,133.0,BUY,116866398.0,117681289.0,814891.0,814891.0,5147723.0,122.23364999999998,772.1584499999999,991005800.6607598,991005028.5023098,981152731.0759478,-0.011278152981269218,0.95,0.050000000000000044,0.125,0.11875,0.11792705746230601,0.11874943679937716,49601868.5023098,True
A0_EQUAL_WEIGHT,2024-01-11,2024-01-12,266420,ETF_008,KODEX 헬스케어,13667.0,13562.0,8488.0,8610.0,122.0,BUY,116005496.0,117672870.0,1667374.0,1667374.0,5147723.0,250.10609999999997,772.1584499999999,991005800.6607598,991005028.5023098,981152731.0759478,-0.011278152981269218,0.95,0.050000000000000044,0.125,0.11875,0.1170583420628341,0.11874094138335216,49601868.5023098,True
A0_EQUAL_WEIGHT,2024-01-11,2024-01-12,315270,ETF_009,TIGER 200 커뮤니케이션서비스,17911.0,17816.0,6567.0,6570.0,3.0,BUY,117621537.0,117675270.0,53733.0,53733.0,5147723.0,8.059949999999999,772.1584499999999,991005800.6607598,991005028.5023098,981152731.0759478,-0.011278152981269218,0.95,0.050000000000000044,0.125,0.11875,0.11868904997485892,0.1187433631672291,49601868.5023098,True
A0_EQUAL_WEIGHT,2024-01-12,2024-01-15,117460,ETF_001,KODEX 에너지화학,14876.0,14636.0,7830.0,6985.0,-845.0,SELL,116479080.0,103908860.0,-12570220.0,12570220.0,207556917.0,1885.533,31133.537549999997,984549423.0759478,984518289.5383978,979433104.0430294,-0.0017526598851053121,0.95,0.050000000000000044,0.1111111111111111,0.10555555555555554,0.11830699126925887,0.10554284374820382,49294386.53839779,True
A0_EQUAL_WEIGHT,2024-01-12,2024-01-15,117680,ETF_002,KODEX 철강,8424.0,8373.0,13747.0,12336.0,-1411.0,SELL,115804728.0,103918464.0,-11886264.0,11886264.0,207556917.0,1782.9396,31133.537549999997,984549423.0759478,984518289.5383978,979433104.0430294,-0.0017526598851053121,0.95,0.050000000000000044,0.1111111111111111,0.10555555555555554,0.11762205663398867,0.10555259877266812,49294386.53839779,True
A0_EQUAL_WEIGHT,2024-01-12,2024-01-15,139260,ETF_003,TIGER 200 IT,30187.0,30177.0,3851.0,3442.0,-409.0,SELL,116250137.0,103903654.0,-12346483.0,12346483.0,207556917.0,1851.97245,31133.537549999997,984549423.0759478,984518289.5383978,979433104.0430294,-0.0017526598851053121,0.95,0.050000000000000044,0.1111111111111111,0.10555555555555554,0.11807445545680088,0.10553755588300585,49294386.53839779,True
A0_EQUAL_WEIGHT,2024-01-12,2024-01-15,139270,ETF_004,TIGER 200 금융,5848.0,5871.0,20185.0,17770.0,-2415.0,SELL,118041880.0,103918960.0,-14122920.0,14122920.0,207556917.0,2118.4379999999996,31133.537549999997,984549423.0759478,984518289.5383978,979433104.0430294,-0.0017526598851053121,0.95,0.050000000000000044,0.1111111111111111,0.10555555555555554,0.11989431635764038,0.1055531025723489,49294386.53839779,True
A0_EQUAL_WEIGHT,2024-01-12,2024-01-15,227550,ETF_005,TIGER 200 산업재,6209.0,6209.0,0.0,16737.0,16737.0,BUY,0.0,103920033.0,103920033.0,103920033.0,207556917.0,15588.004949999999,31133.537549999997,984549423.0759478,984518289.5383978,979433104.0430294,-0.0017526598851053121,0.95,0.050000000000000044,0.1111111111111111,0.10555555555555554,0.0,0.10555419244544867,49294386.53839779,True
A0_EQUAL_WEIGHT,2024-01-12,2024-01-15,266390,ETF_006,KODEX 경기소비재,7889.0,7870.0,14817.0,13172.0,-1645.0,SELL,116891313.0,103913908.0,-12977405.0,12977405.0,207556917.0,1946.61075,31133.537549999997,984549423.0759478,984518289.5383978,979433104.0430294,-0.0017526598851053121,0.95,0.050000000000000044,0.1111111111111111,0.10555555555555554,0.11872569345965991,0.10554797112882604,49294386.53839779,True
A0_EQUAL_WEIGHT,2024-01-12,2024-01-15,266410,ETF_007,KODEX 필수소비재,6108.0,6051.0,19207.0,17013.0,-2194.0,SELL,117316356.0,103915404.0,-13400952.0,13400952.0,207556917.0,2010.1427999999999,31133.537549999997,984549423.0759478,984518289.5383978,979433104.0430294,-0.0017526598851053121,0.95,0.050000000000000044,0.1111111111111111,0.10555555555555554,0.11915740667794822,0.1055494906536697,49294386.53839779,True
A0_EQUAL_WEIGHT,2024-01-12,2024-01-15,266420,ETF_008,KODEX 헬스케어,13547.0,13319.0,8610.0,7671.0,-939.0,SELL,116639670.0,103919037.0,-12720633.0,12720633.0,207556917.0,1908.0949499999997,31133.537549999997,984549423.0759478,984518289.5383978,979433104.0430294,-0.0017526598851053121,0.95,0.050000000000000044,0.1111111111111111,0.10555555555555554,0.11847010141511449,0.10555318078318644,49294386.53839779,True
A0_EQUAL_WEIGHT,2024-01-12,2024-01-15,315270,ETF_009,TIGER 200 커뮤니케이션서비스,17887.0,17854.0,6570.0,5809.0,-761.0,SELL,117517590.0,103905583.0,-13612007.0,13612007.0,207556917.0,2041.8010499999998,31133.537549999997,984549423.0759478,984518289.5383978,979433104.0430294,-0.0017526598851053121,0.95,0.050000000000000044,0.1111111111111111,0.10555555555555554,0.11936179865186386,0.10553951521684506,49294386.53839779,True
A0_EQUAL_WEIGHT,2024-01-15,2024-01-16,117460,ETF_001,KODEX 에너지화학,14720.0,14519.0,6985.0,7898.0,913.0,BUY,102819200.0,116258560.0,13439360.0,13439360.0,207301293.0,2015.9039999999998,31095.193949999997,979072699.0430294,979041603.8490794,968285828.9392279,-0.01138135423214337,0.95,0.050000000000000044,0.125,0.11875,0.10501692070517143,0.118747313232586,49005442.84907937,True
A0_EQUAL_WEIGHT,2024-01-15,2024-01-16,117680,ETF_002,KODEX 철강,8368.0,8340.0,12336.0,13893.0,1557.0,BUY,103227648.0,116256624.0,13028976.0,13028976.0,207301293.0,1954.3463999999997,31095.193949999997,979072699.0430294,979041603.8490794,968285828.9392279,-0.01138135423214337,0.95,0.050000000000000044,0.125,0.11875,0.10543409912348423,0.11874533578853011,49005442.84907937,True
A0_EQUAL_WEIGHT,2024-01-15,2024-01-16,139260,ETF_003,TIGER 200 IT,30075.0,29686.0,3442.0,3865.0,423.0,BUY,103518150.0,116239875.0,12721725.0,12721725.0,207301293.0,1908.25875,31095.193949999997,979072699.0430294,979041603.8490794,968285828.9392279,-0.01138135423214337,0.95,0.050000000000000044,0.125,0.11875,0.10573081049158176,0.11872822824178832,49005442.84907937,True
A0_EQUAL_WEIGHT,2024-01-15,2024-01-16,139270,ETF_004,TIGER 200 금융,5907.0,5794.0,17770.0,19681.0,1911.0,BUY,104967390.0,116255667.0,11288277.0,11288277.0,207301293.0,1693.2415499999997,31095.193949999997,979072699.0430294,979041603.8490794,968285828.9392279,-0.01138135423214337,0.95,0.050000000000000044,0.125,0.11875,0.10721102743708184,0.11874435830197975,49005442.84907937,True
A0_EQUAL_WEIGHT,2024-01-15,2024-01-16,227550,ETF_005,TIGER 200 산업재,6185.0,6175.0,16737.0,0.0,-16737.0,SELL,103518345.0,0.0,-103518345.0,103518345.0,207301293.0,15527.75175,31095.193949999997,979072699.0430294,979041603.8490794,968285828.9392279,-0.01138135423214337,0.95,0.050000000000000044,0.0,0.0,0.10573100965963148,0.0,49005442.84907937,True
A0_EQUAL_WEIGHT,2024-01-15,2024-01-16,266390,ETF_006,KODEX 경기소비재,7832.0,7775.0,13172.0,14844.0,1672.0,BUY,103163104.0,116258208.0,13095104.0,13095104.0,207301293.0,1964.2656,31095.193949999997,979072699.0430294,979041603.8490794,968285828.9392279,-0.01138135423214337,0.95,0.050000000000000044,0.125,0.11875,0.10536817552040235,0.1187469536973031,49005442.84907937,True
A0_EQUAL_WEIGHT,2024-01-15,2024-01-16,266410,ETF_007,KODEX 필수소비재,6022.0,5922.0,17013.0,19306.0,2293.0,BUY,102452286.0,116260732.0,13808446.0,13808446.0,207301293.0,2071.2669,31095.193949999997,979072699.0430294,979041603.8490794,968285828.9392279,-0.01138135423214337,0.95,0.050000000000000044,0.125,0.11875,0.10464216406007386,0.11874953172870654,49005442.84907937,True
A0_EQUAL_WEIGHT,2024-01-15,2024-01-16,266420,ETF_008,KODEX 헬스케어,13413.0,13309.0,7671.0,8667.0,996.0,BUY,102891123.0,116250471.0,13359348.0,13359348.0,207301293.0,2003.9021999999998,31095.193949999997,979072699.0430294,979041603.8490794,968285828.9392279,-0.01138135423214337,0.95,0.050000000000000044,0.125,0.11875,0.10509038103152953,0.11873905107092893,49005442.84907937,True
A0_EQUAL_WEIGHT,2024-01-15,2024-01-16,315270,ETF_009,TIGER 200 커뮤니케이션서비스,17768.0,17557.0,5809.0,6543.0,734.0,BUY,103214312.0,116256024.0,13041712.0,13041712.0,207301293.0,1956.2567999999999,31095.193949999997,979072699.0430294,979041603.8490794,968285828.9392279,-0.01138135423214337,0.95,0.050000000000000044,0.125,0.11875,0.10542047807163278,0.11874472294429791,49005442.84907937,True
A0_EQUAL_WEIGHT,2024-01-16,2024-01-17,117460,ETF_001,KODEX 에너지화학,14519.0,14014.0,7898.0,7044.0,-854.0,SELL,114671062.0,102271836.0,-12399226.0,12399226.0,204071071.0,1859.8838999999998,30610.660649999998,968971192.9392279,968940582.2785779,947667670.1673136,-0.021293463309797533,0.95,0.050000000000000044,0.1111111111111111,0.10555555555555554,0.11834310744797545,0.10555016259046116,48507221.278577924,True
A0_EQUAL_WEIGHT,2024-01-16,2024-01-17,117680,ETF_002,KODEX 철강,8363.0,8134.0,13893.0,12229.0,-1664.0,SELL,116187159.0,102271127.0,-13916032.0,13916032.0,204071071.0,2087.4048,30610.660649999998,968971192.9392279,968940582.2785779,947667670.1673136,-0.021293463309797533,0.95,0.050000000000000044,0.1111111111111111,0.10555555555555554,0.11990775354999335,0.10554943086344613,48507221.278577924,True
A0_EQUAL_WEIGHT,2024-01-16,2024-01-17,139260,ETF_003,TIGER 200 IT,29978.0,29038.0,3865.0,3411.0,-454.0,SELL,115864970.0,102254958.0,-13610012.0,13610012.0,204071071.0,2041.5018,30610.660649999998,968971192.9392279,968940582.2785779,947667670.1673136,-0.021293463309797533,0.95,0.050000000000000044,0.1111111111111111,0.10555555555555554,0.11957524727700221,0.10553274356569463,48507221.278577924,True
A0_EQUAL_WEIGHT,2024-01-16,2024-01-17,139270,ETF_004,TIGER 200 금융,5880.0,5717.0,19681.0,17394.0,-2287.0,SELL,115724280.0,102276720.0,-13447560.0,13447560.0,204071071.0,2017.1339999999998,30610.660649999998,968971192.9392279,968940582.2785779,947667670.1673136,-0.021293463309797533,0.95,0.050000000000000044,0.1111111111111111,0.10555555555555554,0.1194300520420714,0.10555520314721904,48507221.278577924,True
A0_EQUAL_WEIGHT,2024-01-16,2024-01-17,227550,ETF_005,TIGER 200 산업재,6052.0,6019.0,0.0,16899.0,16899.0,BUY,0.0,102272748.0,102272748.0,102272748.0,204071071.0,15340.912199999999,30610.660649999998,968971192.9392279,968940582.2785779,947667670.1673136,-0.021293463309797533,0.95,0.050000000000000044,0.1111111111111111,0.10555555555555554,0.0,0.1055511038246469,48507221.278577924,True
A0_EQUAL_WEIGHT,2024-01-16,2024-01-17,266390,ETF_006,KODEX 경기소비재,7727.0,7622.0,14844.0,13236.0,-1608.0,SELL,114699588.0,102274572.0,-12425016.0,12425016.0,204071071.0,1863.7523999999999,30610.660649999998,968971192.9392279,968940582.2785779,947667670.1673136,-0.021293463309797533,0.95,0.050000000000000044,0.1111111111111111,0.10555555555555554,0.1183725469196624,0.1055529862930184,48507221.278577924,True
A0_EQUAL_WEIGHT,2024-01-16,2024-01-17,266410,ETF_007,KODEX 필수소비재,5927.0,5793.0,19306.0,17256.0,-2050.0,SELL,114426662.0,102276312.0,-12150350.0,12150350.0,204071071.0,1822.5524999999998,30610.660649999998,968971192.9392279,968940582.2785779,947667670.1673136,-0.021293463309797533,0.95,0.050000000000000044,0.1111111111111111,0.10555555555555554,0.11809088116737917,0.10555478206876752,48507221.278577924,True
A0_EQUAL_WEIGHT,2024-01-16,2024-01-17,266420,ETF_008,KODEX 헬스케어,13284.0,12901.0,8667.0,7699.0,-968.0,SELL,115132428.0,102273516.0,-12858912.0,12858912.0,204071071.0,1928.8367999999998,30610.660649999998,968971192.9392279,968940582.2785779,947667670.1673136,-0.021293463309797533,0.95,0.050000000000000044,0.1111111111111111,0.10555555555555554,0.11881924750596883,0.10555189644290858,48507221.278577924,True
A0_EQUAL_WEIGHT,2024-01-16,2024-01-17,315270,ETF_009,TIGER 200 커뮤니케이션서비스,17309.0,17026.0,6543.0,5908.0,-635.0,SELL,113252787.0,102261572.0,-10991215.0,10991215.0,204071071.0,1648.68225,30610.660649999998,968971192.9392279,968940582.2785779,947667670.1673136,-0.021293463309797533,0.95,0.050000000000000044,0.1111111111111111,0.10555555555555554,0.11687941584358638,0.10553956957765136,48507221.278577924,True
A0_EQUAL_WEIGHT,2024-01-17,2024-01-18,117460,ETF_001,KODEX 에너지화학,14048.0,13980.0,7044.0,8019.0,975.0,BUY,98954112.0,112650912.0,13696800.0,13696800.0,204709524.0,2054.5199999999995,30706.428599999996,948785970.1673136,948755263.7387136,946685245.5090499,-0.0010366763467727358,0.95,0.050000000000000044,0.125,0.11875,0.10429550511012504,0.11873548037676444,47508077.73871362,True
A0_EQUAL_WEIGHT,2024-01-17,2024-01-18,117680,ETF_002,KODEX 철강,8111.0,8106.0,12229.0,13890.0,1661.0,BUY,99189419.0,112661790.0,13472371.0,13472371.0,204709524.0,2020.85565,30706.428599999996,948785970.1673136,948755263.7387136,946685245.5090499,-0.0010366763467727358,0.95,0.050000000000000044,0.125,0.11875,0.10454351362563724,0.1187469459258009,47508077.73871362,True
A0_EQUAL_WEIGHT,2024-01-17,2024-01-18,139260,ETF_003,TIGER 200 IT,29092.0,29262.0,3411.0,3872.0,461.0,BUY,99232812.0,112644224.0,13411412.0,13411412.0,204709524.0,2011.7117999999998,30706.428599999996,948785970.1673136,948755263.7387136,946685245.5090499,-0.0010366763467727358,0.95,0.050000000000000044,0.125,0.11875,0.1045892489140631,0.11872843114051183,47508077.73871362,True
A0_EQUAL_WEIGHT,2024-01-17,2024-01-18,139270,ETF_004,TIGER 200 금융,5717.0,5631.0,17394.0,19706.0,2312.0,BUY,99441498.0,112659202.0,13217704.0,13217704.0,204709524.0,1982.6555999999996,30706.428599999996,948785970.1673136,948755263.7387136,946685245.5090499,-0.0010366763467727358,0.95,0.050000000000000044,0.125,0.11875,0.10480919946831001,0.11874421814119837,47508077.73871362,True
A0_EQUAL_WEIGHT,2024-01-17,2024-01-18,227550,ETF_005,TIGER 200 산업재,6028.0,6009.0,16899.0,0.0,-16899.0,SELL,101867172.0,0.0,-101867172.0,101867172.0,204709524.0,15280.075799999999,30706.428599999996,948785970.1673136,948755263.7387136,946685245.5090499,-0.0010366763467727358,0.95,0.050000000000000044,0.0,0.0,0.10736580767740088,0.0,47508077.73871362,True
A0_EQUAL_WEIGHT,2024-01-17,2024-01-18,266390,ETF_006,KODEX 경기소비재,7660.0,7607.0,13236.0,14708.0,1472.0,BUY,101387760.0,112663280.0,11275520.0,11275520.0,204709524.0,1691.3279999999997,30706.428599999996,948785970.1673136,948755263.7387136,946685245.5090499,-0.0010366763467727358,0.95,0.050000000000000044,0.125,0.11875,0.10686051774366012,0.11874851640457129,47508077.73871362,True
A0_EQUAL_WEIGHT,2024-01-17,2024-01-18,266410,ETF_007,KODEX 필수소비재,5803.0,5865.0,17256.0,19414.0,2158.0,BUY,100136568.0,112659442.0,12522874.0,12522874.0,204709524.0,1878.4310999999996,30706.428599999996,948785970.1673136,948755263.7387136,946685245.5090499,-0.0010366763467727358,0.95,0.050000000000000044,0.125,0.11875,0.10554178829429932,0.11874447110422179,47508077.73871362,True
A0_EQUAL_WEIGHT,2024-01-17,2024-01-18,266420,ETF_008,KODEX 헬스케어,12931.0,12797.0,7699.0,8712.0,1013.0,BUY,99555769.0,112654872.0,13099103.0,13099103.0,204709524.0,1964.8654499999996,30706.428599999996,948785970.1673136,948755263.7387136,946685245.5090499,-0.0010366763467727358,0.95,0.050000000000000044,0.125,0.11875,0.10492963864383856,0.11873965426665085,47508077.73871362,True
A0_EQUAL_WEIGHT,2024-01-17,2024-01-18,315270,ETF_009,TIGER 200 커뮤니케이션서비스,17012.0,17060.0,5908.0,6622.0,714.0,BUY,100506896.0,112653464.0,12146568.0,12146568.0,204709524.0,1821.9851999999996,30706.428599999996,948785970.1673136,948755263.7387136,946685245.5090499,-0.0010366763467727358,0.95,0.050000000000000044,0.125,0.11875,0.10593210603891637,0.11873817021691346,47508077.73871362,True
A0_EQUAL_WEIGHT,2024-01-18,2024-01-19,117460,ETF_001,KODEX 에너지화학,14014.0,13720.0,8019.0,7176.0,-843.0,SELL,112378266.0,100564464.0,-11813802.0,11813802.0,201358189.0,1772.0702999999996,30203.728349999998,952873125.5090499,952842921.7806998,947308209.0260682,0.0006580471386594677,0.95,0.050000000000000044,0.1111111111111111,0.10555555555555554,0.1179362320035677,0.10554149241310654,47690384.78069985,True
A0_EQUAL_WEIGHT,2024-01-18,2024-01-19,117680,ETF_002,KODEX 철강,8115.0,8106.0,13890.0,12394.0,-1496.0,SELL,112717350.0,100577310.0,-12140040.0,12140040.0,201358189.0,1821.0059999999999,30203.728349999998,952873125.5090499,952842921.7806998,947308209.0260682,0.0006580471386594677,0.95,0.050000000000000044,0.1111111111111111,0.10555555555555554,0.11829208630454703,0.10555497417353772,47690384.78069985,True
A0_EQUAL_WEIGHT,2024-01-18,2024-01-19,139260,ETF_003,TIGER 200 IT,29729.0,29905.0,3872.0,3383.0,-489.0,SELL,115110688.0,100573207.0,-14537481.0,14537481.0,201358189.0,2180.6221499999997,30203.728349999998,952873125.5090499,952842921.7806998,947308209.0260682,0.0006580471386594677,0.95,0.050000000000000044,0.1111111111111111,0.10555555555555554,0.12080379320017536,0.1055506681122697,47690384.78069985,True
A0_EQUAL_WEIGHT,2024-01-18,2024-01-19,139270,ETF_004,TIGER 200 금융,5631.0,5663.0,19706.0,17861.0,-1845.0,SELL,110964486.0,100575291.0,-10389195.0,10389195.0,201358189.0,1558.37925,30203.728349999998,952873125.5090499,952842921.7806998,947308209.0260682,0.0006580471386594677,0.95,0.050000000000000044,0.1111111111111111,0.10555555555555554,0.11645252975386398,0.1055528552513588,47690384.78069985,True
A0_EQUAL_WEIGHT,2024-01-18,2024-01-19,227550,ETF_005,TIGER 200 산업재,6033.0,5971.0,0.0,16671.0,16671.0,BUY,0.0,100576143.0,100576143.0,100576143.0,201358189.0,15086.42145,30203.728349999998,952873125.5090499,952842921.7806998,947308209.0260682,0.0006580471386594677,0.95,0.050000000000000044,0.1111111111111111,0.10555555555555554,0.0,0.10555374941762746,47690384.78069985,True
A0_EQUAL_WEIGHT,2024-01-18,2024-01-19,266390,ETF_006,KODEX 경기소비재,7684.0,7650.0,14708.0,13089.0,-1619.0,SELL,113016272.0,100575876.0,-12440396.0,12440396.0,201358189.0,1866.0593999999999,30203.728349999998,952873125.5090499,952842921.7806998,947308209.0260682,0.0006580471386594677,0.95,0.050000000000000044,0.1111111111111111,0.10555555555555554,0.1186057922870096,0.10555346920355031,47690384.78069985,True
A0_EQUAL_WEIGHT,2024-01-18,2024-01-19,266410,ETF_007,KODEX 필수소비재,5898.0,5869.0,19414.0,17052.0,-2362.0,SELL,114503772.0,100572696.0,-13931076.0,13931076.0,201358189.0,2089.6614,30203.728349999998,952873125.5090499,952842921.7806998,947308209.0260682,0.0006580471386594677,0.95,0.050000000000000044,0.1111111111111111,0.10555555555555554,0.12016686055536414,0.10555013182240668,47690384.78069985,True
A0_EQUAL_WEIGHT,2024-01-18,2024-01-19,266420,ETF_008,KODEX 헬스케어,12916.0,12737.0,8712.0,7787.0,-925.0,SELL,112524192.0,100576892.0,-11947300.0,11947300.0,201358189.0,1792.0949999999998,30203.728349999998,952873125.5090499,952842921.7806998,947308209.0260682,0.0006580471386594677,0.95,0.050000000000000044,0.1111111111111111,0.10555555555555554,0.11808937516197303,0.1055545354863308,47690384.78069985,True
A0_EQUAL_WEIGHT,2024-01-18,2024-01-19,315270,ETF_009,TIGER 200 커뮤니케이션서비스,17237.0,17045.0,6622.0,5834.0,-788.0,SELL,114143414.0,100560658.0,-13582756.0,13582756.0,201358189.0,2037.4134,30203.728349999998,952873125.5090499,952842921.7806998,947308209.0260682,0.0006580471386594677,0.95,0.050000000000000044,0.1111111111111111,0.10555555555555554,0.1197886800921388,0.10553749805064343,47690384.78069985,True
A0_EQUAL_WEIGHT,2024-01-19,2024-01-22,117460,ETF_001,KODEX 에너지화학,13818.0,13240.0,7176.0,7277.0,101.0,BUY,99157968.0,100553586.0,1395618.0,1395618.0,8935479.0,209.34269999999998,1340.3218499999998,952681947.0260682,952680606.7042183,944206310.9397969,-0.0032744338713800447,0.95,0.050000000000000044,0.1111111111111111,0.10555555555555554,0.10408297156205767,0.10554805597215142,47675811.70421827,True
A0_EQUAL_WEIGHT,2024-01-19,2024-01-22,117680,ETF_002,KODEX 철강,8144.0,7999.0,12394.0,12347.0,-47.0,SELL,100936736.0,100553968.0,-382768.0,382768.0,8935479.0,57.41519999999999,1340.3218499999998,952681947.0260682,952680606.7042183,944206310.9397969,-0.0032744338713800447,0.95,0.050000000000000044,0.1111111111111111,0.10555555555555554,0.10595008787044652,0.1055484569459902,47675811.70421827,True
A0_EQUAL_WEIGHT,2024-01-19,2024-01-22,139260,ETF_003,TIGER 200 IT,30260.0,29856.0,3383.0,3323.0,-60.0,SELL,102369580.0,100553980.0,-1815600.0,1815600.0,8935479.0,272.34,1340.3218499999998,952681947.0260682,952680606.7042183,944206310.9397969,-0.0032744338713800447,0.95,0.050000000000000044,0.1111111111111111,0.10555555555555554,0.10745409873626886,0.10554846954202701,47675811.70421827,True
A0_EQUAL_WEIGHT,2024-01-19,2024-01-22,139270,ETF_004,TIGER 200 금융,5717.0,5663.0,17861.0,17589.0,-272.0,SELL,102111337.0,100556313.0,-1555024.0,1555024.0,8935479.0,233.25359999999998,1340.3218499999998,952681947.0260682,952680606.7042183,944206310.9397969,-0.0032744338713800447,0.95,0.050000000000000044,0.1111111111111111,0.10555555555555554,0.1071830292562539,0.10555091842151883,47675811.70421827,True
A0_EQUAL_WEIGHT,2024-01-19,2024-01-22,227550,ETF_005,TIGER 200 산업재,5909.0,5933.0,16671.0,17018.0,347.0,BUY,98508939.0,100559362.0,2050423.0,2050423.0,8935479.0,307.56344999999993,1340.3218499999998,952681947.0260682,952680606.7042183,944206310.9397969,-0.0032744338713800447,0.95,0.050000000000000044,0.1111111111111111,0.10555555555555554,0.10340170642207468,0.1055541188645409,47675811.70421827,True
A0_EQUAL_WEIGHT,2024-01-19,2024-01-22,266390,ETF_006,KODEX 경기소비재,7650.0,7679.0,13089.0,13145.0,56.0,BUY,100130850.0,100559250.0,428400.0,428400.0,8935479.0,64.25999999999999,1340.3218499999998,952681947.0260682,952680606.7042183,944206310.9397969,-0.0032744338713800447,0.95,0.050000000000000044,0.1111111111111111,0.10555555555555554,0.10510417491647936,0.10555400130153059,47675811.70421827,True
A0_EQUAL_WEIGHT,2024-01-19,2024-01-22,266410,ETF_007,KODEX 필수소비재,5912.0,5888.0,17052.0,17009.0,-43.0,SELL,100811424.0,100557208.0,-254216.0,254216.0,8935479.0,38.1324,1340.3218499999998,952681947.0260682,952680606.7042183,944206310.9397969,-0.0032744338713800447,0.95,0.050000000000000044,0.1111111111111111,0.10555555555555554,0.10581855184166883,0.10555185787593167,47675811.70421827,True
A0_EQUAL_WEIGHT,2024-01-19,2024-01-22,266420,ETF_008,KODEX 헬스케어,12836.0,13000.0,7787.0,7834.0,47.0,BUY,99953932.0,100557224.0,603292.0,603292.0,8935479.0,90.4938,1340.3218499999998,952681947.0260682,952680606.7042183,944206310.9397969,-0.0032744338713800447,0.95,0.050000000000000044,0.1111111111111111,0.10555555555555554,0.10491846970756649,0.10555187467064743,47675811.70421827,True
A0_EQUAL_WEIGHT,2024-01-19,2024-01-22,315270,ETF_009,TIGER 200 커뮤니케이션서비스,17313.0,16993.0,5834.0,5808.0,-26.0,SELL,101004042.0,100553904.0,-450138.0,450138.0,8935479.0,67.52069999999999,1340.3218499999998,952681947.0260682,952680606.7042183,944206310.9397969,-0.0032744338713800447,0.95,0.050000000000000044,0.1111111111111111,0.10555555555555554,0.10602073684223622,0.10554838976712716,47675811.70421827,True
A0_EQUAL_WEIGHT,2024-01-22,2024-01-23,117460,ETF_001,KODEX 에너지화학,13264.0,13343.0,7277.0,7542.0,265.0,BUY,96522128.0,100037088.0,3514960.0,3514960.0,12238528.0,527.244,1835.7792,947742428.9397969,947740593.160597,951875525.4095341,0.008122392723793448,0.95,0.050000000000000044,0.1111111111111111,0.10555555555555554,0.10184426174522501,0.10555323758623524,47442922.16059697,True
A0_EQUAL_WEIGHT,2024-01-22,2024-01-23,117680,ETF_002,KODEX 철강,7999.0,8055.0,12347.0,12506.0,159.0,BUY,98763653.0,100035494.0,1271841.0,1271841.0,12238528.0,190.77614999999997,1835.7792,947742428.9397969,947740593.160597,951875525.4095341,0.008122392723793448,0.95,0.050000000000000044,0.1111111111111111,0.10555555555555554,0.10420938219520583,0.10555155569140927,47442922.16059697,True
A0_EQUAL_WEIGHT,2024-01-22,2024-01-23,139260,ETF_003,TIGER 200 IT,29953.0,29885.0,3323.0,3339.0,16.0,BUY,99533819.0,100013067.0,479248.0,479248.0,12238528.0,71.88719999999999,1835.7792,947742428.9397969,947740593.160597,951875525.4095341,0.008122392723793448,0.95,0.050000000000000044,0.1111111111111111,0.10555555555555554,0.10502201437931259,0.10552789204318964,47442922.16059697,True
A0_EQUAL_WEIGHT,2024-01-22,2024-01-23,139270,ETF_004,TIGER 200 금융,5762.0,5839.0,17589.0,17361.0,-228.0,SELL,101347818.0,100034082.0,-1313736.0,1313736.0,12238528.0,197.0604,1835.7792,947742428.9397969,947740593.160597,951875525.4095341,0.008122392723793448,0.95,0.050000000000000044,0.1111111111111111,0.10555555555555554,0.1069360354726061,0.10555006583225351,47442922.16059697,True
A0_EQUAL_WEIGHT,2024-01-22,2024-01-23,227550,ETF_005,TIGER 200 산업재,5933.0,5881.0,17018.0,16861.0,-157.0,SELL,100967794.0,100036313.0,-931481.0,931481.0,12238528.0,139.72215,1835.7792,947742428.9397969,947740593.160597,951875525.4095341,0.008122392723793448,0.95,0.050000000000000044,0.1111111111111111,0.10555555555555554,0.10653505732876051,0.10555241985192525,47442922.16059697,True
A0_EQUAL_WEIGHT,2024-01-22,2024-01-23,266390,ETF_006,KODEX 경기소비재,7650.0,7755.0,13145.0,13077.0,-68.0,SELL,100559250.0,100039050.0,-520200.0,520200.0,12238528.0,78.02999999999999,1835.7792,947742428.9397969,947740593.160597,951875525.4095341,0.008122392723793448,0.95,0.050000000000000044,0.1111111111111111,0.10555555555555554,0.10610398662059667,0.10555530777296582,47442922.16059697,True
A0_EQUAL_WEIGHT,2024-01-22,2024-01-23,266410,ETF_007,KODEX 필수소비재,5931.0,5931.0,17009.0,16867.0,-142.0,SELL,100880379.0,100038177.0,-842202.0,842202.0,12238528.0,126.3303,1835.7792,947742428.9397969,947740593.160597,951875525.4095341,0.008122392723793448,0.95,0.050000000000000044,0.1111111111111111,0.10555555555555554,0.1064428223529583,0.10555438663483341,47442922.16059697,True
A0_EQUAL_WEIGHT,2024-01-22,2024-01-23,266420,ETF_008,KODEX 헬스케어,13075.0,13085.0,7834.0,7651.0,-183.0,SELL,102429550.0,100036825.0,-2392725.0,2392725.0,12238528.0,358.90875,1835.7792,947742428.9397969,947740593.160597,951875525.4095341,0.008122392723793448,0.95,0.050000000000000044,0.1111111111111111,0.10555555555555554,0.10807741309480468,0.10555296008414036,47442922.16059697,True
A0_EQUAL_WEIGHT,2024-01-22,2024-01-23,315270,ETF_009,TIGER 200 커뮤니케이션서비스,17055.0,17251.0,5808.0,5865.0,57.0,BUY,99055440.0,100027575.0,972135.0,972135.0,12238528.0,145.82025,1835.7792,947742428.9397969,947740593.160597,951875525.4095341,0.008122392723793448,0.95,0.050000000000000044,0.1111111111111111,0.10555555555555554,0.1045172580389901,0.1055432000294727,47442922.16059697,True
A0_EQUAL_WEIGHT,2024-01-23,2024-01-24,117460,ETF_001,KODEX 에너지화학,13470.0,13504.0,7542.0,8389.0,847.0,BUY,101590740.0,112999830.0,11409090.0,11409090.0,200202049.0,1711.3634999999997,30030.30735,951718931.4095341,951688901.102184,950380750.4243282,-0.0015703471150418924,0.95,0.050000000000000044,0.125,0.11875,0.10674447743677855,0.1187361015444553,47612833.10218406,True
A0_EQUAL_WEIGHT,2024-01-23,2024-01-24,117680,ETF_002,KODEX 철강,8055.0,8017.0,12506.0,14030.0,1524.0,BUY,100735830.0,113011650.0,12275820.0,12275820.0,200202049.0,1841.3729999999998,30030.30735,951718931.4095341,951688901.102184,950380750.4243282,-0.0015703471150418924,0.95,0.050000000000000044,0.125,0.11875,0.10584619752263011,0.11874852156951424,47612833.10218406,True
A0_EQUAL_WEIGHT,2024-01-23,2024-01-24,139260,ETF_003,TIGER 200 IT,29905.0,29710.0,3339.0,3779.0,440.0,BUY,99852795.0,113010995.0,13158200.0,13158200.0,200202049.0,1973.7299999999998,30030.30735,951718931.4095341,951688901.102184,950380750.4243282,-0.0015703471150418924,0.95,0.050000000000000044,0.125,0.11875,0.10491836581638025,0.11874783331939463,47612833.10218406,True
A0_EQUAL_WEIGHT,2024-01-23,2024-01-24,139270,ETF_004,TIGER 200 금융,5839.0,5902.0,17361.0,19354.0,1993.0,BUY,101370879.0,113008006.0,11637127.0,11637127.0,200202049.0,1745.56905,30030.30735,951718931.4095341,951688901.102184,950380750.4243282,-0.0015703471150418924,0.95,0.050000000000000044,0.125,0.11875,0.10651346280341996,0.11874469258716949,47612833.10218406,True
A0_EQUAL_WEIGHT,2024-01-23,2024-01-24,227550,ETF_005,TIGER 200 산업재,5838.0,5885.0,16861.0,19358.0,2497.0,BUY,98434518.0,113012004.0,14577486.0,14577486.0,200202049.0,2186.6229,30030.30735,951718931.4095341,951688901.102184,950380750.4243282,-0.0015703471150418924,0.95,0.050000000000000044,0.125,0.11875,0.1034281390769589,0.11874889353980787,47612833.10218406,True
A0_EQUAL_WEIGHT,2024-01-23,2024-01-24,266390,ETF_006,KODEX 경기소비재,7722.0,7765.0,13077.0,14635.0,1558.0,BUY,100980594.0,113011470.0,12030876.0,12030876.0,200202049.0,1804.6314,30030.30735,951718931.4095341,951688901.102184,950380750.4243282,-0.0015703471150418924,0.95,0.050000000000000044,0.125,0.11875,0.10610337849478697,0.11874833243207679,47612833.10218406,True
A0_EQUAL_WEIGHT,2024-01-23,2024-01-24,266410,ETF_007,KODEX 필수소비재,5974.0,5931.0,16867.0,18917.0,2050.0,BUY,100763458.0,113010158.0,12246700.0,12246700.0,200202049.0,1837.0049999999999,30030.30735,951718931.4095341,951688901.102184,950380750.4243282,-0.0015703471150418924,0.95,0.050000000000000044,0.125,0.11875,0.10587522710172977,0.11874695383031052,47612833.10218406,True
A0_EQUAL_WEIGHT,2024-01-23,2024-01-24,266420,ETF_008,KODEX 헬스케어,13115.0,12851.0,7651.0,8617.0,966.0,BUY,100342865.0,113011955.0,12669090.0,12669090.0,200202049.0,1900.3634999999997,30030.30735,951718931.4095341,951688901.102184,950380750.4243282,-0.0015703471150418924,0.95,0.050000000000000044,0.125,0.11875,0.1054332972565631,0.11874884205239435,47612833.10218406,True
A0_EQUAL_WEIGHT,2024-01-23,2024-01-24,315270,ETF_009,TIGER 200 커뮤니케이션서비스,17084.0,17213.0,5865.0,0.0,-5865.0,SELL,100197660.0,0.0,-100197660.0,100197660.0,200202049.0,15029.649,30030.30735,951718931.4095341,951688901.102184,950380750.4243282,-0.0015703471150418924,0.95,0.050000000000000044,0.0,0.0,0.10528072595088891,0.0,47612833.10218406,True
A0_EQUAL_WEIGHT,2024-01-24,2024-01-25,117460,ETF_001,KODEX 에너지화학,13549.0,13553.0,8389.0,7395.0,-994.0,SELL,113662561.0,100194855.0,-13467706.0,13467706.0,200283386.0,2020.1559,30042.507899999997,949272404.4243282,949242361.9164282,951380446.482636,0.001051890053393345,0.95,0.050000000000000044,0.1111111111111111,0.10555555555555554,0.11973650605479144,0.10555244795198174,47495298.91642821,True
A0_EQUAL_WEIGHT,2024-01-24,2024-01-25,117680,ETF_002,KODEX 철강,8003.0,8050.0,14030.0,12520.0,-1510.0,SELL,112282090.0,100197560.0,-12084530.0,12084530.0,200283386.0,1812.6795,30042.507899999997,949272404.4243282,949242361.9164282,951380446.482636,0.001051890053393345,0.95,0.050000000000000044,0.1111111111111111,0.10555555555555554,0.11828226489749459,0.10555529759303077,47495298.91642821,True
A0_EQUAL_WEIGHT,2024-01-24,2024-01-25,139260,ETF_003,TIGER 200 IT,29764.0,29355.0,3779.0,3366.0,-413.0,SELL,112478156.0,100185624.0,-12292532.0,12292532.0,200283386.0,1843.8797999999997,30042.507899999997,949272404.4243282,949242361.9164282,951380446.482636,0.001051890053393345,0.95,0.050000000000000044,0.1111111111111111,0.10555555555555554,0.11848880835023395,0.10554272335437595,47495298.91642821,True
A0_EQUAL_WEIGHT,2024-01-24,2024-01-25,139270,ETF_004,TIGER 200 금융,5920.0,5907.0,19354.0,16925.0,-2429.0,SELL,114575680.0,100196000.0,-14379680.0,14379680.0,200283386.0,2156.9519999999998,30042.507899999997,949272404.4243282,949242361.9164282,951380446.482636,0.001051890053393345,0.95,0.050000000000000044,0.1111111111111111,0.10555555555555554,0.12069842067038984,0.10555365417712079,47495298.91642821,True
A0_EQUAL_WEIGHT,2024-01-24,2024-01-25,227550,ETF_005,TIGER 200 산업재,5781.0,5852.0,19358.0,17332.0,-2026.0,SELL,111908598.0,100196292.0,-11712306.0,11712306.0,200283386.0,1756.8458999999998,30042.507899999997,949272404.4243282,949242361.9164282,951380446.482636,0.001051890053393345,0.95,0.050000000000000044,0.1111111111111111,0.10555555555555554,0.11788881408373529,0.10555396179086804,47495298.91642821,True
A0_EQUAL_WEIGHT,2024-01-24,2024-01-25,266390,ETF_006,KODEX 경기소비재,7751.0,7765.0,14635.0,12927.0,-1708.0,SELL,113435885.0,100197177.0,-13238708.0,13238708.0,200283386.0,1985.8061999999998,30042.507899999997,949272404.4243282,949242361.9164282,951380446.482636,0.001051890053393345,0.95,0.050000000000000044,0.1111111111111111,0.10555555555555554,0.11949771685272097,0.10555489411335543,47495298.91642821,True
A0_EQUAL_WEIGHT,2024-01-24,2024-01-25,266410,ETF_007,KODEX 필수소비재,5960.0,5970.0,18917.0,16811.0,-2106.0,SELL,112745320.0,100193560.0,-12551760.0,12551760.0,200283386.0,1882.7639999999997,30042.507899999997,949272404.4243282,949242361.9164282,951380446.482636,0.001051890053393345,0.95,0.050000000000000044,0.1111111111111111,0.10555555555555554,0.11877024916612074,0.10555108370608211,47495298.91642821,True
A0_EQUAL_WEIGHT,2024-01-24,2024-01-25,266420,ETF_008,KODEX 헬스케어,12831.0,12966.0,8617.0,7809.0,-808.0,SELL,110564727.0,100197279.0,-10367448.0,10367448.0,200283386.0,1555.1172,30042.507899999997,949272404.4243282,949242361.9164282,951380446.482636,0.001051890053393345,0.95,0.050000000000000044,0.1111111111111111,0.10555555555555554,0.11647312877176735,0.10555500156747263,47495298.91642821,True
A0_EQUAL_WEIGHT,2024-01-24,2024-01-25,315270,ETF_009,TIGER 200 커뮤니케이션서비스,17036.0,17117.0,0.0,5881.0,5881.0,BUY,0.0,100188716.0,100188716.0,100188716.0,200283386.0,15028.307399999998,30042.507899999997,949272404.4243282,949242361.9164282,951380446.482636,0.001051890053393345,0.95,0.050000000000000044,0.1111111111111111,0.10555555555555554,0.0,0.10554598068898727,47495298.91642821,True
A0_EQUAL_WEIGHT,2024-01-25,2024-01-26,117460,ETF_001,KODEX 에너지화학,13460.0,13823.0,7395.0,7441.0,46.0,BUY,99536700.0,100155860.0,619160.0,619160.0,6669042.0,92.874,1000.3562999999999,948893291.482636,948892291.126336,960398076.9594963,0.009478469428501946,0.95,0.050000000000000044,0.1111111111111111,0.10555555555555554,0.10489767489500841,0.10555029368097711,47502240.12633598,True
A0_EQUAL_WEIGHT,2024-01-25,2024-01-26,117680,ETF_002,KODEX 철강,7984.0,8148.0,12520.0,12545.0,25.0,BUY,99959680.0,100159280.0,199600.0,199600.0,6669042.0,29.939999999999998,1000.3562999999999,948893291.482636,948892291.126336,960398076.9594963,0.009478469428501946,0.95,0.050000000000000044,0.1111111111111111,0.10555555555555554,0.10534343629283545,0.10555389788351094,47502240.12633598,True
A0_EQUAL_WEIGHT,2024-01-25,2024-01-26,139260,ETF_003,TIGER 200 IT,29160.0,29306.0,3366.0,3434.0,68.0,BUY,98152560.0,100135440.0,1982880.0,1982880.0,6669042.0,297.43199999999996,1000.3562999999999,948893291.482636,948892291.126336,960398076.9594963,0.009478469428501946,0.95,0.050000000000000044,0.1111111111111111,0.10555555555555554,0.10343898611258769,0.1055287738518132,47502240.12633598,True
A0_EQUAL_WEIGHT,2024-01-25,2024-01-26,139270,ETF_004,TIGER 200 금융,5979.0,5988.0,16925.0,16752.0,-173.0,SELL,101194575.0,100160208.0,-1034367.0,1034367.0,6669042.0,155.15505,1000.3562999999999,948893291.482636,948892291.126336,960398076.9594963,0.009478469428501946,0.95,0.050000000000000044,0.1111111111111111,0.10555555555555554,0.10664484184716336,0.10555487586595286,47502240.12633598,True
A0_EQUAL_WEIGHT,2024-01-25,2024-01-26,227550,ETF_005,TIGER 200 산업재,5833.0,5885.0,17332.0,17171.0,-161.0,SELL,101097556.0,100158443.0,-939113.0,939113.0,6669042.0,140.86694999999997,1000.3562999999999,948893291.482636,948892291.126336,960398076.9594963,0.009478469428501946,0.95,0.050000000000000044,0.1111111111111111,0.10555555555555554,0.10654259747377506,0.10555301580236451,47502240.12633598,True
A0_EQUAL_WEIGHT,2024-01-25,2024-01-26,266390,ETF_006,KODEX 경기소비재,7717.0,7798.0,12927.0,12979.0,52.0,BUY,99757659.0,100158943.0,401284.0,401284.0,6669042.0,60.1926,1000.3562999999999,948893291.482636,948892291.126336,960398076.9594963,0.009478469428501946,0.95,0.050000000000000044,0.1111111111111111,0.10555555555555554,0.10513053458743468,0.1055535427325595,47502240.12633598,True
A0_EQUAL_WEIGHT,2024-01-25,2024-01-26,266410,ETF_007,KODEX 필수소비재,5950.0,5965.0,16811.0,16833.0,22.0,BUY,100025450.0,100156350.0,130900.0,130900.0,6669042.0,19.634999999999998,1000.3562999999999,948893291.482636,948892291.126336,960398076.9594963,0.009478469428501946,0.95,0.050000000000000044,0.1111111111111111,0.10555555555555554,0.1054127486176146,0.10555081007256822,47502240.12633598,True
A0_EQUAL_WEIGHT,2024-01-25,2024-01-26,266420,ETF_008,KODEX 헬스케어,12916.0,13274.0,7809.0,7754.0,-55.0,SELL,100861044.0,100150664.0,-710380.0,710380.0,6669042.0,106.55699999999999,1000.3562999999999,948893291.482636,948892291.126336,960398076.9594963,0.009478469428501946,0.95,0.050000000000000044,0.1111111111111111,0.10555555555555554,0.10629334710798267,0.10554481782239064,47502240.12633598,True
A0_EQUAL_WEIGHT,2024-01-25,2024-01-26,315270,ETF_009,TIGER 200 커뮤니케이션서비스,17141.0,17332.0,5881.0,5843.0,-38.0,SELL,100806221.0,100154863.0,-651358.0,651358.0,6669042.0,97.7037,1000.3562999999999,948893291.482636,948892291.126336,960398076.9594963,0.009478469428501946,0.95,0.050000000000000044,0.1111111111111111,0.10555555555555554,0.10623557138073061,0.10554924298216828,47502240.12633598,True
A0_EQUAL_WEIGHT,2024-01-26,2024-01-29,117460,ETF_001,KODEX 에너지화학,13798.0,13990.0,7441.0,7385.0,-56.0,SELL,102670918.0,101898230.0,-772688.0,772688.0,8740338.0,115.90319999999998,1311.0506999999998,965360042.9594963,965358731.9087963,966261245.5055008,0.006104935741402695,0.95,0.050000000000000044,0.1111111111111111,0.10555555555555554,0.10635505244783347,0.10555478148368475,48308616.90879631,True
A0_EQUAL_WEIGHT,2024-01-26,2024-01-29,117680,ETF_002,KODEX 철강,8195.0,8363.0,12545.0,12434.0,-111.0,SELL,102806275.0,101896630.0,-909645.0,909645.0,8740338.0,136.44674999999998,1311.0506999999998,965360042.9594963,965358731.9087963,966261245.5055008,0.006104935741402695,0.95,0.050000000000000044,0.1111111111111111,0.10555555555555554,0.10649526645501885,0.10555312406872892,48308616.90879631,True
A0_EQUAL_WEIGHT,2024-01-26,2024-01-29,139260,ETF_003,TIGER 200 IT,29311.0,29569.0,3434.0,3476.0,42.0,BUY,100653974.0,101885036.0,1231062.0,1231062.0,8740338.0,184.65929999999997,1311.0506999999998,965360042.9594963,965358731.9087963,966261245.5055008,0.006104935741402695,0.95,0.050000000000000044,0.1111111111111111,0.10555555555555554,0.10426573456616865,0.10554111402560529,48308616.90879631,True
A0_EQUAL_WEIGHT,2024-01-26,2024-01-29,139270,ETF_004,TIGER 200 금융,6024.0,6065.0,16752.0,16915.0,163.0,BUY,100914048.0,101895960.0,981912.0,981912.0,8740338.0,147.28679999999997,1311.0506999999998,965360042.9594963,965358731.9087963,966261245.5055008,0.006104935741402695,0.95,0.050000000000000044,0.1111111111111111,0.10555555555555554,0.10453514078605185,0.10555243002621617,48308616.90879631,True
A0_EQUAL_WEIGHT,2024-01-26,2024-01-29,227550,ETF_005,TIGER 200 산업재,5885.0,5828.0,17171.0,17315.0,144.0,BUY,101051335.0,101898775.0,847440.0,847440.0,8740338.0,127.11599999999997,1311.0506999999998,965360042.9594963,965358731.9087963,966261245.5055008,0.006104935741402695,0.95,0.050000000000000044,0.1111111111111111,0.10555555555555554,0.1046773540473125,0.10555534604065407,48308616.90879631,True
A0_EQUAL_WEIGHT,2024-01-26,2024-01-29,266390,ETF_006,KODEX 경기소비재,7846.0,7918.0,12979.0,12987.0,8.0,BUY,101833234.0,101896002.0,62768.0,62768.0,8740338.0,9.415199999999999,1311.0506999999998,965360042.9594963,965358731.9087963,966261245.5055008,0.006104935741402695,0.95,0.050000000000000044,0.1111111111111111,0.10555555555555554,0.10548730988265342,0.10555247353335877,48308616.90879631,True
A0_EQUAL_WEIGHT,2024-01-26,2024-01-29,266410,ETF_007,KODEX 필수소비재,6003.0,5979.0,16833.0,16974.0,141.0,BUY,101048499.0,101894922.0,846423.0,846423.0,8740338.0,126.96344999999998,1311.0506999999998,965360042.9594963,965358731.9087963,966261245.5055008,0.006104935741402695,0.95,0.050000000000000044,0.1111111111111111,0.10555555555555554,0.10467441628329308,0.10555135477826358,48308616.90879631,True
A0_EQUAL_WEIGHT,2024-01-26,2024-01-29,266420,ETF_008,KODEX 헬스케어,13503.0,13299.0,7754.0,7546.0,-208.0,SELL,104702262.0,101893638.0,-2808624.0,2808624.0,8740338.0,421.2935999999999,1311.0506999999998,965360042.9594963,965358731.9087963,966261245.5055008,0.006104935741402695,0.95,0.050000000000000044,0.1111111111111111,0.10555555555555554,0.10845928704384236,0.10555002470276154,48308616.90879631,True
A0_EQUAL_WEIGHT,2024-01-26,2024-01-29,315270,ETF_009,TIGER 200 커뮤니케이션서비스,17486.0,17108.0,5843.0,5827.0,-16.0,SELL,102170698.0,101890922.0,-279776.0,279776.0,8740338.0,41.96639999999999,1311.0506999999998,965360042.9594963,965358731.9087963,966261245.5055008,0.006104935741402695,0.95,0.050000000000000044,0.1111111111111111,0.10555555555555554,0.10583688308330656,0.10554721124087403,48308616.90879631,True
A0_EQUAL_WEIGHT,2024-01-29,2024-01-30,117460,ETF_001,KODEX 에너지화학,13994.0,13911.0,7385.0,8234.0,849.0,BUY,103345690.0,115226596.0,11880906.0,11880906.0,201408235.0,1782.1358999999998,30211.235249999998,970472442.5055008,970442231.2702508,967529296.2383403,0.0013123270117039176,0.95,0.050000000000000044,0.125,0.11875,0.10649008201942244,0.1187361723213295,48561906.2702508,True
A0_EQUAL_WEIGHT,2024-01-29,2024-01-30,117680,ETF_002,KODEX 철강,8448.0,8331.0,12434.0,13641.0,1207.0,BUY,105042432.0,115239168.0,10196736.0,10196736.0,201408235.0,1529.5104,30211.235249999998,970472442.5055008,970442231.2702508,967529296.2383403,0.0013123270117039176,0.95,0.050000000000000044,0.125,0.11875,0.10823844902675286,0.11874912723981398,48561906.2702508,True
A0_EQUAL_WEIGHT,2024-01-29,2024-01-30,139260,ETF_003,TIGER 200 IT,29729.0,29613.0,3476.0,3876.0,400.0,BUY,103338004.0,115229604.0,11891600.0,11891600.0,201408235.0,1783.7399999999998,30211.235249999998,970472442.5055008,970442231.2702508,967529296.2383403,0.0013123270117039176,0.95,0.050000000000000044,0.125,0.11875,0.10648216216547979,0.11873927193911517,48561906.2702508,True
A0_EQUAL_WEIGHT,2024-01-29,2024-01-30,139270,ETF_004,TIGER 200 금융,6106.0,6115.0,16915.0,18873.0,1958.0,BUY,103282990.0,115238538.0,11955548.0,11955548.0,201408235.0,1793.3322,30211.235249999998,970472442.5055008,970442231.2702508,967529296.2383403,0.0013123270117039176,0.95,0.050000000000000044,0.125,0.11875,0.10642547431161557,0.1187484780512485,48561906.2702508,True
A0_EQUAL_WEIGHT,2024-01-29,2024-01-30,227550,ETF_005,TIGER 200 산업재,5824.0,5762.0,17315.0,0.0,-17315.0,SELL,100842560.0,0.0,-100842560.0,100842560.0,201408235.0,15126.383999999998,30211.235249999998,970472442.5055008,970442231.2702508,967529296.2383403,0.0013123270117039176,0.95,0.050000000000000044,0.0,0.0,0.10391079188158237,0.0,48561906.2702508,True
A0_EQUAL_WEIGHT,2024-01-29,2024-01-30,266390,ETF_006,KODEX 경기소비재,7946.0,7932.0,12987.0,14502.0,1515.0,BUY,103194702.0,115232892.0,12038190.0,12038190.0,201408235.0,1805.7284999999997,30211.235249999998,970472442.5055008,970442231.2702508,967529296.2383403,0.0013123270117039176,0.95,0.050000000000000044,0.125,0.11875,0.10633450006429737,0.11874266008515215,48561906.2702508,True
A0_EQUAL_WEIGHT,2024-01-29,2024-01-30,266410,ETF_007,KODEX 필수소비재,6017.0,5974.0,16974.0,19152.0,2178.0,BUY,102132558.0,115237584.0,13105026.0,13105026.0,201408235.0,1965.7538999999997,30211.235249999998,970472442.5055008,970442231.2702508,967529296.2383403,0.0013123270117039176,0.95,0.050000000000000044,0.125,0.11875,0.10524003931149348,0.11874749499427792,48561906.2702508,True
A0_EQUAL_WEIGHT,2024-01-29,2024-01-30,266420,ETF_008,KODEX 헬스케어,13423.0,13448.0,7546.0,8585.0,1039.0,BUY,101289958.0,115236455.0,13946497.0,13946497.0,201408235.0,2091.97455,30211.235249999998,970472442.5055008,970442231.2702508,967529296.2383403,0.0013123270117039176,0.95,0.050000000000000044,0.125,0.11875,0.104371802396054,0.11874633160715026,48561906.2702508,True
A0_EQUAL_WEIGHT,2024-01-29,2024-01-30,315270,ETF_009,TIGER 200 커뮤니케이션서비스,17108.0,17175.0,5827.0,6736.0,909.0,BUY,99688316.0,115239488.0,15551172.0,15551172.0,201408235.0,2332.6758,30211.235249999998,970472442.5055008,970442231.2702508,967529296.2383403,0.0013123270117039176,0.95,0.050000000000000044,0.125,0.11875,0.10272142889769377,0.11874945698638692,48561906.2702508,True
A0_EQUAL_WEIGHT,2024-01-30,2024-01-31,117460,ETF_001,KODEX 에너지화학,13784.0,13798.0,8234.0,7368.0,-866.0,SELL,113497456.0,101560512.0,-11936944.0,11936944.0,202766343.0,1790.5415999999998,30414.951449999997,962302075.2383403,962271660.2868903,959906065.0786146,-0.007879070111224573,0.95,0.050000000000000044,0.1111111111111111,0.10555555555555554,0.11794368828716209,0.10554245354136367,48159632.28689027,True
A0_EQUAL_WEIGHT,2024-01-30,2024-01-31,117680,ETF_002,KODEX 철강,8260.0,8246.0,13641.0,12296.0,-1345.0,SELL,112674660.0,101564960.0,-11109700.0,11109700.0,202766343.0,1666.4549999999997,30414.951449999997,962302075.2383403,962271660.2868903,959906065.0786146,-0.007879070111224573,0.95,0.050000000000000044,0.1111111111111111,0.10555555555555554,0.11708865947534516,0.10554707593666385,48159632.28689027,True
A0_EQUAL_WEIGHT,2024-01-30,2024-01-31,139260,ETF_003,TIGER 200 IT,29364.0,29321.0,3876.0,3459.0,-417.0,SELL,113814864.0,101570076.0,-12244788.0,12244788.0,202766343.0,1836.7181999999998,30414.951449999997,962302075.2383403,962271660.2868903,959906065.0786146,-0.007879070111224573,0.95,0.050000000000000044,0.1111111111111111,0.10555555555555554,0.1182735306601211,0.1055523925226251,48159632.28689027,True
A0_EQUAL_WEIGHT,2024-01-30,2024-01-31,139270,ETF_004,TIGER 200 금융,6115.0,6247.0,18873.0,16610.0,-2263.0,SELL,115408395.0,101570150.0,-13838245.0,13838245.0,202766343.0,2075.7367499999996,30414.951449999997,962302075.2383403,962271660.2868903,959906065.0786146,-0.007879070111224573,0.95,0.050000000000000044,0.1111111111111111,0.10555555555555554,0.11992948780809391,0.10555246942398576,48159632.28689027,True
A0_EQUAL_WEIGHT,2024-01-30,2024-01-31,227550,ETF_005,TIGER 200 산업재,5762.0,5762.0,0.0,17628.0,17628.0,BUY,0.0,101572536.0,101572536.0,101572536.0,202766343.0,15235.880399999998,30414.951449999997,962302075.2383403,962271660.2868903,959906065.0786146,-0.007879070111224573,0.95,0.050000000000000044,0.1111111111111111,0.10555555555555554,0.0,0.10555494897326324,48159632.28689027,True
A0_EQUAL_WEIGHT,2024-01-30,2024-01-31,266390,ETF_006,KODEX 경기소비재,7903.0,7880.0,14502.0,12852.0,-1650.0,SELL,114609306.0,101569356.0,-13039950.0,13039950.0,202766343.0,1955.9924999999996,30414.951449999997,962302075.2383403,962271660.2868903,959906065.0786146,-0.007879070111224573,0.95,0.050000000000000044,0.1111111111111111,0.10555555555555554,0.11909909471162046,0.10555164429317004,48159632.28689027,True
A0_EQUAL_WEIGHT,2024-01-30,2024-01-31,266410,ETF_007,KODEX 필수소비재,5974.0,5846.0,19152.0,17002.0,-2150.0,SELL,114414048.0,101569948.0,-12844100.0,12844100.0,202766343.0,1926.6149999999998,30414.951449999997,962302075.2383403,962271660.2868903,959906065.0786146,-0.007879070111224573,0.95,0.050000000000000044,0.1111111111111111,0.10555555555555554,0.11889618753203068,0.10555225950405532,48159632.28689027,True
A0_EQUAL_WEIGHT,2024-01-30,2024-01-31,266420,ETF_008,KODEX 헬스케어,13498.0,13264.0,8585.0,7525.0,-1060.0,SELL,115880330.0,101572450.0,-14307880.0,14307880.0,202766343.0,2146.182,30414.951449999997,962302075.2383403,962271660.2868903,959906065.0786146,-0.007879070111224573,0.95,0.050000000000000044,0.1111111111111111,0.10555555555555554,0.12041991073468182,0.10555485960141166,48159632.28689027,True
A0_EQUAL_WEIGHT,2024-01-30,2024-01-31,315270,ETF_009,TIGER 200 커뮤니케이션서비스,16840.0,16821.0,6736.0,6031.0,-705.0,SELL,113434240.0,101562040.0,-11872200.0,11872200.0,202766343.0,1780.8299999999997,30414.951449999997,962302075.2383403,962271660.2868903,959906065.0786146,-0.007879070111224573,0.95,0.050000000000000044,0.1111111111111111,0.10555555555555554,0.11787799581737879,0.10554404145054053,48159632.28689027,True
A0_EQUAL_WEIGHT,2024-01-31,2024-02-01,117460,ETF_001,KODEX 에너지화학,13730.0,14146.0,7368.0,8279.0,911.0,BUY,101162640.0,113670670.0,12508030.0,12508030.0,204195579.0,1876.2044999999998,30629.336849999996,957327670.0786146,957297040.7417645,976507502.790981,0.017294856565998273,0.95,0.050000000000000044,0.125,0.11875,0.10567190645569938,0.11874127377634212,47931544.741764545,True
A0_EQUAL_WEIGHT,2024-01-31,2024-02-01,117680,ETF_002,KODEX 철강,8167.0,8410.0,12296.0,13919.0,1623.0,BUY,100421432.0,113676473.0,13255041.0,13255041.0,204195579.0,1988.2561499999997,30629.336849999996,957327670.0786146,957297040.7417645,976507502.790981,0.017294856565998273,0.95,0.050000000000000044,0.125,0.11875,0.10489765953568804,0.1187473356356742,47931544.741764545,True
A0_EQUAL_WEIGHT,2024-01-31,2024-02-01,139260,ETF_003,TIGER 200 IT,29194.0,29705.0,3459.0,3893.0,434.0,BUY,100982046.0,113652242.0,12670196.0,12670196.0,204195579.0,1900.5293999999997,30629.336849999996,957327670.0786146,957297040.7417645,976507502.790981,0.017294856565998273,0.95,0.050000000000000044,0.125,0.11875,0.10548326258208694,0.11872202374295047,47931544.741764545,True
A0_EQUAL_WEIGHT,2024-01-31,2024-02-01,139270,ETF_004,TIGER 200 금융,6256.0,6569.0,16610.0,18171.0,1561.0,BUY,103912160.0,113677776.0,9765616.0,9765616.0,204195579.0,1464.8423999999998,30629.336849999996,957327670.0786146,957297040.7417645,976507502.790981,0.017294856565998273,0.95,0.050000000000000044,0.125,0.11875,0.1085439847272636,0.11874869675969794,47931544.741764545,True
A0_EQUAL_WEIGHT,2024-01-31,2024-02-01,227550,ETF_005,TIGER 200 산업재,5786.0,5866.0,17628.0,0.0,-17628.0,SELL,101995608.0,0.0,-101995608.0,101995608.0,204195579.0,15299.341199999997,30629.336849999996,957327670.0786146,957297040.7417645,976507502.790981,0.017294856565998273,0.95,0.050000000000000044,0.0,0.0,0.10654200352489994,0.0,47931544.741764545,True
A0_EQUAL_WEIGHT,2024-01-31,2024-02-01,266390,ETF_006,KODEX 경기소비재,7880.0,8075.0,12852.0,14426.0,1574.0,BUY,101273760.0,113676880.0,12403120.0,12403120.0,204195579.0,1860.4679999999996,30629.336849999996,957327670.0786146,957297040.7417645,976507502.790981,0.017294856565998273,0.95,0.050000000000000044,0.125,0.11875,0.1057879795657463,0.11874776079106765,47931544.741764545,True
A0_EQUAL_WEIGHT,2024-01-31,2024-02-01,266410,ETF_007,KODEX 필수소비재,5831.0,5879.0,17002.0,19495.0,2493.0,BUY,99138662.0,113675345.0,14536683.0,14536683.0,204195579.0,2180.50245,30629.336849999996,957327670.0786146,957297040.7417645,976507502.790981,0.017294856565998273,0.95,0.050000000000000044,0.125,0.11875,0.10355771080121277,0.11874615731802358,47931544.741764545,True
A0_EQUAL_WEIGHT,2024-01-31,2024-02-01,266420,ETF_008,KODEX 헬스케어,13130.0,13165.0,7525.0,8657.0,1132.0,BUY,98803250.0,113666410.0,14863160.0,14863160.0,204195579.0,2229.4739999999997,30629.336849999996,957327670.0786146,957297040.7417645,976507502.790981,0.017294856565998273,0.95,0.050000000000000044,0.125,0.11875,0.103207348004353,0.11873682374691688,47931544.741764545,True
A0_EQUAL_WEIGHT,2024-01-31,2024-02-01,315270,ETF_009,TIGER 200 커뮤니케이션서비스,16825.0,16921.0,6031.0,6756.0,725.0,BUY,101471575.0,113669700.0,12198125.0,12198125.0,204195579.0,1829.7187499999998,30629.336849999996,957327670.0786146,957297040.7417645,976507502.790981,0.017294856565998273,0.95,0.050000000000000044,0.125,0.11875,0.1059946120555225,0.11874026050673121,47931544.741764545,True
A0_EQUAL_WEIGHT,2024-02-01,2024-02-02,117460,ETF_001,KODEX 에너지화학,14078.0,14426.0,8279.0,7375.0,-904.0,SELL,116551762.0,103825250.0,-12726512.0,12726512.0,208967122.0,1908.9768,31345.0683,983680625.790981,983649280.722681,1003515013.6455088,0.02765724869223929,0.95,0.050000000000000044,0.1111111111111111,0.10555555555555554,0.11848536907624903,0.10555108617953772,49217755.722681046,True
A0_EQUAL_WEIGHT,2024-02-01,2024-02-02,117680,ETF_002,KODEX 철강,8438.0,8583.0,13919.0,12305.0,-1614.0,SELL,117448522.0,103829590.0,-13618932.0,13618932.0,208967122.0,2042.8398,31345.0683,983680625.790981,983649280.722681,1003515013.6455088,0.02765724869223929,0.95,0.050000000000000044,0.1111111111111111,0.10555555555555554,0.11939700642732415,0.1055554983212279,49217755.722681046,True
A0_EQUAL_WEIGHT,2024-02-01,2024-02-02,139260,ETF_003,TIGER 200 IT,29715.0,30542.0,3893.0,3494.0,-399.0,SELL,115680495.0,103824210.0,-11856285.0,11856285.0,208967122.0,1778.44275,31345.0683,983680625.790981,983649280.722681,1003515013.6455088,0.02765724869223929,0.95,0.050000000000000044,0.1111111111111111,0.10555555555555554,0.11759964765696275,0.1055500288921281,49217755.722681046,True
A0_EQUAL_WEIGHT,2024-02-01,2024-02-02,139270,ETF_004,TIGER 200 금융,6628.0,6905.0,18171.0,15665.0,-2506.0,SELL,120437388.0,103827620.0,-16609768.0,16609768.0,208967122.0,2491.4651999999996,31345.0683,983680625.790981,983649280.722681,1003515013.6455088,0.02765724869223929,0.95,0.050000000000000044,0.1111111111111111,0.10555555555555554,0.12243545805647628,0.10555349557488466,49217755.722681046,True
A0_EQUAL_WEIGHT,2024-02-01,2024-02-02,227550,ETF_005,TIGER 200 산업재,5900.0,6019.0,0.0,17598.0,17598.0,BUY,0.0,103828200.0,103828200.0,103828200.0,208967122.0,15574.23,31345.0683,983680625.790981,983649280.722681,1003515013.6455088,0.02765724869223929,0.95,0.050000000000000044,0.1111111111111111,0.10555555555555554,0.0,0.10555408521594004,49217755.722681046,True
A0_EQUAL_WEIGHT,2024-02-01,2024-02-02,266390,ETF_006,KODEX 경기소비재,8075.0,8228.0,14426.0,12858.0,-1568.0,SELL,116489950.0,103828350.0,-12661600.0,12661600.0,208967122.0,1899.2399999999998,31345.0683,983680625.790981,983649280.722681,1003515013.6455088,0.02765724869223929,0.95,0.050000000000000044,0.1111111111111111,0.10555555555555554,0.11842253160809182,0.10555423770931643,49217755.722681046,True
A0_EQUAL_WEIGHT,2024-02-01,2024-02-02,266410,ETF_007,KODEX 필수소비재,6012.0,5998.0,19495.0,17270.0,-2225.0,SELL,117203940.0,103827240.0,-13376700.0,13376700.0,208967122.0,2006.5049999999999,31345.0683,983680625.790981,983649280.722681,1003515013.6455088,0.02765724869223929,0.95,0.050000000000000044,0.1111111111111111,0.10555555555555554,0.11914836678394057,0.10555310925833115,49217755.722681046,True
A0_EQUAL_WEIGHT,2024-02-01,2024-02-02,266420,ETF_008,KODEX 헬스케어,13130.0,13547.0,8657.0,7907.0,-750.0,SELL,113666410.0,103818910.0,-9847500.0,9847500.0,208967122.0,1477.125,31345.0683,983680625.790981,983649280.722681,1003515013.6455088,0.02765724869223929,0.95,0.050000000000000044,0.1111111111111111,0.10555555555555554,0.1155521487562088,0.10554464079282902,49217755.722681046,True
A0_EQUAL_WEIGHT,2024-02-01,2024-02-02,315270,ETF_009,TIGER 200 커뮤니케이션서비스,17505.0,17701.0,6756.0,5931.0,-825.0,SELL,118263780.0,103822155.0,-14441625.0,14441625.0,208967122.0,2166.24375,31345.0683,983680625.790981,983649280.722681,1003515013.6455088,0.02765724869223929,0.95,0.050000000000000044,0.1111111111111111,0.10555555555555554,0.12022578965088764,0.10554793973287156,49217755.722681046,True
A0_EQUAL_WEIGHT,2024-02-02,2024-02-05,117460,ETF_001,KODEX 에너지화학,14308.0,14396.0,7375.0,7372.0,-3.0,SELL,105521500.0,105478576.0,-42924.0,42924.0,10558084.0,6.4386,1583.7125999999998,999387615.6455088,999386031.9329088,993346558.9589791,-0.010132837624013513,0.95,0.050000000000000044,0.1111111111111111,0.10555555555555554,0.1055861593120135,0.1055433762627183,50044367.93290877,True
A0_EQUAL_WEIGHT,2024-02-02,2024-02-05,117680,ETF_002,KODEX 철강,8546.0,8522.0,12305.0,12343.0,38.0,BUY,105158530.0,105483278.0,324748.0,324748.0,10558084.0,48.712199999999996,1583.7125999999998,999387615.6455088,999386031.9329088,993346558.9589791,-0.010132837624013513,0.95,0.050000000000000044,0.1111111111111111,0.10555555555555554,0.1052229668986619,0.1055480811513697,50044367.93290877,True
A0_EQUAL_WEIGHT,2024-02-02,2024-02-05,139260,ETF_003,TIGER 200 IT,30420.0,30031.0,3494.0,3467.0,-27.0,SELL,106287480.0,105466140.0,-821340.0,821340.0,10558084.0,123.20099999999998,1583.7125999999998,999387615.6455088,999386031.9329088,993346558.9589791,-0.010132837624013513,0.95,0.050000000000000044,0.1111111111111111,0.10555555555555554,0.10635260867361104,0.1055309326227207,50044367.93290877,True
A0_EQUAL_WEIGHT,2024-02-02,2024-02-05,139270,ETF_004,TIGER 200 금융,6927.0,6732.0,15665.0,15228.0,-437.0,SELL,108511455.0,105484356.0,-3027099.0,3027099.0,10558084.0,454.0648499999999,1583.7125999999998,999387615.6455088,999386031.9329088,993346558.9589791,-0.010132837624013513,0.95,0.050000000000000044,0.1111111111111111,0.10555555555555554,0.10857794643563998,0.10554915981363389,50044367.93290877,True
A0_EQUAL_WEIGHT,2024-02-02,2024-02-05,227550,ETF_005,TIGER 200 산업재,5923.0,5952.0,17598.0,17810.0,212.0,BUY,104232954.0,105488630.0,1255676.0,1255676.0,10558084.0,188.35139999999998,1583.7125999999998,999387615.6455088,999386031.9329088,993346558.9589791,-0.010132837624013513,0.95,0.050000000000000044,0.1111111111111111,0.10555555555555554,0.1042968237430834,0.1055534364393455,50044367.93290877,True
A0_EQUAL_WEIGHT,2024-02-02,2024-02-05,266390,ETF_006,KODEX 경기소비재,8214.0,8233.0,12858.0,12842.0,-16.0,SELL,105615612.0,105484188.0,-131424.0,131424.0,10558084.0,19.7136,1583.7125999999998,999387615.6455088,999386031.9329088,993346558.9589791,-0.010132837624013513,0.95,0.050000000000000044,0.1111111111111111,0.10555555555555554,0.10568032898004487,0.10554899171042388,50044367.93290877,True
A0_EQUAL_WEIGHT,2024-02-02,2024-02-05,266410,ETF_007,KODEX 필수소비재,6022.0,5955.0,17270.0,17517.0,247.0,BUY,103999940.0,105487374.0,1487434.0,1487434.0,10558084.0,223.11509999999996,1583.7125999999998,999387615.6455088,999386031.9329088,993346558.9589791,-0.010132837624013513,0.95,0.050000000000000044,0.1111111111111111,0.10555555555555554,0.10406366696151823,0.10555217966772786,50044367.93290877,True
A0_EQUAL_WEIGHT,2024-02-02,2024-02-05,266420,ETF_008,KODEX 헬스케어,13552.0,13423.0,7907.0,7784.0,-123.0,SELL,107155664.0,105488768.0,-1666896.0,1666896.0,10558084.0,250.03439999999998,1583.7125999999998,999387615.6455088,999386031.9329088,993346558.9589791,-0.010132837624013513,0.95,0.050000000000000044,0.1111111111111111,0.10555555555555554,0.10722132466169064,0.10555357452412514,50044367.93290877,True
A0_EQUAL_WEIGHT,2024-02-02,2024-02-05,315270,ETF_009,TIGER 200 커뮤니케이션서비스,17481.0,17371.0,5931.0,6034.0,103.0,BUY,103679811.0,105480354.0,1800543.0,1800543.0,10558084.0,270.08144999999996,1583.7125999999998,999387615.6455088,999386031.9329088,993346558.9589791,-0.010132837624013513,0.95,0.050000000000000044,0.1111111111111111,0.10555555555555554,0.10374334179940059,0.10554515535502416,50044367.93290877,True
A0_EQUAL_WEIGHT,2024-02-05,2024-02-06,117460,ETF_001,KODEX 에너지화학,14220.0,14239.0,7372.0,7343.0,-29.0,SELL,104829840.0,104417460.0,-412380.0,412380.0,5552015.0,61.85699999999999,832.80225,989260989.9589791,989260157.1567291,987854749.5086589,-0.0055285936220241805,0.95,0.050000000000000044,0.1111111111111111,0.10555555555555554,0.10596782958594869,0.10555106181584252,49496479.1567291,True
A0_EQUAL_WEIGHT,2024-02-05,2024-02-06,117680,ETF_002,KODEX 철강,8466.0,8377.0,12343.0,12334.0,-9.0,SELL,104495838.0,104419644.0,-76194.0,76194.0,5552015.0,11.429099999999998,832.80225,989260989.9589791,989260157.1567291,987854749.5086589,-0.0055285936220241805,0.95,0.050000000000000044,0.1111111111111111,0.10555555555555554,0.105630201797741,0.10555326952630593,49496479.1567291,True
A0_EQUAL_WEIGHT,2024-02-05,2024-02-06,139260,ETF_003,TIGER 200 IT,30031.0,30197.0,3467.0,3477.0,10.0,BUY,104117477.0,104417787.0,300310.0,300310.0,5552015.0,45.0465,832.80225,989260989.9589791,989260157.1567291,987854749.5086589,-0.0055285936220241805,0.95,0.050000000000000044,0.1111111111111111,0.10555555555555554,0.10524773346649134,0.10555139236589817,49496479.1567291,True
A0_EQUAL_WEIGHT,2024-02-05,2024-02-06,139270,ETF_004,TIGER 200 금융,6709.0,6632.0,15228.0,15564.0,336.0,BUY,102164652.0,104418876.0,2254224.0,2254224.0,5552015.0,338.1336,832.80225,989260989.9589791,989260157.1567291,987854749.5086589,-0.0055285936220241805,0.95,0.050000000000000044,0.1111111111111111,0.10555555555555554,0.10327370940224417,0.10555249318856057,49496479.1567291,True
A0_EQUAL_WEIGHT,2024-02-05,2024-02-06,227550,ETF_005,TIGER 200 산업재,5876.0,5885.0,17810.0,17770.0,-40.0,SELL,104651560.0,104416520.0,-235040.0,235040.0,5552015.0,35.256,832.80225,989260989.9589791,989260157.1567291,987854749.5086589,-0.0055285936220241805,0.95,0.050000000000000044,0.1111111111111111,0.10555555555555554,0.10578761425166426,0.10555011161078959,49496479.1567291,True
A0_EQUAL_WEIGHT,2024-02-05,2024-02-06,266390,ETF_006,KODEX 경기소비재,8238.0,8262.0,12842.0,12675.0,-167.0,SELL,105792396.0,104416650.0,-1375746.0,1375746.0,5552015.0,206.3619,832.80225,989260989.9589791,989260157.1567291,987854749.5086589,-0.0055285936220241805,0.95,0.050000000000000044,0.1111111111111111,0.10555555555555554,0.10694083469761281,0.10555024302212669,49496479.1567291,True
A0_EQUAL_WEIGHT,2024-02-05,2024-02-06,266410,ETF_007,KODEX 필수소비재,5960.0,5946.0,17517.0,17520.0,3.0,BUY,104401320.0,104419200.0,17880.0,17880.0,5552015.0,2.682,832.80225,989260989.9589791,989260157.1567291,987854749.5086589,-0.0055285936220241805,0.95,0.050000000000000044,0.1111111111111111,0.10555555555555554,0.10553465774924484,0.1055528207060469,49496479.1567291,True
A0_EQUAL_WEIGHT,2024-02-05,2024-02-06,266420,ETF_008,KODEX 헬스케어,13353.0,13527.0,7784.0,7820.0,36.0,BUY,103939752.0,104420460.0,480708.0,480708.0,5552015.0,72.1062,832.80225,989260989.9589791,989260157.1567291,987854749.5086589,-0.0055285936220241805,0.95,0.050000000000000044,0.1111111111111111,0.10555555555555554,0.10506807915705843,0.1055540943851604,49496479.1567291,True
A0_EQUAL_WEIGHT,2024-02-05,2024-02-06,315270,ETF_009,TIGER 200 커뮤니케이션서비스,17371.0,17136.0,6034.0,6011.0,-23.0,SELL,104816614.0,104417081.0,-399533.0,399533.0,5552015.0,59.92994999999999,832.80225,989260989.9589791,989260157.1567291,987854749.5086589,-0.0055285936220241805,0.95,0.050000000000000044,0.1111111111111111,0.10555555555555554,0.10595446000993766,0.10555067870125202,49496479.1567291,True
A0_EQUAL_WEIGHT,2024-02-06,2024-02-07,117460,ETF_001,KODEX 에너지화학,14514.0,14519.0,7343.0,8151.0,808.0,BUY,106576302.0,118303614.0,11727312.0,11727312.0,210120367.0,1759.0967999999998,31518.05505,996342191.5086589,996310673.4536089,1000370826.2671444,0.01266995655455494,0.95,0.050000000000000044,0.125,0.11875,0.1069675688817538,0.11874169087229854,49855116.45360887,True
A0_EQUAL_WEIGHT,2024-02-06,2024-02-07,117680,ETF_002,KODEX 철강,8466.0,8635.0,12334.0,13974.0,1640.0,BUY,104419644.0,118303884.0,13884240.0,13884240.0,210120367.0,2082.636,31518.05505,996342191.5086589,996310673.4536089,1000370826.2671444,0.01266995655455494,0.95,0.050000000000000044,0.125,0.11875,0.10480299327873291,0.11874196187210533,49855116.45360887,True
A0_EQUAL_WEIGHT,2024-02-06,2024-02-07,139260,ETF_003,TIGER 200 IT,30357.0,30659.0,3477.0,3897.0,420.0,BUY,105551289.0,118301229.0,12749940.0,12749940.0,210120367.0,1912.4909999999998,31518.05505,996342191.5086589,996310673.4536089,1000370826.2671444,0.01266995655455494,0.95,0.050000000000000044,0.125,0.11875,0.10593879281592451,0.11873929704067197,49855116.45360887,True
A0_EQUAL_WEIGHT,2024-02-06,2024-02-07,139270,ETF_004,TIGER 200 금융,6632.0,6778.0,15564.0,17839.0,2275.0,BUY,103220448.0,118308248.0,15087800.0,15087800.0,210120367.0,2263.17,31518.05505,996342191.5086589,996310673.4536089,1000370826.2671444,0.01266995655455494,0.95,0.050000000000000044,0.125,0.11875,0.10359939474579899,0.1187463420319453,49855116.45360887,True
A0_EQUAL_WEIGHT,2024-02-06,2024-02-07,227550,ETF_005,TIGER 200 산업재,5923.0,5952.0,17770.0,0.0,-17770.0,SELL,105251710.0,0.0,-105251710.0,105251710.0,210120367.0,15787.7565,31518.05505,996342191.5086589,996310673.4536089,1000370826.2671444,0.01266995655455494,0.95,0.050000000000000044,0.0,0.0,0.10563811399036321,0.0,49855116.45360887,True
A0_EQUAL_WEIGHT,2024-02-06,2024-02-07,266390,ETF_006,KODEX 경기소비재,8309.0,8362.0,12675.0,14239.0,1564.0,BUY,105316575.0,118311851.0,12995276.0,12995276.0,210120367.0,1949.2913999999998,31518.05505,996342191.5086589,996310673.4536089,1000370826.2671444,0.01266995655455494,0.95,0.050000000000000044,0.125,0.11875,0.1057032171251625,0.11874995837381135,49855116.45360887,True
A0_EQUAL_WEIGHT,2024-02-06,2024-02-07,266410,ETF_007,KODEX 필수소비재,6012.0,5979.0,17520.0,19679.0,2159.0,BUY,105330240.0,118310148.0,12979908.0,12979908.0,210120367.0,1946.9861999999998,31518.05505,996342191.5086589,996310673.4536089,1000370826.2671444,0.01266995655455494,0.95,0.050000000000000044,0.125,0.11875,0.10571693229261847,0.11874824906762264,49855116.45360887,True
A0_EQUAL_WEIGHT,2024-02-06,2024-02-07,266420,ETF_008,KODEX 헬스케어,13597.0,13478.0,7820.0,8701.0,881.0,BUY,106328540.0,118307497.0,11978957.0,11978957.0,210120367.0,1796.8435499999998,31518.05505,996342191.5086589,996310673.4536089,1000370826.2671444,0.01266995655455494,0.95,0.050000000000000044,0.125,0.11875,0.10671889728868912,0.11874558825100125,49855116.45360887,True
A0_EQUAL_WEIGHT,2024-02-06,2024-02-07,315270,ETF_009,TIGER 200 커뮤니케이션서비스,17442.0,17265.0,6011.0,6783.0,772.0,BUY,104843862.0,118309086.0,13465224.0,13465224.0,210120367.0,2019.7836,31518.05505,996342191.5086589,996310673.4536089,1000370826.2671444,0.01266995655455494,0.95,0.050000000000000044,0.125,0.11875,0.10522876868362432,0.11874718313504931,49855116.45360887,True
A0_EQUAL_WEIGHT,2024-02-07,2024-02-08,117460,ETF_001,KODEX 에너지화학,14808.0,14808.0,8151.0,8072.0,-79.0,SELL,120700008.0,119530176.0,-1169832.0,1169832.0,245805962.0,175.4748,36870.8943,1006652313.2671444,1006615442.3728445,1005140098.9917076,0.0047675048085513705,0.95,0.050000000000000044,0.125,0.11875,0.11990237980804078,0.1187446277579822,50383569.37284446,True
A0_EQUAL_WEIGHT,2024-02-07,2024-02-08,117680,ETF_002,KODEX 철강,8649.0,8611.0,13974.0,13820.0,-154.0,SELL,120861126.0,119529180.0,-1331946.0,1331946.0,245805962.0,199.7919,36870.8943,1006652313.2671444,1006615442.3728445,1005140098.9917076,0.0047675048085513705,0.95,0.050000000000000044,0.125,0.11875,0.1200624330835129,0.11874363830366025,50383569.37284446,True
A0_EQUAL_WEIGHT,2024-02-07,2024-02-08,139260,ETF_003,TIGER 200 IT,30771.0,30795.0,3897.0,3884.0,-13.0,SELL,119914587.0,119514564.0,-400023.0,400023.0,245805962.0,60.003449999999994,36870.8943,1006652313.2671444,1006615442.3728445,1005140098.9917076,0.0047675048085513705,0.95,0.050000000000000044,0.125,0.11875,0.11912214914681984,0.11872911835951401,50383569.37284446,True
A0_EQUAL_WEIGHT,2024-02-07,2024-02-08,139270,ETF_004,TIGER 200 금융,6832.0,6977.0,17839.0,17496.0,-343.0,SELL,121876048.0,119532672.0,-2343376.0,2343376.0,245805962.0,351.5064,36870.8943,1006652313.2671444,1006615442.3728445,1005140098.9917076,0.0047675048085513705,0.95,0.050000000000000044,0.125,0.11875,0.12107064812124128,0.11874710735435529,50383569.37284446,True
A0_EQUAL_WEIGHT,2024-02-07,2024-02-08,227550,ETF_005,TIGER 200 산업재,6000.0,6019.0,0.0,19922.0,19922.0,BUY,0.0,119532000.0,119532000.0,119532000.0,245805962.0,17929.8,36870.8943,1006652313.2671444,1006615442.3728445,1005140098.9917076,0.0047675048085513705,0.95,0.050000000000000044,0.125,0.11875,0.0,0.11874643977071637,50383569.37284446,True
A0_EQUAL_WEIGHT,2024-02-07,2024-02-08,266390,ETF_006,KODEX 경기소비재,8453.0,8362.0,14239.0,14141.0,-98.0,SELL,120362267.0,119533873.0,-828394.0,828394.0,245805962.0,124.2591,36870.8943,1006652313.2671444,1006615442.3728445,1005140098.9917076,0.0047675048085513705,0.95,0.050000000000000044,0.125,0.11875,0.11956687071960105,0.11874830046142423,50383569.37284446,True
A0_EQUAL_WEIGHT,2024-02-07,2024-02-08,266410,ETF_007,KODEX 필수소비재,6036.0,5950.0,19679.0,19803.0,124.0,BUY,118782444.0,119530908.0,748464.0,748464.0,245805962.0,112.26960000000001,36870.8943,1006652313.2671444,1006615442.3728445,1005140098.9917076,0.0047675048085513705,0.95,0.050000000000000044,0.125,0.11875,0.11799748774677243,0.11874535494730315,50383569.37284446,True
A0_EQUAL_WEIGHT,2024-02-07,2024-02-08,266420,ETF_008,KODEX 헬스케어,13468.0,13358.0,8701.0,8875.0,174.0,BUY,117185068.0,119528500.0,2343432.0,2343432.0,245805962.0,351.5148,36870.8943,1006652313.2671444,1006615442.3728445,1005140098.9917076,0.0047675048085513705,0.95,0.050000000000000044,0.125,0.11875,0.11641066777035412,0.11874296277259706,50383569.37284446,True
A0_EQUAL_WEIGHT,2024-02-07,2024-02-08,315270,ETF_009,TIGER 200 커뮤니케이션서비스,17265.0,17275.0,6783.0,0.0,-6783.0,SELL,117108495.0,0.0,-117108495.0,117108495.0,245805962.0,17566.274250000002,36870.8943,1006652313.2671444,1006615442.3728445,1005140098.9917076,0.0047675048085513705,0.95,0.050000000000000044,0.0,0.0,0.11633460079172525,0.0,50383569.37284446,True
A0_EQUAL_WEIGHT,2024-02-08,2024-02-13,117460,ETF_001,KODEX 에너지화학,14857.0,15033.0,8072.0,7168.0,-904.0,SELL,119925704.0,106494976.0,-13430728.0,13430728.0,213148446.0,2014.6091999999999,31972.2669,1009044503.9917076,1009012531.7248076,1012847804.5307689,0.007668289770543568,0.95,0.050000000000000044,0.1111111111111111,0.10555555555555554,0.11885075784624219,0.10554375951897974,50523136.72480762,True
A0_EQUAL_WEIGHT,2024-02-08,2024-02-13,117680,ETF_002,KODEX 철강,8677.0,8616.0,13820.0,12274.0,-1546.0,SELL,119916140.0,106501498.0,-13414642.0,13414642.0,213148446.0,2012.1962999999998,31972.2669,1009044503.9917076,1009012531.7248076,1012847804.5307689,0.007668289770543568,0.95,0.050000000000000044,0.1111111111111111,0.10555555555555554,0.11884127957252665,0.10555022326427024,50523136.72480762,True
A0_EQUAL_WEIGHT,2024-02-08,2024-02-13,139260,ETF_003,TIGER 200 IT,30795.0,31360.0,3884.0,3458.0,-426.0,SELL,119607780.0,106489110.0,-13118670.0,13118670.0,213148446.0,1967.8005,31972.2669,1009044503.9917076,1009012531.7248076,1012847804.5307689,0.007668289770543568,0.95,0.050000000000000044,0.1111111111111111,0.10555555555555554,0.11853568353708901,0.10553794591427655,50523136.72480762,True
A0_EQUAL_WEIGHT,2024-02-08,2024-02-13,139270,ETF_004,TIGER 200 금융,6986.0,6964.0,17496.0,15245.0,-2251.0,SELL,122227056.0,106501570.0,-15725486.0,15725486.0,213148446.0,2358.8229,31972.2669,1009044503.9917076,1009012531.7248076,1012847804.5307689,0.007668289770543568,0.95,0.050000000000000044,0.1111111111111111,0.10555555555555554,0.12113148182907547,0.10555029462116397,50523136.72480762,True
A0_EQUAL_WEIGHT,2024-02-08,2024-02-13,227550,ETF_005,TIGER 200 산업재,6047.0,6080.0,19922.0,17613.0,-2309.0,SELL,120468334.0,106505811.0,-13962523.0,13962523.0,213148446.0,2094.3784499999997,31972.2669,1009044503.9917076,1009012531.7248076,1012847804.5307689,0.007668289770543568,0.95,0.050000000000000044,0.1111111111111111,0.10555555555555554,0.11938852401795552,0.10555449774041835,50523136.72480762,True
A0_EQUAL_WEIGHT,2024-02-08,2024-02-13,266390,ETF_006,KODEX 경기소비재,8395.0,8328.0,14141.0,12686.0,-1455.0,SELL,118713695.0,106498970.0,-12214725.0,12214725.0,213148446.0,1832.20875,31972.2669,1009044503.9917076,1009012531.7248076,1012847804.5307689,0.007668289770543568,0.95,0.050000000000000044,0.1111111111111111,0.10555555555555554,0.11764961260913384,0.10554771784444589,50523136.72480762,True
A0_EQUAL_WEIGHT,2024-02-08,2024-02-13,266410,ETF_007,KODEX 필수소비재,6008.0,5927.0,19803.0,17727.0,-2076.0,SELL,118976424.0,106503816.0,-12472608.0,12472608.0,213148446.0,1870.8912,31972.2669,1009044503.9917076,1009012531.7248076,1012847804.5307689,0.007668289770543568,0.95,0.050000000000000044,0.1111111111111111,0.10555555555555554,0.11790998665503634,0.1055525205598212,50523136.72480762,True
A0_EQUAL_WEIGHT,2024-02-08,2024-02-13,266420,ETF_008,KODEX 헬스케어,13388.0,13801.0,8875.0,7955.0,-920.0,SELL,118818500.0,106501540.0,-12316960.0,12316960.0,213148446.0,1847.5439999999999,31972.2669,1009044503.9917076,1009012531.7248076,1012847804.5307689,0.007668289770543568,0.95,0.050000000000000044,0.1111111111111111,0.10555555555555554,0.11775347819641507,0.10555026488912492,50523136.72480762,True
A0_EQUAL_WEIGHT,2024-02-08,2024-02-13,315270,ETF_009,TIGER 200 커뮤니케이션서비스,17452.0,17471.0,0.0,6102.0,6102.0,BUY,0.0,106492104.0,106492104.0,106492104.0,213148446.0,15973.8156,31972.2669,1009044503.9917076,1009012531.7248076,1012847804.5307689,0.007668289770543568,0.95,0.050000000000000044,0.1111111111111111,0.10555555555555554,0.0,0.10554091317177422,50523136.72480762,True
A0_EQUAL_WEIGHT,2024-02-13,2024-02-14,117460,ETF_001,KODEX 에너지화학,14636.0,14891.0,7168.0,7205.0,37.0,BUY,104910848.0,105452380.0,541532.0,541532.0,9084553.0,81.2298,1362.68295,999127596.5307689,999126233.8478189,1001953533.3603178,-0.01075607916778587,0.95,0.050000000000000044,0.1111111111111111,0.10555555555555554,0.10500245250384213,0.10554460130016154,50039398.84781885,True
A0_EQUAL_WEIGHT,2024-02-13,2024-02-14,117680,ETF_002,KODEX 철강,8508.0,8541.0,12274.0,12395.0,121.0,BUY,104427192.0,105456660.0,1029468.0,1029468.0,9084553.0,154.4202,1362.68295,999127596.5307689,999126233.8478189,1001953533.3603178,-0.01075607916778587,0.95,0.050000000000000044,0.1111111111111111,0.10555555555555554,0.1045183741922437,0.10554888504315116,50039398.84781885,True
A0_EQUAL_WEIGHT,2024-02-13,2024-02-14,139260,ETF_003,TIGER 200 IT,30883.0,30922.0,3458.0,3414.0,-44.0,SELL,106793414.0,105434562.0,-1358852.0,1358852.0,9084553.0,203.8278,1362.68295,999127596.5307689,999126233.8478189,1001953533.3603178,-0.01075607916778587,0.95,0.050000000000000044,0.1111111111111111,0.10555555555555554,0.1068866622950007,0.10552676771778088,50039398.84781885,True
A0_EQUAL_WEIGHT,2024-02-13,2024-02-14,139270,ETF_004,TIGER 200 금융,6941.0,6827.0,15245.0,15194.0,-51.0,SELL,105815545.0,105461554.0,-353991.0,353991.0,9084553.0,53.09864999999999,1362.68295,999127596.5307689,999126233.8478189,1001953533.3603178,-0.01075607916778587,0.95,0.050000000000000044,0.1111111111111111,0.10555555555555554,0.10590793945379862,0.10555378332310239,50039398.84781885,True
A0_EQUAL_WEIGHT,2024-02-13,2024-02-14,227550,ETF_005,TIGER 200 산업재,5914.0,5962.0,17613.0,17832.0,219.0,BUY,104163282.0,105458448.0,1295166.0,1295166.0,9084553.0,194.2749,1362.68295,999127596.5307689,999126233.8478189,1001953533.3603178,-0.01075607916778587,0.95,0.050000000000000044,0.1111111111111111,0.10555555555555554,0.10425423375521008,0.10555067460681132,50039398.84781885,True
A0_EQUAL_WEIGHT,2024-02-13,2024-02-14,266390,ETF_006,KODEX 경기소비재,8233.0,8214.0,12686.0,12809.0,123.0,BUY,104443838.0,105456497.0,1012659.0,1012659.0,9084553.0,151.89884999999998,1362.68295,999127596.5307689,999126233.8478189,1001953533.3603178,-0.01075607916778587,0.95,0.050000000000000044,0.1111111111111111,0.10555555555555554,0.10453503472695198,0.10554872190060273,50039398.84781885,True
A0_EQUAL_WEIGHT,2024-02-13,2024-02-14,266410,ETF_007,KODEX 필수소비재,5898.0,5879.0,17727.0,17881.0,154.0,BUY,104553846.0,105462138.0,908292.0,908292.0,9084553.0,136.2438,1362.68295,999127596.5307689,999126233.8478189,1001953533.3603178,-0.01075607916778587,0.95,0.050000000000000044,0.1111111111111111,0.10555555555555554,0.1046451387821117,0.10555436783382807,50039398.84781885,True
A0_EQUAL_WEIGHT,2024-02-13,2024-02-14,266420,ETF_008,KODEX 헬스케어,13527.0,13607.0,7955.0,7796.0,-159.0,SELL,107607285.0,105456492.0,-2150793.0,2150793.0,9084553.0,322.61895,1362.68295,999127596.5307689,999126233.8478189,1001953533.3603178,-0.01075607916778587,0.95,0.050000000000000044,0.1111111111111111,0.10555555555555554,0.10770124393885276,0.10554871689623008,50039398.84781885,True
A0_EQUAL_WEIGHT,2024-02-13,2024-02-14,315270,ETF_009,TIGER 200 커뮤니케이션서비스,17352.0,17562.0,6102.0,6077.0,-25.0,SELL,105881904.0,105448104.0,-433800.0,433800.0,9084553.0,65.07,1362.68295,999127596.5307689,999126233.8478189,1001953533.3603178,-0.01075607916778587,0.95,0.050000000000000044,0.1111111111111111,0.10555555555555554,0.10597435639616956,0.10554032156067003,50039398.84781885,True
A0_EQUAL_WEIGHT,2024-02-14,2024-02-15,117460,ETF_001,KODEX 에너지화학,14940.0,15156.0,7205.0,8017.0,812.0,BUY,107642700.0,119773980.0,12131280.0,12131280.0,217234352.0,1819.692,32585.152799999996,1008655749.3603178,1008623164.2075179,1005399220.7983602,0.0034389692967959906,0.95,0.050000000000000044,0.125,0.11875,0.10671896736648379,0.1187499794277551,50472801.20751786,True
A0_EQUAL_WEIGHT,2024-02-14,2024-02-15,117680,ETF_002,KODEX 철강,8602.0,8555.0,12395.0,13923.0,1528.0,BUY,106621790.0,119765646.0,13143856.0,13143856.0,217234352.0,1971.5783999999999,32585.152799999996,1008655749.3603178,1008623164.2075179,1005399220.7983602,0.0034389692967959906,0.95,0.050000000000000044,0.125,0.11875,0.10570681827533206,0.11874171667879618,50472801.20751786,True
A0_EQUAL_WEIGHT,2024-02-14,2024-02-15,139260,ETF_003,TIGER 200 IT,31082.0,30785.0,3414.0,3853.0,439.0,BUY,106113948.0,119758946.0,13644998.0,13644998.0,217234352.0,2046.7496999999996,32585.152799999996,1008655749.3603178,1008623164.2075179,1005399220.7983602,0.0034389692967959906,0.95,0.050000000000000044,0.125,0.11875,0.1052033343063743,0.1187350739600507,50472801.20751786,True
A0_EQUAL_WEIGHT,2024-02-14,2024-02-15,139270,ETF_004,TIGER 200 금융,6791.0,6755.0,15194.0,17637.0,2443.0,BUY,103182454.0,119772867.0,16590413.0,16590413.0,217234352.0,2488.56195,32585.152799999996,1008655749.3603178,1008623164.2075179,1005399220.7983602,0.0034389692967959906,0.95,0.050000000000000044,0.125,0.11875,0.1022969968350823,0.1187488759432829,50472801.20751786,True
A0_EQUAL_WEIGHT,2024-02-14,2024-02-15,227550,ETF_005,TIGER 200 산업재,6104.0,6109.0,17832.0,0.0,-17832.0,SELL,108846528.0,0.0,-108846528.0,108846528.0,217234352.0,16326.979199999998,32585.152799999996,1008655749.3603178,1008623164.2075179,1005399220.7983602,0.0034389692967959906,0.95,0.050000000000000044,0.0,0.0,0.10791246475225039,0.0,50472801.20751786,True
A0_EQUAL_WEIGHT,2024-02-14,2024-02-15,266390,ETF_006,KODEX 경기소비재,8219.0,8157.0,12809.0,14572.0,1763.0,BUY,105277171.0,119767268.0,14490097.0,14490097.0,217234352.0,2173.51455,32585.152799999996,1008655749.3603178,1008623164.2075179,1005399220.7983602,0.0034389692967959906,0.95,0.050000000000000044,0.125,0.11875,0.10437373808335106,0.11874332481160292,50472801.20751786,True
A0_EQUAL_WEIGHT,2024-02-14,2024-02-15,266410,ETF_007,KODEX 필수소비재,5912.0,5898.0,17881.0,20259.0,2378.0,BUY,105712472.0,119771208.0,14058736.0,14058736.0,217234352.0,2108.8104,32585.152799999996,1008655749.3603178,1008623164.2075179,1005399220.7983602,0.0034389692967959906,0.95,0.050000000000000044,0.125,0.11875,0.10480530356074616,0.11874723112680548,50472801.20751786,True
A0_EQUAL_WEIGHT,2024-02-14,2024-02-15,266420,ETF_008,KODEX 헬스케어,13696.0,13498.0,7796.0,8745.0,949.0,BUY,106774016.0,119771520.0,12997504.0,12997504.0,217234352.0,1949.6255999999998,32585.152799999996,1008655749.3603178,1008623164.2075179,1005399220.7983602,0.0034389692967959906,0.95,0.050000000000000044,0.125,0.11875,0.10585773795243353,0.1187475404593799,50472801.20751786,True
A0_EQUAL_WEIGHT,2024-02-14,2024-02-15,315270,ETF_009,TIGER 200 커뮤니케이션서비스,17844.0,17902.0,6077.0,6712.0,635.0,BUY,108437988.0,119768928.0,11330940.0,11330940.0,217234352.0,1699.6409999999998,32585.152799999996,1008655749.3603178,1008623164.2075179,1005399220.7983602,0.0034389692967959906,0.95,0.050000000000000044,0.125,0.11875,0.10750743062612847,0.1187449706195309,50472801.20751786,True
A0_EQUAL_WEIGHT,2024-02-15,2024-02-16,117460,ETF_001,KODEX 에너지화학,15249.0,15425.0,8017.0,7017.0,-1000.0,SELL,122251233.0,107002233.0,-15249000.0,15249000.0,214327281.0,2287.35,32149.092149999997,1013863763.7983602,1013831614.7062103,1019745268.5605694,0.014269006246908855,0.95,0.050000000000000044,0.1111111111111111,0.10555555555555554,0.12057954664638121,0.10554241103539395,50751933.706210256,True
A0_EQUAL_WEIGHT,2024-02-15,2024-02-16,117680,ETF_002,KODEX 철강,8649.0,8794.0,13923.0,12373.0,-1550.0,SELL,120420027.0,107014077.0,-13405950.0,13405950.0,214327281.0,2010.8925,32149.092149999997,1013863763.7983602,1013831614.7062103,1019745268.5605694,0.014269006246908855,0.95,0.050000000000000044,0.1111111111111111,0.10555555555555554,0.1187733809016469,0.10555409344875354,50751933.706210256,True
A0_EQUAL_WEIGHT,2024-02-15,2024-02-16,139260,ETF_003,TIGER 200 IT,31131.0,31238.0,3853.0,3437.0,-416.0,SELL,119947743.0,106997247.0,-12950496.0,12950496.0,214327281.0,1942.5743999999997,32149.092149999997,1013863763.7983602,1013831614.7062103,1019745268.5605694,0.014269006246908855,0.95,0.050000000000000044,0.1111111111111111,0.10555555555555554,0.11830755500189226,0.10553749305894927,50751933.706210256,True
A0_EQUAL_WEIGHT,2024-02-15,2024-02-16,139270,ETF_004,TIGER 200 금융,6877.0,6977.0,17637.0,15561.0,-2076.0,SELL,121289649.0,107012997.0,-14276652.0,14276652.0,214327281.0,2141.4977999999996,32149.092149999997,1013863763.7983602,1013831614.7062103,1019745268.5605694,0.014269006246908855,0.95,0.050000000000000044,0.1111111111111111,0.10555555555555554,0.11963111152685638,0.10555302818309764,50751933.706210256,True
A0_EQUAL_WEIGHT,2024-02-15,2024-02-16,227550,ETF_005,TIGER 200 산업재,6123.0,6166.0,0.0,17477.0,17477.0,BUY,0.0,107011671.0,107011671.0,107011671.0,214327281.0,16051.750649999998,32149.092149999997,1013863763.7983602,1013831614.7062103,1019745268.5605694,0.014269006246908855,0.95,0.050000000000000044,0.1111111111111111,0.10555555555555554,0.0,0.10555172027359791,50751933.706210256,True
A0_EQUAL_WEIGHT,2024-02-15,2024-02-16,266390,ETF_006,KODEX 경기소비재,8223.0,8223.0,14572.0,13014.0,-1558.0,SELL,119825556.0,107014122.0,-12811434.0,12811434.0,214327281.0,1921.7151,32149.092149999997,1013863763.7983602,1013831614.7062103,1019745268.5605694,0.014269006246908855,0.95,0.050000000000000044,0.1111111111111111,0.10555555555555554,0.11818703880991176,0.10555413783482252,50751933.706210256,True
A0_EQUAL_WEIGHT,2024-02-15,2024-02-16,266410,ETF_007,KODEX 필수소비재,5960.0,5955.0,20259.0,17955.0,-2304.0,SELL,120743640.0,107011800.0,-13731840.0,13731840.0,214327281.0,2059.776,32149.092149999997,1013863763.7983602,1013831614.7062103,1019745268.5605694,0.014269006246908855,0.95,0.050000000000000044,0.1111111111111111,0.10555555555555554,0.11909256875661826,0.10555184751366237,50751933.706210256,True
A0_EQUAL_WEIGHT,2024-02-15,2024-02-16,266420,ETF_008,KODEX 헬스케어,13572.0,13612.0,8745.0,7885.0,-860.0,SELL,118687140.0,107015220.0,-11671920.0,11671920.0,214327281.0,1750.788,32149.092149999997,1013863763.7983602,1013831614.7062103,1019745268.5605694,0.014269006246908855,0.95,0.050000000000000044,0.1111111111111111,0.10555555555555554,0.11706418972441429,0.10555522085490601,50751933.706210256,True
A0_EQUAL_WEIGHT,2024-02-15,2024-02-16,315270,ETF_009,TIGER 200 커뮤니케이션서비스,17911.0,17907.0,6712.0,5974.0,-738.0,SELL,120218632.0,107000314.0,-13218318.0,13218318.0,214327281.0,1982.7477,32149.092149999997,1013863763.7983602,1013831614.7062103,1019745268.5605694,0.014269006246908855,0.95,0.050000000000000044,0.1111111111111111,0.10555555555555554,0.1185747398147562,0.10554051821614058,50751933.706210256,True
A0_EQUAL_WEIGHT,2024-02-16,2024-02-19,117460,ETF_001,KODEX 에너지화학,15425.0,15533.0,7017.0,6997.0,-20.0,SELL,108237225.0,107928725.0,-308500.0,308500.0,5037111.0,46.275,755.56665,1022553977.5605694,1022553221.9939194,1031763786.6721922,0.011785804241668751,0.95,0.050000000000000044,0.1111111111111111,0.10555555555555554,0.10584988897917492,0.10554827140395222,51199970.99391937,True
A0_EQUAL_WEIGHT,2024-02-16,2024-02-19,117680,ETF_002,KODEX 철강,8794.0,8915.0,12373.0,12273.0,-100.0,SELL,108808162.0,107928762.0,-879400.0,879400.0,5037111.0,131.91,755.56665,1022553977.5605694,1022553221.9939194,1031763786.6721922,0.011785804241668751,0.95,0.050000000000000044,0.1111111111111111,0.10555555555555554,0.10640823309843798,0.10554830758788789,51199970.99391937,True
A0_EQUAL_WEIGHT,2024-02-16,2024-02-19,139260,ETF_003,TIGER 200 IT,31233.0,31720.0,3437.0,3455.0,18.0,BUY,107347821.0,107910015.0,562194.0,562194.0,5037111.0,84.3291,755.56665,1022553977.5605694,1022553221.9939194,1031763786.6721922,0.011785804241668751,0.95,0.050000000000000044,0.1111111111111111,0.10555555555555554,0.10498010213220399,0.10552997406783556,51199970.99391937,True
A0_EQUAL_WEIGHT,2024-02-16,2024-02-19,139270,ETF_004,TIGER 200 금융,6977.0,7154.0,15561.0,15470.0,-91.0,SELL,108569097.0,107934190.0,-634907.0,634907.0,5037111.0,95.23604999999999,755.56665,1022553977.5605694,1022553221.9939194,1031763786.6721922,0.011785804241668751,0.95,0.050000000000000044,0.1111111111111111,0.10555555555555554,0.10617444103929377,0.10555361586904455,51199970.99391937,True
A0_EQUAL_WEIGHT,2024-02-16,2024-02-19,227550,ETF_005,TIGER 200 산업재,6209.0,6185.0,17477.0,17383.0,-94.0,SELL,108514693.0,107931047.0,-583646.0,583646.0,5037111.0,87.5469,755.56665,1022553977.5605694,1022553221.9939194,1031763786.6721922,0.011785804241668751,0.95,0.050000000000000044,0.1111111111111111,0.10555555555555554,0.10612123700195797,0.10555054219040133,51199970.99391937,True
A0_EQUAL_WEIGHT,2024-02-16,2024-02-19,266390,ETF_006,KODEX 경기소비재,8319.0,8362.0,13014.0,12974.0,-40.0,SELL,108263466.0,107930706.0,-332760.0,332760.0,5037111.0,49.914,755.56665,1022553977.5605694,1022553221.9939194,1031763786.6721922,0.011785804241668751,0.95,0.050000000000000044,0.1111111111111111,0.10555555555555554,0.10587555119415414,0.10555020871142667,51199970.99391937,True
A0_EQUAL_WEIGHT,2024-02-16,2024-02-19,266410,ETF_007,KODEX 필수소비재,5974.0,6008.0,17955.0,18067.0,112.0,BUY,107263170.0,107932258.0,669088.0,669088.0,5037111.0,100.3632,755.56665,1022553977.5605694,1022553221.9939194,1031763786.6721922,0.011785804241668751,0.95,0.050000000000000044,0.1111111111111111,0.10555555555555554,0.10489731823828971,0.10555172648083624,51199970.99391937,True
A0_EQUAL_WEIGHT,2024-02-16,2024-02-19,266420,ETF_008,KODEX 헬스케어,13612.0,13801.0,7885.0,7929.0,44.0,BUY,107330620.0,107929548.0,598928.0,598928.0,5037111.0,89.83919999999999,755.56665,1022553977.5605694,1022553221.9939194,1031763786.6721922,0.011785804241668751,0.95,0.050000000000000044,0.1111111111111111,0.10555555555555554,0.1049632805263255,0.10554907625203473,51199970.99391937,True
A0_EQUAL_WEIGHT,2024-02-16,2024-02-19,315270,ETF_009,TIGER 200 커뮤니케이션서비스,17988.0,18036.0,5974.0,6000.0,26.0,BUY,107460312.0,107928000.0,467688.0,467688.0,5037111.0,70.1532,755.56665,1022553977.5605694,1022553221.9939194,1031763786.6721922,0.011785804241668751,0.95,0.050000000000000044,0.1111111111111111,0.10555555555555554,0.10509011197272934,0.105547562394402,51199970.99391937,True
A0_EQUAL_WEIGHT,2024-02-19,2024-02-20,117460,ETF_001,KODEX 에너지화학,15533.0,15504.0,6997.0,7023.0,26.0,BUY,108684401.0,109088259.0,403858.0,403858.0,7671646.0,60.57869999999999,1150.7468999999999,1033496955.6721922,1033495804.9252923,1026839630.644355,-0.004772561405473774,0.95,0.050000000000000044,0.1111111111111111,0.10555555555555554,0.10516180081953996,0.10555268679381394,51743535.92529225,True
A0_EQUAL_WEIGHT,2024-02-19,2024-02-20,117680,ETF_002,KODEX 철강,8906.0,8892.0,12273.0,12249.0,-24.0,SELL,109303338.0,109089594.0,-213744.0,213744.0,7671646.0,32.06159999999999,1150.7468999999999,1033496955.6721922,1033495804.9252923,1026839630.644355,-0.004772561405473774,0.95,0.050000000000000044,0.1111111111111111,0.10555555555555554,0.10576067728124898,0.10555397852619798,51743535.92529225,True
A0_EQUAL_WEIGHT,2024-02-19,2024-02-20,139260,ETF_003,TIGER 200 IT,31686.0,31394.0,3455.0,3442.0,-13.0,SELL,109475130.0,109063212.0,-411918.0,411918.0,7671646.0,61.787699999999994,1150.7468999999999,1033496955.6721922,1033495804.9252923,1026839630.644355,-0.004772561405473774,0.95,0.050000000000000044,0.1111111111111111,0.10555555555555554,0.1059269012832232,0.10552845157207368,51743535.92529225,True
