PJH-02/HYFE38_ML/pilot/out_20260506_02/latest_target_weights.csv
strategy,decision_date,execution_date,ticker,name,regime_date,regime_key,regime_name,cash_weight,stock_weight,current_qty,current_close,current_portfolio_weight_at_close,target_sleeve_weight,target_portfolio_weight,delta_portfolio_weight,target_value_at_close,delta_value_at_close,indicative_qty_change_at_close,target_qty_at_close_floor,executable_qty_change_at_close,side
A0,2026-05-04,2026-05-06,117460,KODEX 에너지화학,2025-12-12,DRAI_RISK_ON,DRAI Risk-On,0.05,0.95,566.0,18975.0,0.0936858911337411,0.1,0.095,0.0013141088662588,10890495.224553002,150645.22455300204,7.939142268932914,573,7,BUY
A0,2026-05-04,2026-05-06,117680,KODEX 철강,2025-12-12,DRAI_RISK_ON,DRAI Risk-On,0.05,0.95,613.0,17765.0,0.0949952002795596,0.1,0.095,4.799720440387678e-06,10890495.224553002,550.2245530020446,0.030972392513484,613,0,HOLD
A0,2026-05-04,2026-05-06,139260,TIGER 200 IT,2025-12-12,DRAI_RISK_ON,DRAI Risk-On,0.05,0.95,92.0,124335.0,0.0997831482952239,0.1,0.095,-0.0047831482952239,10890495.224553002,-548324.775446998,-4.410059721293264,87,-5,SELL
A0,2026-05-04,2026-05-06,139270,TIGER 200 금융,2025-12-12,DRAI_RISK_ON,DRAI Risk-On,0.05,0.95,642.0,16910.0,0.0947010102602869,0.1,0.095,0.000298989739713,10890495.224553002,34275.224553002045,2.026920434831581,644,2,BUY
A0,2026-05-04,2026-05-06,227550,TIGER 200 산업재,2025-12-12,DRAI_RISK_ON,DRAI Risk-On,0.05,0.95,665.0,16605.0,0.0963244419441042,0.1,0.095,-0.0013244419441042,10890495.224553002,-151829.77544699796,-9.14361791309834,655,-10,SELL
A0,2026-05-04,2026-05-06,266390,KODEX 경기소비재,2025-12-12,DRAI_RISK_ON,DRAI Risk-On,0.05,0.95,871.0,12330.0,0.0936822273885048,0.1,0.095,0.0013177726114951,10890495.224553002,151065.22455300204,12.251843029440556,883,12,BUY
A0,2026-05-04,2026-05-06,266410,KODEX 필수소비재,2025-12-12,DRAI_RISK_ON,DRAI Risk-On,0.05,0.95,1056.0,10225.0,0.0941896561037335,0.1,0.095,0.0008103438962664,10890495.224553002,92895.22455300204,9.08510753574592,1065,9,BUY
A0,2026-05-04,2026-05-06,266420,KODEX 헬스케어,2025-12-12,DRAI_RISK_ON,DRAI Risk-On,0.05,0.95,508.0,21135.0,0.0936573662601155,0.1,0.095,0.0013426337398844,10890495.224553002,153915.22455300204,7.282480461462127,515,7,BUY
A0,2026-05-04,2026-05-06,315270,TIGER 200 커뮤니케이션서비스,2025-12-12,DRAI_RISK_ON,DRAI Risk-On,0.05,0.95,474.0,22610.0,0.0934877871948921,0.1,0.095,0.0015122128051078,10890495.224553002,173355.22455300204,7.667192594117737,481,7,BUY
A0,2026-05-04,2026-05-06,476800,KODEX 한국부동산리츠인프라,2025-12-12,DRAI_RISK_ON,DRAI Risk-On,0.05,0.95,2246.0,4805.0,0.0941410678633377,0.1,0.095,0.0008589321366622,10890495.224553002,98465.22455300204,20.492242362747564,2266,20,BUY
A1,2026-05-04,2026-05-06,117460,KODEX 에너지화학,2025-12-12,DRAI_RISK_ON,DRAI Risk-On,0.05,0.95,480.0,18975.0,0.0766191388667947,0.1222222222222222,0.1161111111111111,0.0394919722443163,13802556.588877523,4694556.588877525,247.4074618644282,727,247,BUY
A1,2026-05-04,2026-05-06,117680,KODEX 철강,2025-12-12,DRAI_RISK_ON,DRAI Risk-On,0.05,0.95,936.0,17765.0,0.1398798974355092,0.1322222222222221,0.125611111111111,-0.0142687863243981,14931856.673422046,-1696183.326577954,-95.47893760641452,840,-96,SELL
A1,2026-05-04,2026-05-06,139260,TIGER 200 IT,2025-12-12,DRAI_RISK_ON,DRAI Risk-On,0.05,0.95,161.0,124335.0,0.1683966778207587,0.1999999999999999,0.1899999999999999,0.0216033221792412,22586001.69089049,2568066.6908904947,20.654415015003774,181,20,BUY
A1,2026-05-04,2026-05-06,139270,TIGER 200 금융,2025-12-12,DRAI_RISK_ON,DRAI Risk-On,0.05,0.95,869.0,16910.0,0.1236168374646889,0.0922222222222222,0.0876111111111111,-0.0360057263535778,10414656.33524395,-4280133.66475605,-253.1125762717948,615,-254,SELL
A1,2026-05-04,2026-05-06,227550,TIGER 200 산업재,2025-12-12,DRAI_RISK_ON,DRAI Risk-On,0.05,0.95,519.0,16605.0,0.0724970746221281,0.0977777777777777,0.0928888888888888,0.0203918142667607,11042045.27110202,2424050.2711020205,145.98315393568325,664,145,BUY
A1,2026-05-04,2026-05-06,266390,KODEX 경기소비재,2025-12-12,DRAI_RISK_ON,DRAI Risk-On,0.05,0.95,1408.0,12330.0,0.1460427412139253,0.1488888888888889,0.1414444444444444,-0.0045982967694808,16814023.480996262,-546616.5190037377,-44.33223998408254,1363,-45,SELL
A1,2026-05-04,2026-05-06,266410,KODEX 필수소비재,2025-12-12,DRAI_RISK_ON,DRAI Risk-On,0.05,0.95,508.0,10225.0,0.0436959588291383,0.0533333333333333,0.0506666666666666,0.0069707078375283,6022933.784237464,828633.784237464,81.03997889852948,589,81,BUY
A1,2026-05-04,2026-05-06,266420,KODEX 헬스케어,2025-12-12,DRAI_RISK_ON,DRAI Risk-On,0.05,0.95,466.0,21135.0,0.0828518887765221,0.0422222222222222,0.0401111111111111,-0.042740777665411,4768155.912521328,-5080754.087478672,-240.39527265098997,225,-241,SELL
A1,2026-05-04,2026-05-06,315270,TIGER 200 커뮤니케이션서비스,2025-12-12,DRAI_RISK_ON,DRAI Risk-On,0.05,0.95,277.0,22610.0,0.0526859209649285,0.1111111111111111,0.1055555555555555,0.0528696345906269,12547778.717161387,6284808.717161387,277.9658875347805,554,277,BUY
A1,2026-05-04,2026-05-06,476800,KODEX 한국부동산리츠인프라,2025-12-12,DRAI_RISK_ON,DRAI Risk-On,0.05,0.95,1056.0,4805.0,0.0426846333049215,0.0,0.0,-0.0426846333049215,0.0,-5074080.0,-1056.0,0,-1056,SELL
A2,2026-05-04,2026-05-06,117460,KODEX 에너지화학,2025-12-12,DRAI_RISK_ON,DRAI Risk-On,0.05,0.95,1964.0,18975.0,0.3078924167167594,0.3241097297059188,0.3079042432206228,1.1826503863443529e-05,37268331.4647354,1431.464735403657,0.0754395117472283,1964,0,HOLD
A2,2026-05-04,2026-05-06,117680,KODEX 철강,2025-12-12,DRAI_RISK_ON,DRAI Risk-On,0.05,0.95,2128.0,17765.0,0.3123291792493348,0.3287801854467148,0.312341176174379,1.1996925044277518e-05,37805372.092294775,1452.0922947749496,0.0817389414452546,2128,0,HOLD
A2,2026-05-04,2026-05-06,139260,TIGER 200 IT,2025-12-12,DRAI_RISK_ON,DRAI Risk-On,0.05,0.95,321.0,124335.0,0.3297419148366386,0.3471100848473664,0.329754580604998,1.2665768359454432e-05,39913068.0482248,1533.048224799335,0.0123299812989048,321,0,HOLD
A3,2026-05-04,2026-05-06,117680,KODEX 철강,2025-12-12,DRAI_RISK_ON,DRAI Risk-On,0.05,0.95,1933.0,17765.0,0.2685451472592076,0.2825470098895067,0.2684196593950314,-0.0001254878641762,34323698.45698708,-16046.543012917042,-0.9032672678253332,1932,-1,SELL
A3,2026-05-04,2026-05-06,139260,TIGER 200 IT,2025-12-12,DRAI_RISK_ON,DRAI Risk-On,0.05,0.95,421.0,124335.0,0.4093508886674428,0.4306943200018397,0.4091596040017478,-0.000191284665695,52320574.80509639,-24460.194903612137,-0.1967281530028723,420,-1,SELL
A3,2026-05-04,2026-05-06,266420,KODEX 헬스케어,2025-12-12,DRAI_RISK_ON,DRAI Risk-On,0.05,0.95,1649.0,21135.0,0.2725480949959357,0.2867586701086534,0.2724207366032208,-0.0001273583927149,34835329.26639403,-16285.733605973424,-0.7705575399088442,1648,-1,SELL
A4,2026-05-04,2026-05-06,117460,KODEX 에너지화학,2025-12-12,DRAI_RISK_ON,DRAI Risk-On,0.05,0.95,752.0,18975.0,0.1187585618671416,0.1926900584795322,0.1830555555555555,0.0642969936884139,21994678.044817604,7725478.044817604,407.1398179087012,1159,407,BUY
A4,2026-05-04,2026-05-06,117680,KODEX 철강,2025-12-12,DRAI_RISK_ON,DRAI Risk-On,0.05,0.95,938.0,17765.0,0.1386862339004601,0.1187426900584795,0.1128055555555555,-0.0258806783449045,13553928.306525689,-3109641.6934743114,-175.04315752740283,762,-176,SELL
A4,2026-05-04,2026-05-06,139260,TIGER 200 IT,2025-12-12,DRAI_RISK_ON,DRAI Risk-On,0.05,0.95,198.0,124335.0,0.2048914771935854,0.3105263157894737,0.295,0.0901085228064145,35445141.24976675,10826811.249766752,87.07774359405438,285,87,BUY
A4,2026-05-04,2026-05-06,139270,TIGER 200 금융,2025-12-12,DRAI_RISK_ON,DRAI Risk-On,0.05,0.95,556.0,16910.0,0.0782498842494597,0.0461111111111111,0.0438055555555555,-0.0344443286939041,5263369.844715836,-4138590.155284165,-244.74217358274183,311,-245,SELL
A4,2026-05-04,2026-05-06,227550,TIGER 200 산업재,2025-12-12,DRAI_RISK_ON,DRAI Risk-On,0.05,0.95,496.0,16605.0,0.0685465909947809,0.0752046783625731,0.0714444444444444,0.0028978534496635,8584265.84693033,348185.8469303306,20.96873513582238,516,20,BUY
A4,2026-05-04,2026-05-06,266390,KODEX 경기소비재,2025-12-12,DRAI_RISK_ON,DRAI Risk-On,0.05,0.95,1173.0,12330.0,0.1203722541246207,0.1533918128654971,0.1457222222222222,0.0253499680976015,17508965.25388667,3045875.25388667,247.02962318626683,1420,247,BUY
A4,2026-05-04,2026-05-06,266410,KODEX 필수소비재,2025-12-12,DRAI_RISK_ON,DRAI Risk-On,0.05,0.95,422.0,10225.0,0.0359121223704638,0.0266666666666666,0.0253333333333333,-0.0105787890371305,3043876.536703134,-1271073.463296866,-124.3103631586177,297,-125,SELL
A4,2026-05-04,2026-05-06,266420,KODEX 헬스케어,2025-12-12,DRAI_RISK_ON,DRAI Risk-On,0.05,0.95,624.0,21135.0,0.1097620340284467,0.0211111111111111,0.0200555555555555,-0.0897064784728911,2409735.5915566483,-10778504.408443352,-509.9836483767851,114,-510,SELL
A4,2026-05-04,2026-05-06,315270,TIGER 200 커뮤니케이션서비스,2025-12-12,DRAI_RISK_ON,DRAI Risk-On,0.05,0.95,199.0,22610.0,0.0374471649202056,0.0555555555555555,0.0527777777777777,0.0153306128575721,6341409.451464864,1842019.4514648635,81.46923712803465,280,81,BUY
A4,2026-05-04,2026-05-06,476800,KODEX 한국부동산리츠인프라,2025-12-12,DRAI_RISK_ON,DRAI Risk-On,0.05,0.95,903.0,4805.0,0.0361115763647414,0.0,0.0,-0.0361115763647414,0.0,-4338915.0,-903.0,0,-903,SELL
A5,2026-05-04,2026-05-06,117460,KODEX 에너지화학,2025-12-12,DRAI_RISK_ON,DRAI Risk-On,0.05,0.95,565.0,18975.0,0.093298729889728,0.095995472938103,0.0911956992911978,-0.0021030305985301,10479217.60343453,-241657.39656547084,-12.735567671434564,552,-13,SELL
A5,2026-05-04,2026-05-06,117680,KODEX 철강,2025-12-12,DRAI_RISK_ON,DRAI Risk-On,0.05,0.95,624.0,17765.0,0.096470671318376,0.1054785149814664,0.1002045892323931,0.003733917914017,11514421.223703165,429061.22370316274,24.15205312148397,648,24,BUY
A5,2026-05-04,2026-05-06,139260,TIGER 200 IT,2025-12-12,DRAI_RISK_ON,DRAI Risk-On,0.05,0.95,94.0,124335.0,0.1017107253464756,0.1080861697111689,0.1026818612256105,0.0009711358791348,11799082.369805308,111592.36980530806,0.8975137314940126,94,0,HOLD
A5,2026-05-04,2026-05-06,139270,TIGER 200 금융,2025-12-12,DRAI_RISK_ON,DRAI Risk-On,0.05,0.95,677.0,16910.0,0.0996271657573377,0.0998310927172127,0.094839538081352,-0.0047876276759857,10897927.914234756,-550142.0857652444,-32.533535527217296,644,-33,SELL
A5,2026-05-04,2026-05-06,227550,TIGER 200 산업재,2025-12-12,DRAI_RISK_ON,DRAI Risk-On,0.05,0.95,664.0,16605.0,0.0959516524649127,0.0973452644576138,0.0924780012347331,-0.0034736512301796,10626565.792044884,-399154.20795511454,-24.038193794345958,639,-25,SELL
A5,2026-05-04,2026-05-06,266390,KODEX 경기소비재,2025-12-12,DRAI_RISK_ON,DRAI Risk-On,0.05,0.95,867.0,12330.0,0.0930309965727126,0.1027803900894442,0.097641370584972,0.0046103740122594,11219884.023152309,529774.0231523067,42.96626302938416,909,42,BUY
A5,2026-05-04,2026-05-06,266410,KODEX 필수소비재,2025-12-12,DRAI_RISK_ON,DRAI Risk-On,0.05,0.95,1008.0,10225.0,0.0896952300280946,0.0984799827013627,0.0935559835662945,0.0038607535381999,10750435.793732353,443635.79373235255,43.38736369020563,1051,43,BUY
A5,2026-05-04,2026-05-06,266420,KODEX 헬스케어,2025-12-12,DRAI_RISK_ON,DRAI Risk-On,0.05,0.95,572.0,21135.0,0.1052067924826562,0.0933324826497201,0.0886658585172341,-0.016540933965422,10188515.824968474,-1900704.175031526,-89.93159096434947,482,-90,SELL
A5,2026-05-04,2026-05-06,315270,TIGER 200 커뮤니케이션서비스,2025-12-12,DRAI_RISK_ON,DRAI Risk-On,0.05,0.95,428.0,22610.0,0.0842150732138271,0.1027803900894442,0.097641370584972,0.0134262973711448,11219884.023152309,1542804.023152307,68.23547205450272,496,68,BUY
A5,2026-05-04,2026-05-06,476800,KODEX 한국부동산리츠인프라,2025-12-12,DRAI_RISK_ON,DRAI Risk-On,0.05,0.95,2147.0,4805.0,0.0897782086459311,0.0958902396644636,0.0910957276812404,0.0013175190353093,10467729.953654423,151394.95365442336,31.50779472516615,2178,31,BUY
