PJH-02/HYFE38_ML/testing/backtest_state/out_2024_kofr_a0_a6_k10/A3_k10/trade_history.csv
strategy,decision_date,execution_date,ticker,ETF_id,name,open,close,prev_qty,target_qty,delta_qty,side,prev_value_open,target_value_open,delta_value_open,trade_turnover_value,day_turnover_value,commission_allocated,day_commission,nav_open_pre,nav_open_post,nav_close,daily_return,stock_ratio,cash_weight,target_sleeve_weight,target_portfolio_weight,prev_portfolio_weight_open,actual_portfolio_weight_open,cash_after_rebalance,rebalanced
A3_LLM_POLICY,2024-01-05,2024-01-08,117460,ETF_001,KODEX 에너지화학,15298.0,15175.0,0.0,0.0,0.0,HOLD,0.0,0.0,0.0,0.0,949815268.0,0.0,142472.2902,1000000000.0,999857527.7098,996248163.3012924,-0.0037518366987076,0.95,0.05,0.0,0.0,0.0,0.0,50042259.709800005,True
A3_LLM_POLICY,2024-01-05,2024-01-08,117680,ETF_002,KODEX 철강,8836.0,8724.0,0.0,0.0,0.0,HOLD,0.0,0.0,0.0,0.0,949815268.0,0.0,142472.2902,1000000000.0,999857527.7098,996248163.3012924,-0.0037518366987076,0.95,0.05,0.0,0.0,0.0,0.0,50042259.709800005,True
A3_LLM_POLICY,2024-01-05,2024-01-08,139260,ETF_003,TIGER 200 IT,31194.0,31155.0,0.0,10657.0,10657.0,BUY,0.0,332434458.0,332434458.0,332434458.0,949815268.0,49865.1687,142472.2902,1000000000.0,999857527.7098,996248163.3012924,-0.0037518366987076,0.95,0.05,0.35,0.3324999999999999,0.0,0.3324818274474063,50042259.709800005,True
A3_LLM_POLICY,2024-01-05,2024-01-08,139270,ETF_004,TIGER 200 금융,5704.0,5695.0,0.0,16652.0,16652.0,BUY,0.0,94983008.0,94983008.0,94983008.0,949815268.0,14247.451199999998,142472.2902,1000000000.0,999857527.7098,996248163.3012924,-0.0037518366987076,0.95,0.05,0.1,0.095,0.0,0.0949965423749532,50042259.709800005,True
A3_LLM_POLICY,2024-01-05,2024-01-08,266390,ETF_006,KODEX 경기소비재,7956.0,7985.0,0.0,29847.0,29847.0,BUY,0.0,237462732.0,237462732.0,237462732.0,949815268.0,35619.4098,142472.2902,1000000000.0,999857527.7098,996248163.3012924,-0.0037518366987076,0.95,0.05,0.25,0.2375,0.0,0.2374965686800544,50042259.709800005,True
A3_LLM_POLICY,2024-01-05,2024-01-08,266410,ETF_007,KODEX 필수소비재,6217.0,6165.0,0.0,15278.0,15278.0,BUY,0.0,94983326.0,94983326.0,94983326.0,949815268.0,14247.4989,142472.2902,1000000000.0,999857527.7098,996248163.3012924,-0.0037518366987076,0.95,0.05,0.1,0.095,0.0,0.0949968604202658,50042259.709800005,True
A3_LLM_POLICY,2024-01-05,2024-01-08,266420,ETF_008,KODEX 헬스케어,13995.0,13701.0,0.0,10180.0,10180.0,BUY,0.0,142469100.0,142469100.0,142469100.0,949815268.0,21370.365,142472.2902,1000000000.0,999857527.7098,996248163.3012924,-0.0037518366987076,0.95,0.05,0.15,0.1425,0.0,0.1424894007912599,50042259.709800005,True
A3_LLM_POLICY,2024-01-05,2024-01-08,315270,ETF_009,TIGER 200 커뮤니케이션서비스,17691.0,17643.0,0.0,2684.0,2684.0,BUY,0.0,47482644.0,47482644.0,47482644.0,949815268.0,7122.396599999999,142472.2902,1000000000.0,999857527.7098,996248163.3012924,-0.0037518366987076,0.95,0.05,0.05,0.0475,0.0,0.0474894099249922,50042259.709800005,True
A3_LLM_POLICY,2024-01-08,2024-01-09,117460,ETF_001,KODEX 에너지화학,15244.0,15170.0,0.0,0.0,0.0,HOLD,0.0,0.0,0.0,0.0,5363936.0,0.0,804.5903999999999,1005560704.3012924,1005559899.7108924,998846891.595152,0.0026085150162267,0.95,0.05,0.0,0.0,0.0,0.0,50327744.71089244,True
A3_LLM_POLICY,2024-01-08,2024-01-09,117680,ETF_002,KODEX 철강,8780.0,8672.0,0.0,0.0,0.0,HOLD,0.0,0.0,0.0,0.0,5363936.0,0.0,804.5903999999999,1005560704.3012924,1005559899.7108924,998846891.595152,0.0026085150162267,0.95,0.05,0.0,0.0,0.0,0.0,50327744.71089244,True
A3_LLM_POLICY,2024-01-08,2024-01-09,139260,ETF_003,TIGER 200 IT,31511.0,31004.0,10657.0,10610.0,-47.0,SELL,335812727.0,334331710.0,-1481017.0,1481017.0,5363936.0,222.15255,804.5903999999999,1005560704.3012924,1005559899.7108924,998846891.595152,0.0026085150162267,0.95,0.05,0.35,0.3324999999999999,0.3339556981130616,0.3324831371021491,50327744.71089244,True
A3_LLM_POLICY,2024-01-08,2024-01-09,139270,ETF_004,TIGER 200 금융,5744.0,5731.0,16652.0,16630.0,-22.0,SELL,95649088.0,95522720.0,-126368.0,126368.0,5363936.0,18.9552,804.5903999999999,1005560704.3012924,1005559899.7108924,998846891.595152,0.0026085150162267,0.95,0.05,0.1,0.095,0.0951201529563162,0.094994559774573,50327744.71089244,True
A3_LLM_POLICY,2024-01-08,2024-01-09,266390,ETF_006,KODEX 경기소비재,8042.0,8009.0,29847.0,29696.0,-151.0,SELL,240029574.0,238815232.0,-1214342.0,1214342.0,5363936.0,182.1513,804.5903999999999,1005560704.3012924,1005559899.7108924,998846891.595152,0.0026085150162267,0.95,0.05,0.25,0.2375,0.23870222153001,0.237494784814571,50327744.71089244,True
A3_LLM_POLICY,2024-01-08,2024-01-09,266410,ETF_007,KODEX 필수소비재,6232.0,6194.0,15278.0,15328.0,50.0,BUY,95212496.0,95524096.0,311600.0,311600.0,5363936.0,46.74,804.5903999999999,1005560704.3012924,1005559899.7108924,998846891.595152,0.0026085150162267,0.95,0.05,0.1,0.095,0.0946859752899332,0.0949959281664513,50327744.71089244,True
A3_LLM_POLICY,2024-01-08,2024-01-09,266420,ETF_008,KODEX 헬스케어,13885.0,13890.0,10180.0,10319.0,139.0,BUY,141349300.0,143279315.0,1930015.0,1930015.0,5363936.0,289.50225,804.5903999999999,1005560704.3012924,1005559899.7108924,998846891.595152,0.0026085150162267,0.95,0.05,0.15,0.1425,0.1405676448924241,0.142487101008298,50327744.71089244,True
A3_LLM_POLICY,2024-01-08,2024-01-09,315270,ETF_009,TIGER 200 커뮤니케이션서비스,17682.0,17825.0,2684.0,2701.0,17.0,BUY,47458488.0,47759082.0,300594.0,300594.0,5363936.0,45.0891,804.5903999999999,1005560704.3012924,1005559899.7108924,998846891.595152,0.0026085150162267,0.95,0.05,0.05,0.0475,0.0471960447509494,0.0474950144827087,50327744.71089244,True
A3_LLM_POLICY,2024-01-09,2024-01-10,117460,ETF_001,KODEX 에너지화학,15264.0,15038.0,0.0,0.0,0.0,HOLD,0.0,0.0,0.0,0.0,5375015.0,0.0,806.2522499999999,1002837618.595152,1002836812.342902,989735773.01693,-0.0091216368142984,0.95,0.05,0.0,0.0,0.0,0.0,50161957.342902064,True
A3_LLM_POLICY,2024-01-09,2024-01-10,117680,ETF_002,KODEX 철강,8658.0,8579.0,0.0,0.0,0.0,HOLD,0.0,0.0,0.0,0.0,5375015.0,0.0,806.2522499999999,1002837618.595152,1002836812.342902,989735773.01693,-0.0091216368142984,0.95,0.05,0.0,0.0,0.0,0.0,50161957.342902064,True
A3_LLM_POLICY,2024-01-09,2024-01-10,139260,ETF_003,TIGER 200 IT,31185.0,30425.0,10610.0,10692.0,82.0,BUY,330872850.0,333430020.0,2557170.0,2557170.0,5375015.0,383.5754999999999,806.2522499999999,1002837618.595152,1002836812.342902,989735773.01693,-0.0091216368142984,0.95,0.05,0.35,0.3324999999999999,0.329936615724,0.3324868172928514,50161957.342902064,True
A3_LLM_POLICY,2024-01-09,2024-01-10,139270,ETF_004,TIGER 200 금융,5790.0,5695.0,16630.0,16454.0,-176.0,SELL,96287700.0,95268660.0,-1019040.0,1019040.0,5375015.0,152.856,806.2522499999999,1002837618.595152,1002836812.342902,989735773.01693,-0.0091216368142984,0.95,0.05,0.1,0.095,0.0960152453543643,0.0949991651956077,50161957.342902064,True
A3_LLM_POLICY,2024-01-09,2024-01-10,266390,ETF_006,KODEX 경기소비재,8013.0,7942.0,29696.0,29723.0,27.0,BUY,237954048.0,238170399.0,216351.0,216351.0,5375015.0,32.45265,806.2522499999999,1002837618.595152,1002836812.342902,989735773.01693,-0.0091216368142984,0.95,0.05,0.25,0.2375,0.2372807357719022,0.2374966655278325,50161957.342902064,True
A3_LLM_POLICY,2024-01-09,2024-01-10,266410,ETF_007,KODEX 필수소비재,6232.0,6175.0,15328.0,15287.0,-41.0,SELL,95524096.0,95268584.0,-255512.0,255512.0,5375015.0,38.3268,806.2522499999999,1002837618.595152,1002836812.342902,989735773.01693,-0.0091216368142984,0.95,0.05,0.1,0.095,0.0952538020400721,0.0949990894105955,50161957.342902064,True
A3_LLM_POLICY,2024-01-09,2024-01-10,266420,ETF_008,KODEX 헬스케어,13920.0,13880.0,10319.0,10266.0,-53.0,SELL,143640480.0,142902720.0,-737760.0,737760.0,5375015.0,110.664,806.2522499999999,1002837618.595152,1002836812.342902,989735773.01693,-0.0091216368142984,0.95,0.05,0.15,0.1425,0.143234036434754,0.1424984785571842,50161957.342902064,True
A3_LLM_POLICY,2024-01-09,2024-01-10,315270,ETF_009,TIGER 200 커뮤니케이션서비스,17854.0,17844.0,2701.0,2668.0,-33.0,SELL,48223654.0,47634472.0,-589182.0,589182.0,5375015.0,88.37729999999999,806.2522499999999,1002837618.595152,1002836812.342902,989735773.01693,-0.0091216368142984,0.95,0.05,0.05,0.0475,0.0480872008646376,0.047499724196116,50161957.342902064,True
A3_LLM_POLICY,2024-01-10,2024-01-11,117460,ETF_001,KODEX 에너지화학,14994.0,14974.0,0.0,0.0,0.0,HOLD,0.0,0.0,0.0,0.0,287694079.0,0.0,43154.11185,991838671.01693,991795516.90508,992956709.8352416,0.0032543401038171,0.95,0.05,0.0,0.0,0.0,0.0,49609956.90508008,True
A3_LLM_POLICY,2024-01-10,2024-01-11,117680,ETF_002,KODEX 철강,8579.0,8560.0,0.0,0.0,0.0,HOLD,0.0,0.0,0.0,0.0,287694079.0,0.0,43154.11185,991838671.01693,991795516.90508,992956709.8352416,0.0032543401038171,0.95,0.05,0.0,0.0,0.0,0.0,49609956.90508008,True
A3_LLM_POLICY,2024-01-10,2024-01-11,139260,ETF_003,TIGER 200 IT,30469.0,30727.0,10692.0,10823.0,131.0,BUY,325774548.0,329765987.0,3991439.0,3991439.0,287694079.0,598.7158499999999,43154.11185,991838671.01693,991795516.90508,992956709.8352416,0.0032543401038171,0.95,0.05,0.35,0.3324999999999999,0.3284551787701361,0.3324939278098797,49609956.90508008,True
A3_LLM_POLICY,2024-01-10,2024-01-11,139270,ETF_004,TIGER 200 금융,5771.0,5785.0,16454.0,16326.0,-128.0,SELL,94956034.0,94217346.0,-738688.0,738688.0,287694079.0,110.8032,43154.11185,991838671.01693,991795516.90508,992956709.8352416,0.0032543401038171,0.95,0.05,0.1,0.095,0.0957373782397915,0.0949967451899836,49609956.90508008,True
A3_LLM_POLICY,2024-01-10,2024-01-11,266390,ETF_006,KODEX 경기소비재,7942.0,7932.0,29723.0,17795.0,-11928.0,SELL,236060066.0,141327890.0,-94732176.0,94732176.0,287694079.0,14209.826399999998,43154.11185,991838671.01693,991795516.90508,992956709.8352416,0.0032543401038171,0.95,0.05,0.15,0.1425,0.2380024825589509,0.1424970042625488,49609956.90508008,True
A3_LLM_POLICY,2024-01-10,2024-01-11,266410,ETF_007,KODEX 필수소비재,6179.0,6127.0,15287.0,15248.0,-39.0,SELL,94458373.0,94217392.0,-240981.0,240981.0,287694079.0,36.14714999999999,43154.11185,991838671.01693,991795516.90508,992956709.8352416,0.0032543401038171,0.95,0.05,0.1,0.095,0.0952356222440409,0.0949967915705119,49609956.90508008,True
A3_LLM_POLICY,2024-01-10,2024-01-11,266420,ETF_008,KODEX 헬스케어,13885.0,13841.0,10266.0,20357.0,10091.0,BUY,142543410.0,282656945.0,140113535.0,140113535.0,287694079.0,21017.03025,43154.11185,991838671.01693,991795516.90508,992956709.8352416,0.0032543401038171,0.95,0.05,0.3,0.285,0.1437163262185074,0.2849951831623894,49609956.90508008,True
A3_LLM_POLICY,2024-01-10,2024-01-11,315270,ETF_009,TIGER 200 커뮤니케이션서비스,17945.0,18017.0,2668.0,0.0,-2668.0,SELL,47877260.0,0.0,-47877260.0,47877260.0,287694079.0,7181.588999999999,43154.11185,991838671.01693,991795516.90508,992956709.8352416,0.0032543401038171,0.95,0.05,0.0,0.0,0.0482712172846734,0.0,49609956.90508008,True
A3_LLM_POLICY,2024-01-11,2024-01-12,117460,ETF_001,KODEX 에너지화학,15028.0,14783.0,0.0,0.0,0.0,HOLD,0.0,0.0,0.0,0.0,289497048.0,0.0,43424.5572,988487301.8352416,988443877.2780416,979213628.3718622,-0.0138405645757304,0.95,0.05,0.0,0.0,0.0,0.0,49452493.27804172,True
A3_LLM_POLICY,2024-01-11,2024-01-12,117680,ETF_002,KODEX 철강,8560.0,8443.0,0.0,0.0,0.0,HOLD,0.0,0.0,0.0,0.0,289497048.0,0.0,43424.5572,988487301.8352416,988443877.2780416,979213628.3718622,-0.0138405645757304,0.95,0.05,0.0,0.0,0.0,0.0,49452493.27804172,True
A3_LLM_POLICY,2024-01-11,2024-01-12,139260,ETF_003,TIGER 200 IT,30557.0,30090.0,10823.0,10755.0,-68.0,SELL,330718411.0,328640535.0,-2077876.0,2077876.0,289497048.0,311.68139999999994,43424.5572,988487301.8352416,988443877.2780416,979213628.3718622,-0.0138405645757304,0.95,0.05,0.35,0.3325,0.3345702169223447,0.3324827464205698,49452493.27804172,True
A3_LLM_POLICY,2024-01-11,2024-01-12,139270,ETF_004,TIGER 200 금융,5830.0,5762.0,16326.0,0.0,-16326.0,SELL,95180580.0,0.0,-95180580.0,95180580.0,289497048.0,14277.087,43424.5572,988487301.8352416,988443877.2780416,979213628.3718622,-0.0138405645757304,0.95,0.05,0.0,0.0,0.0962891276633358,0.0,49452493.27804172,True
A3_LLM_POLICY,2024-01-11,2024-01-12,266390,ETF_006,KODEX 경기소비재,7942.0,7894.0,17795.0,11823.0,-5972.0,SELL,141327890.0,93898266.0,-47429624.0,47429624.0,289497048.0,7114.4436,43424.5572,988487301.8352416,988443877.2780416,979213628.3718622,-0.0138405645757304,0.95,0.05,0.1,0.095,0.1429739054185201,0.0949960520354228,49452493.27804172,True
A3_LLM_POLICY,2024-01-11,2024-01-12,266410,ETF_007,KODEX 필수소비재,6127.0,6079.0,15248.0,15325.0,77.0,BUY,93424496.0,93896275.0,471779.0,471779.0,289497048.0,70.76684999999999,43424.5572,988487301.8352416,988443877.2780416,979213628.3718622,-0.0138405645757304,0.95,0.05,0.1,0.095,0.0945125909321713,0.0949940377581879,49452493.27804172,True
A3_LLM_POLICY,2024-01-11,2024-01-12,266420,ETF_008,KODEX 헬스케어,13667.0,13562.0,20357.0,20612.0,255.0,BUY,278219119.0,281704204.0,3485085.0,3485085.0,289497048.0,522.76275,43424.5572,988487301.8352416,988443877.2780416,979213628.3718622,-0.0138405645757304,0.95,0.05,0.3,0.285,0.2814594770043619,0.2849976720739591,49452493.27804172,True
A3_LLM_POLICY,2024-01-11,2024-01-12,315270,ETF_009,TIGER 200 커뮤니케이션서비스,17911.0,17816.0,0.0,7864.0,7864.0,BUY,0.0,140852104.0,140852104.0,140852104.0,289497048.0,21127.8156,43424.5572,988487301.8352416,988443877.2780416,979213628.3718622,-0.0138405645757304,0.95,0.05,0.15,0.1425,0.0,0.142498838060362,49452493.27804172,True
A3_LLM_POLICY,2024-01-12,2024-01-15,117460,ETF_001,KODEX 에너지화학,14876.0,14636.0,0.0,0.0,0.0,HOLD,0.0,0.0,0.0,0.0,559344244.0,0.0,83901.6366,980891337.3718622,980807435.7352622,975792270.4587553,-0.0034939851876814,0.95,0.05,0.0,0.0,0.0,0.0,49069745.73526216,True
A3_LLM_POLICY,2024-01-12,2024-01-15,117680,ETF_002,KODEX 철강,8424.0,8373.0,0.0,0.0,0.0,HOLD,0.0,0.0,0.0,0.0,559344244.0,0.0,83901.6366,980891337.3718622,980807435.7352622,975792270.4587553,-0.0034939851876814,0.95,0.05,0.0,0.0,0.0,0.0,49069745.73526216,True
A3_LLM_POLICY,2024-01-12,2024-01-15,139260,ETF_003,TIGER 200 IT,30187.0,30177.0,10755.0,7716.0,-3039.0,SELL,324661185.0,232922892.0,-91738293.0,91738293.0,559344244.0,13760.743949999998,83901.6366,980891337.3718622,980807435.7352622,975792270.4587553,-0.0034939851876814,0.95,0.05,0.25,0.2375,0.3309858825646034,0.237480756684302,49069745.73526216,True
A3_LLM_POLICY,2024-01-12,2024-01-15,139270,ETF_004,TIGER 200 금융,5848.0,5871.0,0.0,15933.0,15933.0,BUY,0.0,93176184.0,93176184.0,93176184.0,559344244.0,13976.4276,83901.6366,980891337.3718622,980807435.7352622,975792270.4587553,-0.0034939851876814,0.95,0.05,0.1,0.095,0.0,0.0949994673828614,49069745.73526216,True
A3_LLM_POLICY,2024-01-12,2024-01-15,227550,ETF_005,TIGER 200 산업재,6209.0,6209.0,0.0,30013.0,30013.0,BUY,0.0,186350717.0,186350717.0,186350717.0,559344244.0,27952.60755,83901.6366,980891337.3718622,980807435.7352622,975792270.4587553,-0.0034939851876814,0.95,0.05,0.2,0.19,0.0,0.1899972514587455,49069745.73526216,True
A3_LLM_POLICY,2024-01-12,2024-01-15,266390,ETF_006,KODEX 경기소비재,7889.0,7870.0,11823.0,0.0,-11823.0,SELL,93271647.0,0.0,-93271647.0,93271647.0,559344244.0,13990.74705,83901.6366,980891337.3718622,980807435.7352622,975792270.4587553,-0.0034939851876814,0.95,0.05,0.0,0.0,0.0950886642040352,0.0,49069745.73526216,True
A3_LLM_POLICY,2024-01-12,2024-01-15,266410,ETF_007,KODEX 필수소비재,6108.0,6051.0,15325.0,7627.0,-7698.0,SELL,93605100.0,46585716.0,-47019384.0,47019384.0,559344244.0,7052.9076000000005,83901.6366,980891337.3718622,980807435.7352622,975792270.4587553,-0.0034939851876814,0.95,0.05,0.05,0.0475,0.0954286131742171,0.0474973111975614,49069745.73526216,True
A3_LLM_POLICY,2024-01-12,2024-01-15,266420,ETF_008,KODEX 헬스케어,13547.0,13319.0,20612.0,20634.0,22.0,BUY,279230764.0,279528798.0,298034.0,298034.0,559344244.0,44.7051,83901.6366,980891337.3718622,980807435.7352622,975792270.4587553,-0.0034939851876814,0.95,0.05,0.3,0.285,0.2846704353085155,0.2849986529623435,49069745.73526216,True
A3_LLM_POLICY,2024-01-12,2024-01-15,315270,ETF_009,TIGER 200 커뮤니케이션서비스,17887.0,17854.0,7864.0,5209.0,-2655.0,SELL,140663368.0,93173383.0,-47489985.0,47489985.0,559344244.0,7123.49775,83901.6366,980891337.3718622,980807435.7352622,975792270.4587553,-0.0034939851876814,0.95,0.05,0.1,0.095,0.1434036193824328,0.0949966115725382,49069745.73526216,True
A3_LLM_POLICY,2024-01-15,2024-01-16,117460,ETF_001,KODEX 에너지화학,14720.0,14519.0,0.0,6298.0,6298.0,BUY,0.0,92706560.0,92706560.0,92706560.0,835528421.0,13905.983999999997,125329.26314999998,976128953.4587553,976003624.1956052,964985354.3059886,-0.011075017173159,0.95,0.05,0.1,0.095,0.0,0.0949858767956995,48847369.19560516,True
A3_LLM_POLICY,2024-01-15,2024-01-16,117680,ETF_002,KODEX 철강,8368.0,8340.0,0.0,0.0,0.0,HOLD,0.0,0.0,0.0,0.0,835528421.0,0.0,125329.26314999998,976128953.4587553,976003624.1956052,964985354.3059886,-0.011075017173159,0.95,0.05,0.0,0.0,0.0,0.0,48847369.19560516,True
A3_LLM_POLICY,2024-01-15,2024-01-16,139260,ETF_003,TIGER 200 IT,30075.0,29686.0,7716.0,4624.0,-3092.0,SELL,232058700.0,139066800.0,-92991900.0,92991900.0,835528421.0,13948.785,125329.26314999998,976128953.4587553,976003624.1956052,964985354.3059886,-0.011075017173159,0.95,0.05,0.15,0.1425,0.2377336510486012,0.1424859463146102,48847369.19560516,True
A3_LLM_POLICY,2024-01-15,2024-01-16,139270,ETF_004,TIGER 200 금융,5907.0,5794.0,15933.0,0.0,-15933.0,SELL,94116231.0,0.0,-94116231.0,94116231.0,835528421.0,14117.434649999996,125329.26314999998,976128953.4587553,976003624.1956052,964985354.3059886,-0.011075017173159,0.95,0.05,0.0,0.0,0.0964178253974686,0.0,48847369.19560516,True
A3_LLM_POLICY,2024-01-15,2024-01-16,227550,ETF_005,TIGER 200 산업재,6185.0,6175.0,30013.0,0.0,-30013.0,SELL,185630405.0,0.0,-185630405.0,185630405.0,835528421.0,27844.56075,125329.26314999998,976128953.4587553,976003624.1956052,964985354.3059886,-0.011075017173159,0.95,0.05,0.0,0.0,0.1901699609895277,0.0,48847369.19560516,True
A3_LLM_POLICY,2024-01-15,2024-01-16,266390,ETF_006,KODEX 경기소비재,7832.0,7775.0,0.0,0.0,0.0,HOLD,0.0,0.0,0.0,0.0,835528421.0,0.0,125329.26314999998,976128953.4587553,976003624.1956052,964985354.3059886,-0.011075017173159,0.95,0.05,0.0,0.0,0.0,0.0,48847369.19560516,True
A3_LLM_POLICY,2024-01-15,2024-01-16,266410,ETF_007,KODEX 필수소비재,6022.0,5922.0,7627.0,23095.0,15468.0,BUY,45929794.0,139078090.0,93148296.0,93148296.0,835528421.0,13972.2444,125329.26314999998,976128953.4587553,976003624.1956052,964985354.3059886,-0.011075017173159,0.95,0.05,0.15,0.1425,0.0470529983126258,0.1424975138946069,48847369.19560516,True
A3_LLM_POLICY,2024-01-15,2024-01-16,266420,ETF_008,KODEX 헬스케어,13413.0,13309.0,20634.0,17281.0,-3353.0,SELL,276763842.0,231790053.0,-44973789.0,44973789.0,835528421.0,6746.068349999999,125329.26314999998,976128953.4587553,976003624.1956052,964985354.3059886,-0.011075017173159,0.95,0.05,0.25,0.2375,0.2835320487311969,0.2374889265304059,48847369.19560516,True
A3_LLM_POLICY,2024-01-15,2024-01-16,315270,ETF_009,TIGER 200 커뮤니케이션서비스,17768.0,17557.0,5209.0,18264.0,13055.0,BUY,92553512.0,324514752.0,231961240.0,231961240.0,835528421.0,34794.185999999994,125329.26314999998,976128953.4587553,976003624.1956052,964985354.3059886,-0.011075017173159,0.95,0.05,0.35,0.3324999999999999,0.0948168904037233,0.3324933882980772,48847369.19560516,True
A3_LLM_POLICY,2024-01-16,2024-01-17,117460,ETF_001,KODEX 에너지화학,14519.0,14014.0,6298.0,3145.0,-3153.0,SELL,91440662.0,45662255.0,-45778407.0,45778407.0,730000552.0,6866.761049999998,109500.0828,961489540.3059886,961380040.2231884,942891897.3294448,-0.0228951215455837,0.95,0.05,0.05,0.0475,0.0951031271446796,0.0474965706479607,48113125.22318852,True
A3_LLM_POLICY,2024-01-16,2024-01-17,117680,ETF_002,KODEX 철강,8363.0,8134.0,0.0,0.0,0.0,HOLD,0.0,0.0,0.0,0.0,730000552.0,0.0,109500.0828,961489540.3059886,961380040.2231884,942891897.3294448,-0.0228951215455837,0.95,0.05,0.0,0.0,0.0,0.0,48113125.22318852,True
A3_LLM_POLICY,2024-01-16,2024-01-17,139260,ETF_003,TIGER 200 IT,29978.0,29038.0,4624.0,3046.0,-1578.0,SELL,138618272.0,91312988.0,-47305284.0,47305284.0,730000552.0,7095.792599999999,109500.0828,961489540.3059886,961380040.2231884,942891897.3294448,-0.0228951215455837,0.95,0.05,0.1,0.095,0.1441703379902453,0.0949811564413187,48113125.22318852,True
A3_LLM_POLICY,2024-01-16,2024-01-17,139270,ETF_004,TIGER 200 금융,5880.0,5717.0,0.0,23298.0,23298.0,BUY,0.0,136992240.0,136992240.0,136992240.0,730000552.0,20548.836,109500.0828,961489540.3059886,961380040.2231884,942891897.3294448,-0.0228951215455837,0.95,0.05,0.15,0.1425,0.0,0.1424954068821697,48113125.22318852,True
A3_LLM_POLICY,2024-01-16,2024-01-17,227550,ETF_005,TIGER 200 산업재,6052.0,6019.0,0.0,37727.0,37727.0,BUY,0.0,228323804.0,228323804.0,228323804.0,730000552.0,34248.5706,109500.0828,961489540.3059886,961380040.2231884,942891897.3294448,-0.0228951215455837,0.95,0.05,0.25,0.2375,0.0,0.2374958855469827,48113125.22318852,True
A3_LLM_POLICY,2024-01-16,2024-01-17,266390,ETF_006,KODEX 경기소비재,7727.0,7622.0,0.0,0.0,0.0,HOLD,0.0,0.0,0.0,0.0,730000552.0,0.0,109500.0828,961489540.3059886,961380040.2231884,942891897.3294448,-0.0228951215455837,0.95,0.05,0.0,0.0,0.0,0.0,48113125.22318852,True
A3_LLM_POLICY,2024-01-16,2024-01-17,266410,ETF_007,KODEX 필수소비재,5927.0,5793.0,23095.0,15409.0,-7686.0,SELL,136884065.0,91329143.0,-45554922.0,45554922.0,730000552.0,6833.238299999999,109500.0828,961489540.3059886,961380040.2231884,942891897.3294448,-0.0228951215455837,0.95,0.05,0.1,0.095,0.1423666709431258,0.0949979604099098,48113125.22318852,True
A3_LLM_POLICY,2024-01-16,2024-01-17,266420,ETF_008,KODEX 헬스케어,13284.0,12901.0,17281.0,10312.0,-6969.0,SELL,229560804.0,136984608.0,-92576196.0,92576196.0,730000552.0,13886.429399999995,109500.0828,961489540.3059886,961380040.2231884,942891897.3294448,-0.0228951215455837,0.95,0.05,0.15,0.1425,0.238755383575929,0.1424874682942225,48113125.22318852,True
A3_LLM_POLICY,2024-01-16,2024-01-17,315270,ETF_009,TIGER 200 커뮤니케이션서비스,17309.0,17026.0,18264.0,10553.0,-7711.0,SELL,316131576.0,182661877.0,-133469699.0,133469699.0,730000552.0,20020.45485,109500.0828,961489540.3059886,961380040.2231884,942891897.3294448,-0.0228951215455837,0.95,0.05,0.2,0.19,0.3287935674260095,0.1899996560752335,48113125.22318852,True
A3_LLM_POLICY,2024-01-17,2024-01-18,117460,ETF_001,KODEX 에너지화학,14048.0,13980.0,3145.0,0.0,-3145.0,SELL,44180960.0,0.0,-44180960.0,44180960.0,808605436.0,6627.143999999999,121290.8154,943818562.3294448,943697271.5140448,942228112.5307592,-0.000703988230852,0.95,0.05,0.0,0.0,0.0468108614975283,0.0,47207880.51404476,True
A3_LLM_POLICY,2024-01-17,2024-01-18,117680,ETF_002,KODEX 철강,8111.0,8106.0,0.0,0.0,0.0,HOLD,0.0,0.0,0.0,0.0,808605436.0,0.0,121290.8154,943818562.3294448,943697271.5140448,942228112.5307592,-0.000703988230852,0.95,0.05,0.0,0.0,0.0,0.0,47207880.51404476,True
A3_LLM_POLICY,2024-01-17,2024-01-18,139260,ETF_003,TIGER 200 IT,29092.0,29262.0,3046.0,0.0,-3046.0,SELL,88614232.0,0.0,-88614232.0,88614232.0,808605436.0,13292.134799999998,121290.8154,943818562.3294448,943697271.5140448,942228112.5307592,-0.000703988230852,0.95,0.05,0.0,0.0,0.0938890540373465,0.0,47207880.51404476,True
A3_LLM_POLICY,2024-01-17,2024-01-18,139270,ETF_004,TIGER 200 금융,5717.0,5631.0,23298.0,23522.0,224.0,BUY,133194666.0,134475274.0,1280608.0,1280608.0,808605436.0,192.0912,121290.8154,943818562.3294448,943697271.5140448,942228112.5307592,-0.000703988230852,0.95,0.05,0.15,0.1425,0.1411231684946536,0.1424983181145063,47207880.51404476,True
A3_LLM_POLICY,2024-01-17,2024-01-18,227550,ETF_005,TIGER 200 산업재,6028.0,6009.0,37727.0,0.0,-37727.0,SELL,227418356.0,0.0,-227418356.0,227418356.0,808605436.0,34112.753399999994,121290.8154,943818562.3294448,943697271.5140448,942228112.5307592,-0.000703988230852,0.95,0.05,0.0,0.0,0.2409555873098186,0.0,47207880.51404476,True
A3_LLM_POLICY,2024-01-17,2024-01-18,266390,ETF_006,KODEX 경기소비재,7660.0,7607.0,0.0,29259.0,29259.0,BUY,0.0,224123940.0,224123940.0,224123940.0,808605436.0,33618.591,121290.8154,943818562.3294448,943697271.5140448,942228112.5307592,-0.000703988230852,0.95,0.05,0.25,0.2375,0.0,0.2374955897036992,47207880.51404476,True
A3_LLM_POLICY,2024-01-17,2024-01-18,266410,ETF_007,KODEX 필수소비재,5803.0,5865.0,15409.0,38622.0,23213.0,BUY,89418427.0,224123466.0,134705039.0,134705039.0,808605436.0,20205.75585,121290.8154,943818562.3294448,943697271.5140448,942228112.5307592,-0.000703988230852,0.95,0.05,0.25,0.2375,0.0947411192881244,0.2374950874239806,47207880.51404476,True
A3_LLM_POLICY,2024-01-17,2024-01-18,266420,ETF_008,KODEX 헬스케어,12931.0,12797.0,10312.0,6933.0,-3379.0,SELL,133344472.0,89650623.0,-43693849.0,43693849.0,808605436.0,6554.07735,121290.8154,943818562.3294448,943697271.5140448,942228112.5307592,-0.000703988230852,0.95,0.05,0.1,0.095,0.1412818917980291,0.0949993453474404,47207880.51404476,True
A3_LLM_POLICY,2024-01-17,2024-01-18,315270,ETF_009,TIGER 200 커뮤니케이션서비스,17012.0,17060.0,10553.0,13174.0,2621.0,BUY,179527636.0,224116088.0,44588452.0,44588452.0,808605436.0,6688.2678,121290.8154,943818562.3294448,943697271.5140448,942228112.5307592,-0.000703988230852,0.95,0.05,0.25,0.2375,0.1902141398415673,0.2374872692388245,47207880.51404476,True
A3_LLM_POLICY,2024-01-18,2024-01-19,117460,ETF_001,KODEX 에너지화학,14014.0,13720.0,0.0,0.0,0.0,HOLD,0.0,0.0,0.0,0.0,901691447.0,0.0,135253.71704999998,948912406.5307592,948777152.8137093,944184311.3222028,0.0020761413986993,0.95,0.05,0.0,0.0,0.0,0.0,47473357.81370914,True
A3_LLM_POLICY,2024-01-18,2024-01-19,117680,ETF_002,KODEX 철강,8115.0,8106.0,0.0,0.0,0.0,HOLD,0.0,0.0,0.0,0.0,901691447.0,0.0,135253.71704999998,948912406.5307592,948777152.8137093,944184311.3222028,0.0020761413986993,0.95,0.05,0.0,0.0,0.0,0.0,47473357.81370914,True
A3_LLM_POLICY,2024-01-18,2024-01-19,139260,ETF_003,TIGER 200 IT,29729.0,29905.0,0.0,7579.0,7579.0,BUY,0.0,225316091.0,225316091.0,225316091.0,901691447.0,33797.413649999995,135253.71704999998,948912406.5307592,948777152.8137093,944184311.3222028,0.0020761413986993,0.95,0.05,0.25,0.2375,0.0,0.2374805193525148,47473357.81370914,True
A3_LLM_POLICY,2024-01-18,2024-01-19,139270,ETF_004,TIGER 200 금융,5631.0,5663.0,23522.0,0.0,-23522.0,SELL,132452382.0,0.0,-132452382.0,132452382.0,901691447.0,19867.8573,135253.71704999998,948912406.5307592,948777152.8137093,944184311.3222028,0.0020761413986993,0.95,0.05,0.0,0.0,0.1395833599480992,0.0,47473357.81370914,True
A3_LLM_POLICY,2024-01-18,2024-01-19,227550,ETF_005,TIGER 200 산업재,6033.0,5971.0,0.0,37350.0,37350.0,BUY,0.0,225332550.0,225332550.0,225332550.0,901691447.0,33799.88249999999,135253.71704999998,948912406.5307592,948777152.8137093,944184311.3222028,0.0020761413986993,0.95,0.05,0.25,0.2375,0.0,0.2374978669456258,47473357.81370914,True
A3_LLM_POLICY,2024-01-18,2024-01-19,266390,ETF_006,KODEX 경기소비재,7684.0,7650.0,29259.0,0.0,-29259.0,SELL,224826156.0,0.0,-224826156.0,224826156.0,901691447.0,33723.9234,135253.71704999998,948912406.5307592,948777152.8137093,944184311.3222028,0.0020761413986993,0.95,0.05,0.0,0.0,0.2369303577997978,0.0,47473357.81370914,True
A3_LLM_POLICY,2024-01-18,2024-01-19,266410,ETF_007,KODEX 필수소비재,5898.0,5869.0,38622.0,38205.0,-417.0,SELL,227792556.0,225333090.0,-2459466.0,2459466.0,901691447.0,368.9198999999999,135253.71704999998,948912406.5307592,948777152.8137093,944184311.3222028,0.0020761413986993,0.95,0.05,0.25,0.2375,0.2400564629909453,0.2374984360992973,47473357.81370914,True
A3_LLM_POLICY,2024-01-18,2024-01-19,266420,ETF_008,KODEX 헬스케어,12916.0,12737.0,6933.0,0.0,-6933.0,SELL,89546628.0,0.0,-89546628.0,89546628.0,901691447.0,13431.994199999996,135253.71704999998,948912406.5307592,948777152.8137093,944184311.3222028,0.0020761413986993,0.95,0.05,0.0,0.0,0.0943676438243484,0.0,47473357.81370914,True
A3_LLM_POLICY,2024-01-18,2024-01-19,315270,ETF_009,TIGER 200 커뮤니케이션서비스,17237.0,17045.0,13174.0,13072.0,-102.0,SELL,227080238.0,225322064.0,-1758174.0,1758174.0,901691447.0,263.7261,135253.71704999998,948912406.5307592,948777152.8137093,944184311.3222028,0.0020761413986993,0.95,0.05,0.25,0.2375,0.2393057951789348,0.237486814824515,47473357.81370914,True
A3_LLM_POLICY,2024-01-19,2024-01-22,117460,ETF_001,KODEX 에너지화학,13818.0,13240.0,0.0,0.0,0.0,HOLD,0.0,0.0,0.0,0.0,460830230.0,0.0,69124.5345,949705267.3222028,949636142.7877028,947487325.9215528,0.0034982731228869,0.95,0.05,0.0,0.0,0.0,0.0,47499462.78770268,True
A3_LLM_POLICY,2024-01-19,2024-01-22,117680,ETF_002,KODEX 철강,8144.0,7999.0,0.0,0.0,0.0,HOLD,0.0,0.0,0.0,0.0,460830230.0,0.0,69124.5345,949705267.3222028,949636142.7877028,947487325.9215528,0.0034982731228869,0.95,0.05,0.0,0.0,0.0,0.0,47499462.78770268,True
A3_LLM_POLICY,2024-01-19,2024-01-22,139260,ETF_003,TIGER 200 IT,30260.0,29856.0,7579.0,7453.0,-126.0,SELL,229340540.0,225527780.0,-3812760.0,3812760.0,460830230.0,571.914,69124.5345,949705267.3222028,949636142.7877028,947487325.9215528,0.0034982731228869,0.95,0.05,0.25,0.2375,0.2414860145470716,0.2374886231035313,47499462.78770268,True
A3_LLM_POLICY,2024-01-19,2024-01-22,139270,ETF_004,TIGER 200 금융,5717.0,5663.0,0.0,0.0,0.0,HOLD,0.0,0.0,0.0,0.0,460830230.0,0.0,69124.5345,949705267.3222028,949636142.7877028,947487325.9215528,0.0034982731228869,0.95,0.05,0.0,0.0,0.0,0.0,47499462.78770268,True
A3_LLM_POLICY,2024-01-19,2024-01-22,227550,ETF_005,TIGER 200 산업재,5909.0,5933.0,37350.0,38168.0,818.0,BUY,220701150.0,225534712.0,4833562.0,4833562.0,460830230.0,725.0342999999999,69124.5345,949705267.3222028,949636142.7877028,947487325.9215528,0.0034982731228869,0.95,0.05,0.25,0.2375,0.2323890975379034,0.2374959227414533,47499462.78770268,True
A3_LLM_POLICY,2024-01-19,2024-01-22,266390,ETF_006,KODEX 경기소비재,7650.0,7679.0,0.0,29482.0,29482.0,BUY,0.0,225537300.0,225537300.0,225537300.0,460830230.0,33830.595,69124.5345,949705267.3222028,949636142.7877028,947487325.9215528,0.0034982731228869,0.95,0.05,0.25,0.2375,0.0,0.2374986479957727,47499462.78770268,True
A3_LLM_POLICY,2024-01-19,2024-01-22,266410,ETF_007,KODEX 필수소비재,5912.0,5888.0,38205.0,38149.0,-56.0,SELL,225867960.0,225536888.0,-331072.0,331072.0,460830230.0,49.6608,69124.5345,949705267.3222028,949636142.7877028,947487325.9215528,0.0034982731228869,0.95,0.05,0.25,0.2375,0.2378295327737407,0.2374982141453942,47499462.78770268,True
A3_LLM_POLICY,2024-01-19,2024-01-22,266420,ETF_008,KODEX 헬스케어,12836.0,13000.0,0.0,0.0,0.0,HOLD,0.0,0.0,0.0,0.0,460830230.0,0.0,69124.5345,949705267.3222028,949636142.7877028,947487325.9215528,0.0034982731228869,0.95,0.05,0.0,0.0,0.0,0.0,47499462.78770268,True
A3_LLM_POLICY,2024-01-19,2024-01-22,315270,ETF_009,TIGER 200 커뮤니케이션서비스,17313.0,16993.0,13072.0,0.0,-13072.0,SELL,226315536.0,0.0,-226315536.0,226315536.0,460830230.0,33947.3304,69124.5345,949705267.3222028,949636142.7877028,947487325.9215528,0.0034982731228869,0.95,0.05,0.0,0.0,0.2383008116171886,0.0,47499462.78770268,True
A3_LLM_POLICY,2024-01-22,2024-01-23,117460,ETF_001,KODEX 에너지화학,13264.0,13343.0,0.0,0.0,0.0,HOLD,0.0,0.0,0.0,0.0,455006058.0,0.0,68250.9087,948995695.9215528,948927445.0128528,954105729.826648,0.0069852162915826,0.95,0.05,0.0,0.0,0.0,0.0,47461165.01285267,True
A3_LLM_POLICY,2024-01-22,2024-01-23,117680,ETF_002,KODEX 철강,7999.0,8055.0,0.0,0.0,0.0,HOLD,0.0,0.0,0.0,0.0,455006058.0,0.0,68250.9087,948995695.9215528,948927445.0128528,954105729.826648,0.0069852162915826,0.95,0.05,0.0,0.0,0.0,0.0,47461165.01285267,True
A3_LLM_POLICY,2024-01-22,2024-01-23,139260,ETF_003,TIGER 200 IT,29953.0,29885.0,7453.0,7524.0,71.0,BUY,223239709.0,225366372.0,2126663.0,2126663.0,455006058.0,318.99945,68250.9087,948995695.9215528,948927445.0128528,954105729.826648,0.0069852162915826,0.95,0.05,0.25,0.2375,0.2352378519306306,0.2374958941112168,47461165.01285267,True
A3_LLM_POLICY,2024-01-22,2024-01-23,139270,ETF_004,TIGER 200 금융,5762.0,5839.0,0.0,0.0,0.0,HOLD,0.0,0.0,0.0,0.0,455006058.0,0.0,68250.9087,948995695.9215528,948927445.0128528,954105729.826648,0.0069852162915826,0.95,0.05,0.0,0.0,0.0,0.0,47461165.01285267,True
A3_LLM_POLICY,2024-01-22,2024-01-23,227550,ETF_005,TIGER 200 산업재,5933.0,5881.0,38168.0,0.0,-38168.0,SELL,226450744.0,0.0,-226450744.0,226450744.0,455006058.0,33967.6116,68250.9087,948995695.9215528,948927445.0128528,954105729.826648,0.0069852162915826,0.95,0.05,0.0,0.0,0.2386214658013783,0.0,47461165.01285267,True
A3_LLM_POLICY,2024-01-22,2024-01-23,266390,ETF_006,KODEX 경기소비재,7650.0,7755.0,29482.0,29460.0,-22.0,SELL,225537300.0,225369000.0,-168300.0,168300.0,455006058.0,25.245,68250.9087,948995695.9215528,948927445.0128528,954105729.826648,0.0069852162915826,0.95,0.05,0.25,0.2375,0.2376589282430673,0.2374986635537214,47461165.01285267,True
A3_LLM_POLICY,2024-01-22,2024-01-23,266410,ETF_007,KODEX 필수소비재,5931.0,5931.0,38149.0,37998.0,-151.0,SELL,226261719.0,225366138.0,-895581.0,895581.0,455006058.0,134.33714999999998,68250.9087,948995695.9215528,948927445.0128528,954105729.826648,0.0069852162915826,0.95,0.05,0.25,0.2375,0.2384222815471057,0.2374956475170212,47461165.01285267,True
A3_LLM_POLICY,2024-01-22,2024-01-23,266420,ETF_008,KODEX 헬스케어,13075.0,13085.0,0.0,0.0,0.0,HOLD,0.0,0.0,0.0,0.0,455006058.0,0.0,68250.9087,948995695.9215528,948927445.0128528,954105729.826648,0.0069852162915826,0.95,0.05,0.0,0.0,0.0,0.0,47461165.01285267,True
A3_LLM_POLICY,2024-01-22,2024-01-23,315270,ETF_009,TIGER 200 커뮤니케이션서비스,17055.0,17251.0,0.0,13214.0,13214.0,BUY,0.0,225364770.0,225364770.0,225364770.0,455006058.0,33804.7155,68250.9087,948995695.9215528,948927445.0128528,954105729.826648,0.0069852162915826,0.95,0.05,0.25,0.2375,0.0,0.237494205889416,47461165.01285267,True
A3_LLM_POLICY,2024-01-23,2024-01-24,117460,ETF_001,KODEX 에너지화학,13470.0,13504.0,0.0,0.0,0.0,HOLD,0.0,0.0,0.0,0.0,634696951.0,0.0,95204.54265,952711205.826648,952616001.283998,947161448.3466268,-0.0072783144078621,0.95,0.05,0.0,0.0,0.0,0.0,47661798.28399789,True
A3_LLM_POLICY,2024-01-23,2024-01-24,117680,ETF_002,KODEX 철강,8055.0,8017.0,0.0,16852.0,16852.0,BUY,0.0,135742860.0,135742860.0,135742860.0,634696951.0,20361.429,95204.54265,952711205.826648,952616001.283998,947161448.3466268,-0.0072783144078621,0.95,0.05,0.15,0.1425,0.0,0.1424948350825904,47661798.28399789,True
A3_LLM_POLICY,2024-01-23,2024-01-24,139260,ETF_003,TIGER 200 IT,29905.0,29710.0,7524.0,7565.0,41.0,BUY,225005220.0,226231325.0,1226105.0,1226105.0,634696951.0,183.91575,95204.54265,952711205.826648,952616001.283998,947161448.3466268,-0.0072783144078621,0.95,0.05,0.25,0.2375,0.2361735840031057,0.2374842798095672,47661798.28399789,True
A3_LLM_POLICY,2024-01-23,2024-01-24,139270,ETF_004,TIGER 200 금융,5839.0,5902.0,0.0,0.0,0.0,HOLD,0.0,0.0,0.0,0.0,634696951.0,0.0,95204.54265,952711205.826648,952616001.283998,947161448.3466268,-0.0072783144078621,0.95,0.05,0.0,0.0,0.0,0.0,47661798.28399789,True
A3_LLM_POLICY,2024-01-23,2024-01-24,227550,ETF_005,TIGER 200 산업재,5838.0,5885.0,0.0,0.0,0.0,HOLD,0.0,0.0,0.0,0.0,634696951.0,0.0,95204.54265,952711205.826648,952616001.283998,947161448.3466268,-0.0072783144078621,0.95,0.05,0.0,0.0,0.0,0.0,47661798.28399789,True
A3_LLM_POLICY,2024-01-23,2024-01-24,266390,ETF_006,KODEX 경기소비재,7722.0,7765.0,29460.0,17579.0,-11881.0,SELL,227490120.0,135745038.0,-91745082.0,91745082.0,634696951.0,13761.7623,95204.54265,952711205.826648,952616001.283998,947161448.3466268,-0.0072783144078621,0.95,0.05,0.15,0.1425,0.2387818245536553,0.1424971214183196,47661798.28399789,True
A3_LLM_POLICY,2024-01-23,2024-01-24,266410,ETF_007,KODEX 필수소비재,5974.0,5931.0,37998.0,53020.0,15022.0,BUY,227000052.0,316741480.0,89741428.0,89741428.0,634696951.0,13461.2142,95204.54265,952711205.826648,952616001.283998,947161448.3466268,-0.0072783144078621,0.95,0.05,0.35,0.3324999999999999,0.238267431527728,0.3324964934171536,47661798.28399789,True
A3_LLM_POLICY,2024-01-23,2024-01-24,266420,ETF_008,KODEX 헬스케어,13115.0,12851.0,0.0,6900.0,6900.0,BUY,0.0,90493500.0,90493500.0,90493500.0,634696951.0,13574.025,95204.54265,952711205.826648,952616001.283998,947161448.3466268,-0.0072783144078621,0.95,0.05,0.1,0.095,0.0,0.0949947301725217,47661798.28399789,True
A3_LLM_POLICY,2024-01-23,2024-01-24,315270,ETF_009,TIGER 200 커뮤니케이션서비스,17084.0,17213.0,13214.0,0.0,-13214.0,SELL,225747976.0,0.0,-225747976.0,225747976.0,634696951.0,33862.19639999999,95204.54265,952711205.826648,952616001.283998,947161448.3466268,-0.0072783144078621,0.95,0.05,0.0,0.0,0.2369532074561074,0.0,47661798.28399789,True
A3_LLM_POLICY,2024-01-24,2024-01-25,117460,ETF_001,KODEX 에너지화학,13549.0,13553.0,0.0,0.0,0.0,HOLD,0.0,0.0,0.0,0.0,628433300.0,0.0,94264.995,948487504.3466268,948393239.3516268,947160525.9780596,-9.738240178691626e-07,0.95,0.05,0.0,0.0,0.0,0.0,47459466.351626754,True
A3_LLM_POLICY,2024-01-24,2024-01-25,117680,ETF_002,KODEX 철강,8003.0,8050.0,16852.0,0.0,-16852.0,SELL,134866556.0,0.0,-134866556.0,134866556.0,628433300.0,20229.9834,94264.995,948487504.3466268,948393239.3516268,947160525.9780596,-9.738240178691626e-07,0.95,0.05,0.0,0.0,0.1421911784624974,0.0,47459466.351626754,True
A3_LLM_POLICY,2024-01-24,2024-01-25,139260,ETF_003,TIGER 200 IT,29764.0,29355.0,7565.0,7567.0,2.0,BUY,225164660.0,225224188.0,59528.0,59528.0,628433300.0,8.9292,94264.995,948487504.3466268,948393239.3516268,947160525.9780596,-9.738240178691626e-07,0.95,0.05,0.25,0.2375,0.2373933857516726,0.2374797485418343,47459466.351626754,True
A3_LLM_POLICY,2024-01-24,2024-01-25,139270,ETF_004,TIGER 200 금융,5920.0,5907.0,0.0,0.0,0.0,HOLD,0.0,0.0,0.0,0.0,628433300.0,0.0,94264.995,948487504.3466268,948393239.3516268,947160525.9780596,-9.738240178691626e-07,0.95,0.05,0.0,0.0,0.0,0.0,47459466.351626754,True
A3_LLM_POLICY,2024-01-24,2024-01-25,227550,ETF_005,TIGER 200 산업재,5781.0,5852.0,0.0,0.0,0.0,HOLD,0.0,0.0,0.0,0.0,628433300.0,0.0,94264.995,948487504.3466268,948393239.3516268,947160525.9780596,-9.738240178691626e-07,0.95,0.05,0.0,0.0,0.0,0.0,47459466.351626754,True
A3_LLM_POLICY,2024-01-24,2024-01-25,266390,ETF_006,KODEX 경기소비재,7751.0,7765.0,17579.0,29059.0,11480.0,BUY,136254829.0,225236309.0,88981480.0,88981480.0,628433300.0,13347.222,94264.995,948487504.3466268,948393239.3516268,947160525.9780596,-9.738240178691626e-07,0.95,0.05,0.25,0.2375,0.1436548487730054,0.2374925291053148,47459466.351626754,True
A3_LLM_POLICY,2024-01-24,2024-01-25,266410,ETF_007,KODEX 필수소비재,5960.0,5970.0,53020.0,37792.0,-15228.0,SELL,315999200.0,225240320.0,-90758880.0,90758880.0,628433300.0,13613.832,94264.995,948487504.3466268,948393239.3516268,947160525.9780596,-9.738240178691626e-07,0.95,0.05,0.25,0.2375,0.3331611629587873,0.2374967583636367,47459466.351626754,True
A3_LLM_POLICY,2024-01-24,2024-01-25,266420,ETF_008,KODEX 헬스케어,12831.0,12966.0,6900.0,0.0,-6900.0,SELL,88533900.0,0.0,-88533900.0,88533900.0,628433300.0,13280.085,94264.995,948487504.3466268,948393239.3516268,947160525.9780596,-9.738240178691626e-07,0.95,0.05,0.0,0.0,0.0933421891108489,0.0,47459466.351626754,True
A3_LLM_POLICY,2024-01-24,2024-01-25,315270,ETF_009,TIGER 200 커뮤니케이션서비스,17036.0,17117.0,0.0,13221.0,13221.0,BUY,0.0,225232956.0,225232956.0,225232956.0,628433300.0,33784.9434,94264.995,948487504.3466268,948393239.3516268,947160525.9780596,-9.738240178691626e-07,0.95,0.05,0.25,0.2375,0.0,0.2374889936520229,47459466.351626754,True
A3_LLM_POLICY,2024-01-25,2024-01-26,117460,ETF_001,KODEX 에너지화학,13460.0,13823.0,0.0,0.0,0.0,HOLD,0.0,0.0,0.0,0.0,6754491.0,0.0,1013.17365,943851592.9780596,943850579.8044096,950395107.8116348,0.0034150302349595,0.95,0.05,0.0,0.0,0.0,0.0,47221086.804409504,True
A3_LLM_POLICY,2024-01-25,2024-01-26,117680,ETF_002,KODEX 철강,7984.0,8148.0,0.0,0.0,0.0,HOLD,0.0,0.0,0.0,0.0,6754491.0,0.0,1013.17365,943851592.9780596,943850579.8044096,950395107.8116348,0.0034150302349595,0.95,0.05,0.0,0.0,0.0,0.0,47221086.804409504,True
A3_LLM_POLICY,2024-01-25,2024-01-26,139260,ETF_003,TIGER 200 IT,29160.0,29306.0,7567.0,7687.0,120.0,BUY,220653720.0,224152920.0,3499200.0,3499200.0,6754491.0,524.88,1013.17365,943851592.9780596,943850579.8044096,950395107.8116348,0.0034150302349595,0.95,0.05,0.25,0.2375,0.2337801002208291,0.237487717649599,47221086.804409504,True
A3_LLM_POLICY,2024-01-25,2024-01-26,139270,ETF_004,TIGER 200 금융,5979.0,5988.0,0.0,0.0,0.0,HOLD,0.0,0.0,0.0,0.0,6754491.0,0.0,1013.17365,943851592.9780596,943850579.8044096,950395107.8116348,0.0034150302349595,0.95,0.05,0.0,0.0,0.0,0.0,47221086.804409504,True
A3_LLM_POLICY,2024-01-25,2024-01-26,227550,ETF_005,TIGER 200 산업재,5833.0,5885.0,0.0,0.0,0.0,HOLD,0.0,0.0,0.0,0.0,6754491.0,0.0,1013.17365,943851592.9780596,943850579.8044096,950395107.8116348,0.0034150302349595,0.95,0.05,0.0,0.0,0.0,0.0,47221086.804409504,True
A3_LLM_POLICY,2024-01-25,2024-01-26,266390,ETF_006,KODEX 경기소비재,7717.0,7798.0,29059.0,29048.0,-11.0,SELL,224248303.0,224163416.0,-84887.0,84887.0,6754491.0,12.73305,1013.17365,943851592.9780596,943850579.8044096,950395107.8116348,0.0034150302349595,0.95,0.05,0.25,0.2375,0.2375885199202209,0.2374988380538501,47221086.804409504,True
A3_LLM_POLICY,2024-01-25,2024-01-26,266410,ETF_007,KODEX 필수소비재,5950.0,5965.0,37792.0,37674.0,-118.0,SELL,224862400.0,224160300.0,-702100.0,702100.0,6754491.0,105.315,1013.17365,943851592.9780596,943850579.8044096,950395107.8116348,0.0034150302349595,0.95,0.05,0.25,0.2375,0.2382391486891595,0.2374955366838381,47221086.804409504,True
A3_LLM_POLICY,2024-01-25,2024-01-26,266420,ETF_008,KODEX 헬스케어,12916.0,13274.0,0.0,0.0,0.0,HOLD,0.0,0.0,0.0,0.0,6754491.0,0.0,1013.17365,943851592.9780596,943850579.8044096,950395107.8116348,0.0034150302349595,0.95,0.05,0.0,0.0,0.0,0.0,47221086.804409504,True
A3_LLM_POLICY,2024-01-25,2024-01-26,315270,ETF_009,TIGER 200 커뮤니케이션서비스,17141.0,17332.0,13221.0,13077.0,-144.0,SELL,226621161.0,224152857.0,-2468304.0,2468304.0,6754491.0,370.2456,1013.17365,943851592.9780596,943850579.8044096,950395107.8116348,0.0034150302349595,0.95,0.05,0.25,0.2375,0.2401025359134695,0.2374876509017458,47221086.804409504,True
A3_LLM_POLICY,2024-01-26,2024-01-29,117460,ETF_001,KODEX 에너지화학,13798.0,13990.0,0.0,0.0,0.0,HOLD,0.0,0.0,0.0,0.0,458800125.0,0.0,68820.01874999999,955273316.8116348,955204496.792885,959926546.4000384,0.0100289221925295,0.95,0.05,0.0,0.0,0.0,0.0,47790234.79288495,True
A3_LLM_POLICY,2024-01-26,2024-01-29,117680,ETF_002,KODEX 철강,8195.0,8363.0,0.0,0.0,0.0,HOLD,0.0,0.0,0.0,0.0,458800125.0,0.0,68820.01874999999,955273316.8116348,955204496.792885,959926546.4000384,0.0100289221925295,0.95,0.05,0.0,0.0,0.0,0.0,47790234.79288495,True
A3_LLM_POLICY,2024-01-26,2024-01-29,139260,ETF_003,TIGER 200 IT,29311.0,29569.0,7687.0,7739.0,52.0,BUY,225313657.0,226837829.0,1524172.0,1524172.0,458800125.0,228.6258,68820.01874999999,955273316.8116348,955204496.792885,959926546.4000384,0.0100289221925295,0.95,0.05,0.25,0.2375,0.2358630279258897,0.2374756711904223,47790234.79288495,True
A3_LLM_POLICY,2024-01-26,2024-01-29,139270,ETF_004,TIGER 200 금융,6024.0,6065.0,0.0,37659.0,37659.0,BUY,0.0,226857816.0,226857816.0,226857816.0,458800125.0,34028.6724,68820.01874999999,955273316.8116348,955204496.792885,959926546.4000384,0.0100289221925295,0.95,0.05,0.25,0.2375,0.0,0.2374965955056523,47790234.79288495,True
A3_LLM_POLICY,2024-01-26,2024-01-29,227550,ETF_005,TIGER 200 산업재,5885.0,5828.0,0.0,0.0,0.0,HOLD,0.0,0.0,0.0,0.0,458800125.0,0.0,68820.01874999999,955273316.8116348,955204496.792885,959926546.4000384,0.0100289221925295,0.95,0.05,0.0,0.0,0.0,0.0,47790234.79288495,True
A3_LLM_POLICY,2024-01-26,2024-01-29,266390,ETF_006,KODEX 경기소비재,7846.0,7918.0,29048.0,28914.0,-134.0,SELL,227910608.0,226859244.0,-1051364.0,1051364.0,458800125.0,157.70459999999997,68820.01874999999,955273316.8116348,955204496.792885,959926546.4000384,0.0100289221925295,0.95,0.05,0.25,0.2375,0.2385815703098304,0.2374980904734888,47790234.79288495,True
A3_LLM_POLICY,2024-01-26,2024-01-29,266410,ETF_007,KODEX 필수소비재,6003.0,5979.0,37674.0,37791.0,117.0,BUY,226157022.0,226859373.0,702351.0,702351.0,458800125.0,105.35265,68820.01874999999,955273316.8116348,955204496.792885,959926546.4000384,0.0100289221925295,0.95,0.05,0.25,0.2375,0.2367458799695487,0.2374982255231043,47790234.79288495,True
A3_LLM_POLICY,2024-01-26,2024-01-29,266420,ETF_008,KODEX 헬스케어,13503.0,13299.0,0.0,0.0,0.0,HOLD,0.0,0.0,0.0,0.0,458800125.0,0.0,68820.01874999999,955273316.8116348,955204496.792885,959926546.4000384,0.0100289221925295,0.95,0.05,0.0,0.0,0.0,0.0,47790234.79288495,True
A3_LLM_POLICY,2024-01-26,2024-01-29,315270,ETF_009,TIGER 200 커뮤니케이션서비스,17486.0,17108.0,13077.0,0.0,-13077.0,SELL,228664422.0,0.0,-228664422.0,228664422.0,458800125.0,34299.66329999999,68820.01874999999,955273316.8116348,955204496.792885,959926546.4000384,0.0100289221925295,0.95,0.05,0.0,0.0,0.2393706785019402,0.0,47790234.79288495,True
A3_LLM_POLICY,2024-01-29,2024-01-30,117460,ETF_001,KODEX 에너지화학,13994.0,13911.0,0.0,0.0,0.0,HOLD,0.0,0.0,0.0,0.0,458851126.0,0.0,68827.66889999999,964954455.4000384,964885627.7311383,964359151.5783936,0.004617650376457,0.95,0.05,0.0,0.0,0.0,0.0,48264165.73113847,True
A3_LLM_POLICY,2024-01-29,2024-01-30,117680,ETF_002,KODEX 철강,8448.0,8331.0,0.0,0.0,0.0,HOLD,0.0,0.0,0.0,0.0,458851126.0,0.0,68827.66889999999,964954455.4000384,964885627.7311383,964359151.5783936,0.004617650376457,0.95,0.05,0.0,0.0,0.0,0.0,48264165.73113847,True
A3_LLM_POLICY,2024-01-29,2024-01-30,139260,ETF_003,TIGER 200 IT,29729.0,29613.0,7739.0,7708.0,-31.0,SELL,230072731.0,229151132.0,-921599.0,921599.0,458851126.0,138.23985,68827.66889999999,964954455.4000384,964885627.7311383,964359151.5783936,0.004617650376457,0.95,0.05,0.25,0.2375,0.2384285908132518,0.2374904604381277,48264165.73113847,True
A3_LLM_POLICY,2024-01-29,2024-01-30,139270,ETF_004,TIGER 200 금융,6106.0,6115.0,37659.0,37530.0,-129.0,SELL,229945854.0,229158180.0,-787674.0,787674.0,458851126.0,118.1511,68827.66889999999,964954455.4000384,964885627.7311383,964359151.5783936,0.004617650376457,0.95,0.05,0.25,0.2375,0.2382971058511481,0.2374977649308027,48264165.73113847,True
A3_LLM_POLICY,2024-01-29,2024-01-30,266390,ETF_006,KODEX 경기소비재,7946.0,7932.0,28914.0,28839.0,-75.0,SELL,229750644.0,229154694.0,-595950.0,595950.0,458851126.0,89.39249999999998,68827.66889999999,964954455.4000384,964885627.7311383,964359151.5783936,0.004617650376457,0.95,0.05,0.25,0.2375,0.2380948061478745,0.2374941520673713,48264165.73113847,True
A3_LLM_POLICY,2024-01-29,2024-01-30,266410,ETF_007,KODEX 필수소비재,6017.0,5974.0,37791.0,0.0,-37791.0,SELL,227388447.0,0.0,-227388447.0,227388447.0,458851126.0,34108.267049999995,68827.66889999999,964954455.4000384,964885627.7311383,964359151.5783936,0.004617650376457,0.95,0.05,0.0,0.0,0.2356468180726024,0.0,48264165.73113847,True
A3_LLM_POLICY,2024-01-29,2024-01-30,266420,ETF_008,KODEX 헬스케어,13423.0,13448.0,0.0,17072.0,17072.0,BUY,0.0,229157456.0,229157456.0,229157456.0,458851126.0,34373.61839999999,68827.66889999999,964954455.4000384,964885627.7311383,964359151.5783936,0.004617650376457,0.95,0.05,0.25,0.2375,0.0,0.2374970145828038,48264165.73113847,True
A3_LLM_POLICY,2024-01-29,2024-01-30,315270,ETF_009,TIGER 200 커뮤니케이션서비스,17108.0,17175.0,0.0,0.0,0.0,HOLD,0.0,0.0,0.0,0.0,458851126.0,0.0,68827.66889999999,964954455.4000384,964885627.7311383,964359151.5783936,0.004617650376457,0.95,0.05,0.0,0.0,0.0,0.0,48264165.73113847,True
A3_LLM_POLICY,2024-01-30,2024-01-31,117460,ETF_001,KODEX 에너지화학,13784.0,13798.0,0.0,0.0,0.0,HOLD,0.0,0.0,0.0,0.0,820908125.0,0.0,123136.21875,962457128.5783936,962333992.3596436,969236012.995792,0.0050571007797417,0.95,0.05,0.0,0.0,0.0,0.0,48151572.3596437,True
A3_LLM_POLICY,2024-01-30,2024-01-31,117680,ETF_002,KODEX 철강,8260.0,8246.0,0.0,33204.0,33204.0,BUY,0.0,274265040.0,274265040.0,274265040.0,820908125.0,41139.756,123136.21875,962457128.5783936,962333992.3596436,969236012.995792,0.0050571007797417,0.95,0.05,0.3,0.285,0.0,0.2849998463916897,48151572.3596437,True
A3_LLM_POLICY,2024-01-30,2024-01-31,139260,ETF_003,TIGER 200 IT,29364.0,29321.0,7708.0,6226.0,-1482.0,SELL,226337712.0,182820264.0,-43517448.0,43517448.0,820908125.0,6527.617199999999,123136.21875,962457128.5783936,962333992.3596436,969236012.995792,0.0050571007797417,0.95,0.05,0.2,0.19,0.2351665391416594,0.1899758976108955,48151572.3596437,True
A3_LLM_POLICY,2024-01-30,2024-01-31,139270,ETF_004,TIGER 200 금융,6115.0,6247.0,37530.0,59801.0,22271.0,BUY,229495950.0,365683115.0,136187165.0,136187165.0,820908125.0,20428.07475,123136.21875,962457128.5783936,962333992.3596436,969236012.995792,0.0050571007797417,0.95,0.05,0.4,0.38,0.2384479715361235,0.3799960490882637,48151572.3596437,True
A3_LLM_POLICY,2024-01-30,2024-01-31,227550,ETF_005,TIGER 200 산업재,5762.0,5762.0,0.0,0.0,0.0,HOLD,0.0,0.0,0.0,0.0,820908125.0,0.0,123136.21875,962457128.5783936,962333992.3596436,969236012.995792,0.0050571007797417,0.95,0.05,0.0,0.0,0.0,0.0,48151572.3596437,True
A3_LLM_POLICY,2024-01-30,2024-01-31,266390,ETF_006,KODEX 경기소비재,7903.0,7880.0,28839.0,11567.0,-17272.0,SELL,227914617.0,91414001.0,-136500616.0,136500616.0,820908125.0,20475.0924,123136.21875,962457128.5783936,962333992.3596436,969236012.995792,0.0050571007797417,0.95,0.05,0.1,0.095,0.2368049549766891,0.0949919692391337,48151572.3596437,True
A3_LLM_POLICY,2024-01-30,2024-01-31,266410,ETF_007,KODEX 필수소비재,5974.0,5846.0,0.0,0.0,0.0,HOLD,0.0,0.0,0.0,0.0,820908125.0,0.0,123136.21875,962457128.5783936,962333992.3596436,969236012.995792,0.0050571007797417,0.95,0.05,0.0,0.0,0.0,0.0,48151572.3596437,True
A3_LLM_POLICY,2024-01-30,2024-01-31,266420,ETF_008,KODEX 헬스케어,13498.0,13264.0,17072.0,0.0,-17072.0,SELL,230437856.0,0.0,-230437856.0,230437856.0,820908125.0,34565.6784,123136.21875,962457128.5783936,962333992.3596436,969236012.995792,0.0050571007797417,0.95,0.05,0.0,0.0,0.2394266187631343,0.0,48151572.3596437,True
A3_LLM_POLICY,2024-01-30,2024-01-31,315270,ETF_009,TIGER 200 커뮤니케이션서비스,16840.0,16821.0,0.0,0.0,0.0,HOLD,0.0,0.0,0.0,0.0,820908125.0,0.0,123136.21875,962457128.5783936,962333992.3596436,969236012.995792,0.0050571007797417,0.95,0.05,0.0,0.0,0.0,0.0,48151572.3596437,True
A3_LLM_POLICY,2024-01-31,2024-02-01,117460,ETF_001,KODEX 에너지화학,13730.0,14146.0,0.0,0.0,0.0,HOLD,0.0,0.0,0.0,0.0,644113214.0,0.0,96616.9821,966360403.995792,966263787.013692,993408703.1712708,0.0249399422342593,0.95,0.05,0.0,0.0,0.0,0.0,48353123.0136919,True
A3_LLM_POLICY,2024-01-31,2024-02-01,117680,ETF_002,KODEX 철강,8167.0,8410.0,33204.0,11239.0,-21965.0,SELL,271177068.0,91788913.0,-179388155.0,179388155.0,644113214.0,26908.223249999995,96616.9821,966360403.995792,966263787.013692,993408703.1712708,0.0249399422342593,0.95,0.05,0.1,0.095,0.2806169073967778,0.0949936386249973,48353123.0136919,True
A3_LLM_POLICY,2024-01-31,2024-02-01,139260,ETF_003,TIGER 200 IT,29194.0,29705.0,6226.0,3144.0,-3082.0,SELL,181761844.0,91785936.0,-89975908.0,89975908.0,644113214.0,13496.3862,96616.9821,966360403.995792,966263787.013692,993408703.1712708,0.0249399422342593,0.95,0.05,0.1,0.095,0.1880890848263599,0.0949905576857755,48353123.0136919,True
A3_LLM_POLICY,2024-01-31,2024-02-01,139270,ETF_004,TIGER 200 금융,6256.0,6569.0,59801.0,51355.0,-8446.0,SELL,374115056.0,321276880.0,-52838176.0,52838176.0,644113214.0,7925.7264,96616.9821,966360403.995792,966263787.013692,993408703.1712708,0.0249399422342593,0.95,0.05,0.35,0.3324999999999999,0.387138229642974,0.3324939672974079,48353123.0136919,True
A3_LLM_POLICY,2024-01-31,2024-02-01,266390,ETF_006,KODEX 경기소비재,7880.0,8075.0,11567.0,29122.0,17555.0,BUY,91147960.0,229481360.0,138333400.0,138333400.0,644113214.0,20750.01,96616.9821,966360403.995792,966263787.013692,993408703.1712708,0.0249399422342593,0.95,0.05,0.25,0.2375,0.0943208761690911,0.2374934909950715,48353123.0136919,True
A3_LLM_POLICY,2024-01-31,2024-02-01,266410,ETF_007,KODEX 필수소비재,5831.0,5879.0,0.0,0.0,0.0,HOLD,0.0,0.0,0.0,0.0,644113214.0,0.0,96616.9821,966360403.995792,966263787.013692,993408703.1712708,0.0249399422342593,0.95,0.05,0.0,0.0,0.0,0.0,48353123.0136919,True
A3_LLM_POLICY,2024-01-31,2024-02-01,266420,ETF_008,KODEX 헬스케어,13130.0,13165.0,0.0,0.0,0.0,HOLD,0.0,0.0,0.0,0.0,644113214.0,0.0,96616.9821,966360403.995792,966263787.013692,993408703.1712708,0.0249399422342593,0.95,0.05,0.0,0.0,0.0,0.0,48353123.0136919,True
A3_LLM_POLICY,2024-01-31,2024-02-01,315270,ETF_009,TIGER 200 커뮤니케이션서비스,16825.0,16921.0,0.0,10911.0,10911.0,BUY,0.0,183577575.0,183577575.0,183577575.0,644113214.0,27536.63625,96616.9821,966360403.995792,966263787.013692,993408703.1712708,0.0249399422342593,0.95,0.05,0.2,0.19,0.0,0.18998701748656,48353123.0136919,True
A3_LLM_POLICY,2024-02-01,2024-02-02,117460,ETF_001,KODEX 에너지화학,14078.0,14426.0,0.0,10153.0,10153.0,BUY,0.0,142933934.0,142933934.0,142933934.0,579773860.0,21440.0901,86966.079,1003156804.1712708,1003069838.0922709,1022880871.9854672,0.0296677175467781,0.95,0.05,0.15,0.1425,0.0,0.14249649283827,50171443.09227085,True
A3_LLM_POLICY,2024-02-01,2024-02-02,117680,ETF_002,KODEX 철강,8438.0,8583.0,11239.0,0.0,-11239.0,SELL,94834682.0,0.0,-94834682.0,94834682.0,579773860.0,14225.2023,86966.079,1003156804.1712708,1003069838.0922709,1022880871.9854672,0.0296677175467781,0.95,0.05,0.0,0.0,0.0945362495730116,0.0,50171443.09227085,True
A3_LLM_POLICY,2024-02-01,2024-02-02,139260,ETF_003,TIGER 200 IT,29715.0,30542.0,3144.0,0.0,-3144.0,SELL,93423960.0,0.0,-93423960.0,93423960.0,579773860.0,14013.594,86966.079,1003156804.1712708,1003069838.0922709,1022880871.9854672,0.0296677175467781,0.95,0.05,0.0,0.0,0.093129966931919,0.0,50171443.09227085,True
A3_LLM_POLICY,2024-02-01,2024-02-02,139270,ETF_004,TIGER 200 금융,6628.0,6905.0,51355.0,35942.0,-15413.0,SELL,340380940.0,238223576.0,-102157364.0,102157364.0,579773860.0,15323.6046,86966.079,1003156804.1712708,1003069838.0922709,1022880871.9854672,0.0296677175467781,0.95,0.05,0.25,0.2375,0.3393098053909886,0.2374945063178005,50171443.09227085,True
A3_LLM_POLICY,2024-02-01,2024-02-02,227550,ETF_005,TIGER 200 산업재,5900.0,6019.0,0.0,0.0,0.0,HOLD,0.0,0.0,0.0,0.0,579773860.0,0.0,86966.079,1003156804.1712708,1003069838.0922709,1022880871.9854672,0.0296677175467781,0.95,0.05,0.0,0.0,0.0,0.0,50171443.09227085,True
A3_LLM_POLICY,2024-02-01,2024-02-02,266390,ETF_006,KODEX 경기소비재,8075.0,8228.0,29122.0,29502.0,380.0,BUY,235160150.0,238228650.0,3068500.0,3068500.0,579773860.0,460.275,86966.079,1003156804.1712708,1003069838.0922709,1022880871.9854672,0.0296677175467781,0.95,0.05,0.25,0.2375,0.2344201315508902,0.2374995647891126,50171443.09227085,True
A3_LLM_POLICY,2024-02-01,2024-02-02,266410,ETF_007,KODEX 필수소비재,6012.0,5998.0,0.0,23775.0,23775.0,BUY,0.0,142935300.0,142935300.0,142935300.0,579773860.0,21440.295,86966.079,1003156804.1712708,1003069838.0922709,1022880871.9854672,0.0296677175467781,0.95,0.05,0.15,0.1425,0.0,0.1424978546577049,50171443.09227085,True
A3_LLM_POLICY,2024-02-01,2024-02-02,266420,ETF_008,KODEX 헬스케어,13130.0,13547.0,0.0,0.0,0.0,HOLD,0.0,0.0,0.0,0.0,579773860.0,0.0,86966.079,1003156804.1712708,1003069838.0922709,1022880871.9854672,0.0296677175467781,0.95,0.05,0.0,0.0,0.0,0.0,50171443.09227085,True
A3_LLM_POLICY,2024-02-01,2024-02-02,315270,ETF_009,TIGER 200 커뮤니케이션서비스,17505.0,17701.0,10911.0,10887.0,-24.0,SELL,190997055.0,190576935.0,-420120.0,420120.0,579773860.0,63.018,86966.079,1003156804.1712708,1003069838.0922709,1022880871.9854672,0.0296677175467781,0.95,0.05,0.2,0.19,0.1903960120748886,0.1899936851480416,50171443.09227085,True
A3_LLM_POLICY,2024-02-02,2024-02-05,117460,ETF_001,KODEX 에너지화학,14308.0,14396.0,10153.0,0.0,-10153.0,SELL,145269124.0,0.0,-145269124.0,145269124.0,970064303.0,21790.368599999994,145509.64544999998,1020235973.9854672,1020090464.3400172,1010059862.1263592,-0.0125342160658666,0.95,0.05,0.0,0.0,0.1423877688144226,0.0,51026416.3400172,True
A3_LLM_POLICY,2024-02-02,2024-02-05,117680,ETF_002,KODEX 철강,8546.0,8522.0,0.0,28349.0,28349.0,BUY,0.0,242270554.0,242270554.0,242270554.0,970064303.0,36340.5831,145509.64544999998,1020235973.9854672,1020090464.3400172,1010059862.1263592,-0.0125342160658666,0.95,0.05,0.25,0.2375,0.0,0.2374990870606219,51026416.3400172,True
A3_LLM_POLICY,2024-02-02,2024-02-05,139260,ETF_003,TIGER 200 IT,30420.0,30031.0,0.0,7964.0,7964.0,BUY,0.0,242264880.0,242264880.0,242264880.0,970064303.0,36339.732,145509.64544999998,1020235973.9854672,1020090464.3400172,1010059862.1263592,-0.0125342160658666,0.95,0.05,0.25,0.2375,0.0,0.2374935248088429,51026416.3400172,True
A3_LLM_POLICY,2024-02-02,2024-02-05,139270,ETF_004,TIGER 200 금융,6927.0,6732.0,35942.0,34974.0,-968.0,SELL,248970234.0,242264898.0,-6705336.0,6705336.0,970064303.0,1005.8004,145509.64544999998,1020235973.9854672,1020090464.3400172,1010059862.1263592,-0.0125342160658666,0.95,0.05,0.25,0.2375,0.2440320086219058,0.2374935424543368,51026416.3400172,True
A3_LLM_POLICY,2024-02-02,2024-02-05,227550,ETF_005,TIGER 200 산업재,5923.0,5952.0,0.0,0.0,0.0,HOLD,0.0,0.0,0.0,0.0,970064303.0,0.0,145509.64544999998,1020235973.9854672,1020090464.3400172,1010059862.1263592,-0.0125342160658666,0.95,0.05,0.0,0.0,0.0,0.0,51026416.3400172,True
A3_LLM_POLICY,2024-02-02,2024-02-05,266390,ETF_006,KODEX 경기소비재,8214.0,8233.0,29502.0,29494.0,-8.0,SELL,242329428.0,242263716.0,-65712.0,65712.0,970064303.0,9.856799999999998,145509.64544999998,1020235973.9854672,1020090464.3400172,1010059862.1263592,-0.0125342160658666,0.95,0.05,0.25,0.2375,0.2375229203625904,0.2374923837335749,51026416.3400172,True
A3_LLM_POLICY,2024-02-02,2024-02-05,266410,ETF_007,KODEX 필수소비재,6022.0,5955.0,23775.0,0.0,-23775.0,SELL,143173050.0,0.0,-143173050.0,143173050.0,970064303.0,21475.9575,145509.64544999998,1020235973.9854672,1020090464.3400172,1010059862.1263592,-0.0125342160658666,0.95,0.05,0.0,0.0,0.1403332696069384,0.0,51026416.3400172,True
A3_LLM_POLICY,2024-02-02,2024-02-05,266420,ETF_008,KODEX 헬스케어,13552.0,13423.0,0.0,0.0,0.0,HOLD,0.0,0.0,0.0,0.0,970064303.0,0.0,145509.64544999998,1020235973.9854672,1020090464.3400172,1010059862.1263592,-0.0125342160658666,0.95,0.05,0.0,0.0,0.0,0.0,51026416.3400172,True
A3_LLM_POLICY,2024-02-02,2024-02-05,315270,ETF_009,TIGER 200 커뮤니케이션서비스,17481.0,17371.0,10887.0,0.0,-10887.0,SELL,190315647.0,0.0,-190315647.0,190315647.0,970064303.0,28547.34705,145509.64544999998,1020235973.9854672,1020090464.3400172,1010059862.1263592,-0.0125342160658666,0.95,0.05,0.0,0.0,0.1865408119815141,0.0,51026416.3400172,True
A3_LLM_POLICY,2024-02-05,2024-02-06,117460,ETF_001,KODEX 에너지화학,14220.0,14239.0,0.0,0.0,0.0,HOLD,0.0,0.0,0.0,0.0,193036665.0,0.0,28955.49975,1007815386.1263592,1007786430.6266092,1005068414.7399144,-0.0049417342215114,0.95,0.05,0.0,0.0,0.0,0.0,50400789.626609206,True
A3_LLM_POLICY,2024-02-05,2024-02-06,117680,ETF_002,KODEX 철강,8466.0,8377.0,28349.0,22617.0,-5732.0,SELL,240002634.0,191475522.0,-48527112.0,48527112.0,193036665.0,7279.0668,28955.49975,1007815386.1263592,1007786430.6266092,1005068414.7399144,-0.0049417342215114,0.95,0.05,0.2,0.19,0.2381414664867089,0.1899961303120014,50400789.626609206,True
A3_LLM_POLICY,2024-02-05,2024-02-06,139260,ETF_003,TIGER 200 IT,30031.0,30197.0,7964.0,6376.0,-1588.0,SELL,239166884.0,191477656.0,-47689228.0,47689228.0,193036665.0,7153.3842,28955.49975,1007815386.1263592,1007786430.6266092,1005068414.7399144,-0.0049417342215114,0.95,0.05,0.2,0.19,0.2373121975437011,0.18999824782414,50400789.626609206,True
A3_LLM_POLICY,2024-02-05,2024-02-06,139270,ETF_004,TIGER 200 금융,6709.0,6632.0,34974.0,35675.0,701.0,BUY,234640566.0,239343575.0,4703009.0,4703009.0,193036665.0,705.4513499999999,28955.49975,1007815386.1263592,1007786430.6266092,1005068414.7399144,-0.0049417342215114,0.95,0.05,0.25,0.2375,0.2328209801418738,0.2374943417834906,50400789.626609206,True
A3_LLM_POLICY,2024-02-05,2024-02-06,227550,ETF_005,TIGER 200 산업재,5876.0,5885.0,0.0,0.0,0.0,HOLD,0.0,0.0,0.0,0.0,193036665.0,0.0,28955.49975,1007815386.1263592,1007786430.6266092,1005068414.7399144,-0.0049417342215114,0.95,0.05,0.0,0.0,0.0,0.0,50400789.626609206,True
A3_LLM_POLICY,2024-02-05,2024-02-06,266390,ETF_006,KODEX 경기소비재,8238.0,8262.0,29494.0,40676.0,11182.0,BUY,242971572.0,335088888.0,92117316.0,92117316.0,193036665.0,13817.5974,28955.49975,1007815386.1263592,1007786430.6266092,1005068414.7399144,-0.0049417342215114,0.95,0.05,0.35,0.3324999999999999,0.2410873810270806,0.332499900590696,50400789.626609206,True
A3_LLM_POLICY,2024-02-05,2024-02-06,266410,ETF_007,KODEX 필수소비재,5960.0,5946.0,0.0,0.0,0.0,HOLD,0.0,0.0,0.0,0.0,193036665.0,0.0,28955.49975,1007815386.1263592,1007786430.6266092,1005068414.7399144,-0.0049417342215114,0.95,0.05,0.0,0.0,0.0,0.0,50400789.626609206,True
A3_LLM_POLICY,2024-02-05,2024-02-06,266420,ETF_008,KODEX 헬스케어,13353.0,13527.0,0.0,0.0,0.0,HOLD,0.0,0.0,0.0,0.0,193036665.0,0.0,28955.49975,1007815386.1263592,1007786430.6266092,1005068414.7399144,-0.0049417342215114,0.95,0.05,0.0,0.0,0.0,0.0,50400789.626609206,True
A3_LLM_POLICY,2024-02-05,2024-02-06,315270,ETF_009,TIGER 200 커뮤니케이션서비스,17371.0,17136.0,0.0,0.0,0.0,HOLD,0.0,0.0,0.0,0.0,193036665.0,0.0,28955.49975,1007815386.1263592,1007786430.6266092,1005068414.7399144,-0.0049417342215114,0.95,0.05,0.0,0.0,0.0,0.0,50400789.626609206,True
A3_LLM_POLICY,2024-02-06,2024-02-07,117460,ETF_001,KODEX 에너지화학,14514.0,14519.0,0.0,0.0,0.0,HOLD,0.0,0.0,0.0,0.0,7521174.0,0.0,1128.1761,1010013259.7399144,1010012131.5638144,1023181822.0816896,0.018022064046717,0.95,0.05,0.0,0.0,0.0,0.0,50529051.56381428,True
A3_LLM_POLICY,2024-02-06,2024-02-07,117680,ETF_002,KODEX 철강,8466.0,8635.0,22617.0,22667.0,50.0,BUY,191475522.0,191898822.0,423300.0,423300.0,7521174.0,63.49499999999999,1128.1761,1010013259.7399144,1010012131.5638144,1023181822.0816896,0.018022064046717,0.95,0.05,0.2,0.19,0.1895772358961963,0.1899965515294164,50529051.56381428,True
A3_LLM_POLICY,2024-02-06,2024-02-07,139260,ETF_003,TIGER 200 IT,30357.0,30659.0,6376.0,6321.0,-55.0,SELL,193556232.0,191886597.0,-1669635.0,1669635.0,7521174.0,250.44525,1128.1761,1010013259.7399144,1010012131.5638144,1023181822.0816896,0.018022064046717,0.95,0.05,0.2,0.19,0.1916373177613946,0.1899844477144047,50529051.56381428,True
A3_LLM_POLICY,2024-02-06,2024-02-07,139270,ETF_004,TIGER 200 금융,6632.0,6778.0,35675.0,36169.0,494.0,BUY,236596600.0,239872808.0,3276208.0,3276208.0,7521174.0,491.4312,1128.1761,1010013259.7399144,1010012131.5638144,1023181822.0816896,0.018022064046717,0.95,0.05,0.25,0.2375,0.2342509840523532,0.2374949770440895,50529051.56381428,True
A3_LLM_POLICY,2024-02-06,2024-02-07,266390,ETF_006,KODEX 경기소비재,8309.0,8362.0,40676.0,40417.0,-259.0,SELL,337976884.0,335824853.0,-2152031.0,2152031.0,7521174.0,322.8046499999999,1128.1761,1010013259.7399144,1010012131.5638144,1023181822.0816896,0.018022064046717,0.95,0.05,0.35,0.3324999999999999,0.3346261850928883,0.3324958606982653,50529051.56381428,True
A3_LLM_POLICY,2024-02-06,2024-02-07,266410,ETF_007,KODEX 필수소비재,6012.0,5979.0,0.0,0.0,0.0,HOLD,0.0,0.0,0.0,0.0,7521174.0,0.0,1128.1761,1010013259.7399144,1010012131.5638144,1023181822.0816896,0.018022064046717,0.95,0.05,0.0,0.0,0.0,0.0,50529051.56381428,True
A3_LLM_POLICY,2024-02-06,2024-02-07,266420,ETF_008,KODEX 헬스케어,13597.0,13478.0,0.0,0.0,0.0,HOLD,0.0,0.0,0.0,0.0,7521174.0,0.0,1128.1761,1010013259.7399144,1010012131.5638144,1023181822.0816896,0.018022064046717,0.95,0.05,0.0,0.0,0.0,0.0,50529051.56381428,True
A3_LLM_POLICY,2024-02-06,2024-02-07,315270,ETF_009,TIGER 200 커뮤니케이션서비스,17442.0,17265.0,0.0,0.0,0.0,HOLD,0.0,0.0,0.0,0.0,7521174.0,0.0,1128.1761,1010013259.7399144,1010012131.5638144,1023181822.0816896,0.018022064046717,0.95,0.05,0.0,0.0,0.0,0.0,50529051.56381428,True
A3_LLM_POLICY,2024-02-07,2024-02-08,117460,ETF_001,KODEX 에너지화학,14808.0,14808.0,0.0,0.0,0.0,HOLD,0.0,0.0,0.0,0.0,97596330.0,0.0,14639.4495,1029838185.0816896,1029823545.6321896,1031881685.5132202,0.0085027540988078,0.95,0.05,0.0,0.0,0.0,0.0,51523932.63218951,True
A3_LLM_POLICY,2024-02-07,2024-02-08,117680,ETF_002,KODEX 철강,8649.0,8611.0,22667.0,16967.0,-5700.0,SELL,196046883.0,146747583.0,-49299300.0,49299300.0,97596330.0,7394.894999999999,14639.4495,1029838185.0816896,1029823545.6321896,1031881685.5132202,0.0085027540988078,0.95,0.05,0.15,0.1425,0.1903666865726571,0.1424977935515296,51523932.63218951,True
A3_LLM_POLICY,2024-02-07,2024-02-08,139260,ETF_003,TIGER 200 IT,30771.0,30795.0,6321.0,6358.0,37.0,BUY,194503491.0,195642018.0,1138527.0,1138527.0,97596330.0,170.77904999999998,14639.4495,1029838185.0816896,1029823545.6321896,1031881685.5132202,0.0085027540988078,0.95,0.05,0.1999999999999999,0.1899999999999999,0.1888680122931851,0.189976252562665,51523932.63218951,True
A3_LLM_POLICY,2024-02-07,2024-02-08,139270,ETF_004,TIGER 200 금융,6832.0,6977.0,36169.0,42959.0,6790.0,BUY,247106608.0,293495888.0,46389280.0,46389280.0,97596330.0,6958.392,14639.4495,1029838185.0816896,1029823545.6321896,1031881685.5132202,0.0085027540988078,0.95,0.05,0.3,0.285,0.2399470242797404,0.2849962881940404,51523932.63218951,True
A3_LLM_POLICY,2024-02-07,2024-02-08,227550,ETF_005,TIGER 200 산업재,6000.0,6019.0,0.0,0.0,0.0,HOLD,0.0,0.0,0.0,0.0,97596330.0,0.0,14639.4495,1029838185.0816896,1029823545.6321896,1031881685.5132202,0.0085027540988078,0.95,0.05,0.0,0.0,0.0,0.0,51523932.63218951,True
A3_LLM_POLICY,2024-02-07,2024-02-08,266390,ETF_006,KODEX 경기소비재,8453.0,8362.0,40417.0,40508.0,91.0,BUY,341644901.0,342414124.0,769223.0,769223.0,97596330.0,115.38344999999998,14639.4495,1029838185.0816896,1029823545.6321896,1031881685.5132202,0.0085027540988078,0.95,0.05,0.35,0.3324999999999999,0.3317461965861169,0.3324978589315496,51523932.63218951,True
A3_LLM_POLICY,2024-02-07,2024-02-08,266410,ETF_007,KODEX 필수소비재,6036.0,5950.0,0.0,0.0,0.0,HOLD,0.0,0.0,0.0,0.0,97596330.0,0.0,14639.4495,1029838185.0816896,1029823545.6321896,1031881685.5132202,0.0085027540988078,0.95,0.05,0.0,0.0,0.0,0.0,51523932.63218951,True
A3_LLM_POLICY,2024-02-07,2024-02-08,266420,ETF_008,KODEX 헬스케어,13468.0,13358.0,0.0,0.0,0.0,HOLD,0.0,0.0,0.0,0.0,97596330.0,0.0,14639.4495,1029838185.0816896,1029823545.6321896,1031881685.5132202,0.0085027540988078,0.95,0.05,0.0,0.0,0.0,0.0,51523932.63218951,True
A3_LLM_POLICY,2024-02-08,2024-02-13,117460,ETF_001,KODEX 에너지화학,14857.0,15033.0,0.0,0.0,0.0,HOLD,0.0,0.0,0.0,0.0,591593726.0,0.0,88739.05889999999,1034724902.5132202,1034636163.4543202,1043997066.000102,0.0117410558370905,0.95,0.05,0.0,0.0,0.0,0.0,51752292.45432019,True
A3_LLM_POLICY,2024-02-08,2024-02-13,117680,ETF_002,KODEX 철강,8677.0,8616.0,16967.0,0.0,-16967.0,SELL,147222659.0,0.0,-147222659.0,147222659.0,591593726.0,22083.39885,88739.05889999999,1034724902.5132202,1034636163.4543202,1043997066.000102,0.0117410558370905,0.95,0.05,0.0,0.0,0.1422819327556669,0.0,51752292.45432019,True
A3_LLM_POLICY,2024-02-08,2024-02-13,139260,ETF_003,TIGER 200 IT,30795.0,31360.0,6358.0,7979.0,1621.0,BUY,195794610.0,245713305.0,49918695.0,49918695.0,591593726.0,7487.804249999998,88739.05889999999,1034724902.5132202,1034636163.4543202,1043997066.000102,0.0117410558370905,0.95,0.05,0.25,0.2375,0.1892238309181878,0.2374876441392128,51752292.45432019,True
A3_LLM_POLICY,2024-02-08,2024-02-13,139270,ETF_004,TIGER 200 금융,6986.0,6964.0,42959.0,35174.0,-7785.0,SELL,300111574.0,245725564.0,-54386010.0,54386010.0,591593726.0,8157.901499999999,88739.05889999999,1034724902.5132202,1034636163.4543202,1043997066.000102,0.0117410558370905,0.95,0.05,0.25,0.2375,0.2900399645075379,0.2374994927488332,51752292.45432019,True
A3_LLM_POLICY,2024-02-08,2024-02-13,227550,ETF_005,TIGER 200 산업재,6047.0,6080.0,0.0,0.0,0.0,HOLD,0.0,0.0,0.0,0.0,591593726.0,0.0,88739.05889999999,1034724902.5132202,1034636163.4543202,1043997066.000102,0.0117410558370905,0.95,0.05,0.0,0.0,0.0,0.0,51752292.45432019,True
A3_LLM_POLICY,2024-02-08,2024-02-13,266390,ETF_006,KODEX 경기소비재,8395.0,8328.0,40508.0,29270.0,-11238.0,SELL,340064660.0,245721650.0,-94343010.0,94343010.0,591593726.0,14151.4515,88739.05889999999,1034724902.5132202,1034636163.4543202,1043997066.000102,0.0117410558370905,0.95,0.05,0.25,0.2375,0.3286522429043937,0.237495709776482,51752292.45432019,True
A3_LLM_POLICY,2024-02-08,2024-02-13,266410,ETF_007,KODEX 필수소비재,6008.0,5927.0,0.0,0.0,0.0,HOLD,0.0,0.0,0.0,0.0,591593726.0,0.0,88739.05889999999,1034724902.5132202,1034636163.4543202,1043997066.000102,0.0117410558370905,0.95,0.05,0.0,0.0,0.0,0.0,51752292.45432019,True
A3_LLM_POLICY,2024-02-08,2024-02-13,266420,ETF_008,KODEX 헬스케어,13388.0,13801.0,0.0,18354.0,18354.0,BUY,0.0,245723352.0,245723352.0,245723352.0,591593726.0,36858.5028,88739.05889999999,1034724902.5132202,1034636163.4543202,1043997066.000102,0.0117410558370905,0.95,0.05,0.25,0.2375,0.0,0.237497354799206,51752292.45432019,True
A3_LLM_POLICY,2024-02-08,2024-02-13,315270,ETF_009,TIGER 200 커뮤니케이션서비스,17452.0,17471.0,0.0,0.0,0.0,HOLD,0.0,0.0,0.0,0.0,591593726.0,0.0,88739.05889999999,1034724902.5132202,1034636163.4543202,1043997066.000102,0.0117410558370905,0.95,0.05,0.0,0.0,0.0,0.0,51752292.45432019,True
A3_LLM_POLICY,2024-02-13,2024-02-14,117460,ETF_001,KODEX 에너지화학,14636.0,14891.0,0.0,0.0,0.0,HOLD,0.0,0.0,0.0,0.0,499531336.0,0.0,74929.70039999999,1031572435.000102,1031497505.299702,1028175705.785599,-0.0151546021820921,0.95,0.05,0.0,0.0,0.0,0.0,51605628.29970205,True
A3_LLM_POLICY,2024-02-13,2024-02-14,117680,ETF_002,KODEX 철강,8508.0,8541.0,0.0,28794.0,28794.0,BUY,0.0,244979352.0,244979352.0,244979352.0,499531336.0,36746.90279999999,74929.70039999999,1031572435.000102,1031497505.299702,1028175705.785599,-0.0151546021820921,0.95,0.05,0.25,0.2375,0.0,0.2374987343559509,51605628.29970205,True
A3_LLM_POLICY,2024-02-13,2024-02-14,139260,ETF_003,TIGER 200 IT,30883.0,30922.0,7979.0,7932.0,-47.0,SELL,246415457.0,244963956.0,-1451501.0,1451501.0,499531336.0,217.72515,74929.70039999999,1031572435.000102,1031497505.299702,1028175705.785599,-0.0151546021820921,0.95,0.05,0.25,0.2375,0.2388736346953431,0.2374838084836915,51605628.29970205,True
A3_LLM_POLICY,2024-02-13,2024-02-14,139270,ETF_004,TIGER 200 금융,6941.0,6827.0,35174.0,35294.0,120.0,BUY,244142734.0,244975654.0,832920.0,832920.0,499531336.0,124.938,74929.70039999999,1031572435.000102,1031497505.299702,1028175705.785599,-0.0151546021820921,0.95,0.05,0.25,0.2375,0.2366704709398093,0.2374951492769943,51605628.29970205,True
A3_LLM_POLICY,2024-02-13,2024-02-14,227550,ETF_005,TIGER 200 산업재,5914.0,5962.0,0.0,0.0,0.0,HOLD,0.0,0.0,0.0,0.0,499531336.0,0.0,74929.70039999999,1031572435.000102,1031497505.299702,1028175705.785599,-0.0151546021820921,0.95,0.05,0.0,0.0,0.0,0.0,51605628.29970205,True
A3_LLM_POLICY,2024-02-13,2024-02-14,266390,ETF_006,KODEX 경기소비재,8233.0,8214.0,29270.0,29755.0,485.0,BUY,240979910.0,244972915.0,3993005.0,3993005.0,499531336.0,598.95075,74929.70039999999,1031572435.000102,1031497505.299702,1028175705.785599,-0.0151546021820921,0.95,0.05,0.25,0.2375,0.2336044487268372,0.237492493914295,51605628.29970205,True
A3_LLM_POLICY,2024-02-13,2024-02-14,266410,ETF_007,KODEX 필수소비재,5898.0,5879.0,0.0,0.0,0.0,HOLD,0.0,0.0,0.0,0.0,499531336.0,0.0,74929.70039999999,1031572435.000102,1031497505.299702,1028175705.785599,-0.0151546021820921,0.95,0.05,0.0,0.0,0.0,0.0,51605628.29970205,True
A3_LLM_POLICY,2024-02-13,2024-02-14,266420,ETF_008,KODEX 헬스케어,13527.0,13607.0,18354.0,0.0,-18354.0,SELL,248274558.0,0.0,-248274558.0,248274558.0,499531336.0,37241.1837,74929.70039999999,1031572435.000102,1031497505.299702,1028175705.785599,-0.0151546021820921,0.95,0.05,0.0,0.0,0.240675835817555,0.0,51605628.29970205,True
A3_LLM_POLICY,2024-02-13,2024-02-14,315270,ETF_009,TIGER 200 커뮤니케이션서비스,17352.0,17562.0,0.0,0.0,0.0,HOLD,0.0,0.0,0.0,0.0,499531336.0,0.0,74929.70039999999,1031572435.000102,1031497505.299702,1028175705.785599,-0.0151546021820921,0.95,0.05,0.0,0.0,0.0,0.0,51605628.29970205,True
A3_LLM_POLICY,2024-02-14,2024-02-15,117460,ETF_001,KODEX 에너지화학,14940.0,15156.0,0.0,9824.0,9824.0,BUY,0.0,146770560.0,146770560.0,146770560.0,489225290.0,22015.584,73383.7935,1030079450.785599,1030006066.992099,1027268105.7982984,-0.000882728489103,0.95,0.05,0.15,0.1425,0.0,0.1424948499853116,51546621.99209905,True
A3_LLM_POLICY,2024-02-14,2024-02-15,117680,ETF_002,KODEX 철강,8602.0,8555.0,28794.0,17062.0,-11732.0,SELL,247685988.0,146767324.0,-100918664.0,100918664.0,489225290.0,15137.7996,73383.7935,1030079450.785599,1030006066.992099,1027268105.7982984,-0.000882728489103,0.95,0.05,0.15,0.1425,0.2404532852403764,0.1424917082562445,51546621.99209905,True
A3_LLM_POLICY,2024-02-14,2024-02-15,139260,ETF_003,TIGER 200 IT,31082.0,30785.0,7932.0,6296.0,-1636.0,SELL,246542424.0,195692272.0,-50850152.0,50850152.0,489225290.0,7627.5228,73383.7935,1030079450.785599,1030006066.992099,1027268105.7982984,-0.000882728489103,0.95,0.05,0.1999999999999999,0.1899999999999999,0.2393431145645826,0.1899913779842824,51546621.99209905,True
A3_LLM_POLICY,2024-02-14,2024-02-15,139270,ETF_004,TIGER 200 금융,6791.0,6755.0,35294.0,28817.0,-6477.0,SELL,239681554.0,195696247.0,-43985307.0,43985307.0,489225290.0,6597.79605,73383.7935,1030079450.785599,1030006066.992099,1027268105.7982984,-0.000882728489103,0.95,0.05,0.1999999999999999,0.1899999999999999,0.2326825895004553,0.1899952371848516,51546621.99209905,True
A3_LLM_POLICY,2024-02-14,2024-02-15,266390,ETF_006,KODEX 경기소비재,8219.0,8157.0,29755.0,23810.0,-5945.0,SELL,244556345.0,195694390.0,-48861955.0,48861955.0,489225290.0,7329.29325,73383.7935,1030079450.785599,1030006066.992099,1027268105.7982984,-0.000882728489103,0.95,0.05,0.1999999999999999,0.1899999999999999,0.2374150312517029,0.1899934342828498,51546621.99209905,True
A3_LLM_POLICY,2024-02-14,2024-02-15,266410,ETF_007,KODEX 필수소비재,5912.0,5898.0,0.0,0.0,0.0,HOLD,0.0,0.0,0.0,0.0,489225290.0,0.0,73383.7935,1030079450.785599,1030006066.992099,1027268105.7982984,-0.000882728489103,0.95,0.05,0.0,0.0,0.0,0.0,51546621.99209905,True
A3_LLM_POLICY,2024-02-14,2024-02-15,266420,ETF_008,KODEX 헬스케어,13696.0,13498.0,0.0,0.0,0.0,HOLD,0.0,0.0,0.0,0.0,489225290.0,0.0,73383.7935,1030079450.785599,1030006066.992099,1027268105.7982984,-0.000882728489103,0.95,0.05,0.0,0.0,0.0,0.0,51546621.99209905,True
A3_LLM_POLICY,2024-02-14,2024-02-15,315270,ETF_009,TIGER 200 커뮤니케이션서비스,17844.0,17902.0,0.0,5483.0,5483.0,BUY,0.0,97838652.0,97838652.0,97838652.0,489225290.0,14675.7978,73383.7935,1030079450.785599,1030006066.992099,1027268105.7982984,-0.000882728489103,0.95,0.05,0.0999999999999999,0.0949999999999999,0.0,0.0949884230155223,51546621.99209905,True
A3_LLM_POLICY,2024-02-15,2024-02-16,117460,ETF_001,KODEX 에너지화학,15249.0,15425.0,9824.0,0.0,-9824.0,SELL,149806176.0,0.0,-149806176.0,149806176.0,495624252.0,22470.9264,74343.6378,1037100462.7982984,1037026119.1604984,1045590660.2113092,0.0178361951564458,0.95,0.05,0.0,0.0,0.1444471209624127,0.0,51879903.16049838,True
A3_LLM_POLICY,2024-02-15,2024-02-16,117680,ETF_002,KODEX 철강,8649.0,8794.0,17062.0,28476.0,11414.0,BUY,147569238.0,246288924.0,98719686.0,98719686.0,495624252.0,14807.9529,74343.6378,1037100462.7982984,1037026119.1604984,1045590660.2113092,0.0178361951564458,0.95,0.05,0.25,0.2375,0.1422902055234162,0.2374953913401696,51879903.16049838,True
A3_LLM_POLICY,2024-02-15,2024-02-16,139260,ETF_003,TIGER 200 IT,31131.0,31238.0,6296.0,7911.0,1615.0,BUY,196000776.0,246277341.0,50276565.0,50276565.0,495624252.0,7541.48475,74343.6378,1037100462.7982984,1037026119.1604984,1045590660.2113092,0.0178361951564458,0.95,0.05,0.25,0.2375,0.1889891896018943,0.2374842219011498,51879903.16049838,True
A3_LLM_POLICY,2024-02-15,2024-02-16,139270,ETF_004,TIGER 200 금융,6877.0,6977.0,28817.0,35814.0,6997.0,BUY,198174509.0,246292878.0,48118369.0,48118369.0,495624252.0,7217.755349999999,74343.6378,1037100462.7982984,1037026119.1604984,1045590660.2113092,0.0178361951564458,0.95,0.05,0.25,0.2375,0.1910851610896853,0.2374992041660252,51879903.16049838,True
A3_LLM_POLICY,2024-02-15,2024-02-16,227550,ETF_005,TIGER 200 산업재,6123.0,6166.0,0.0,0.0,0.0,HOLD,0.0,0.0,0.0,0.0,495624252.0,0.0,74343.6378,1037100462.7982984,1037026119.1604984,1045590660.2113092,0.0178361951564458,0.95,0.05,0.0,0.0,0.0,0.0,51879903.16049838,True
A3_LLM_POLICY,2024-02-15,2024-02-16,266390,ETF_006,KODEX 경기소비재,8223.0,8223.0,23810.0,29951.0,6141.0,BUY,195789630.0,246287073.0,50497443.0,50497443.0,495624252.0,7574.616449999999,74343.6378,1037100462.7982984,1037026119.1604984,1045590660.2113092,0.0178361951564458,0.95,0.05,0.25,0.2375,0.1887855969823035,0.237493606428521,51879903.16049838,True
A3_LLM_POLICY,2024-02-15,2024-02-16,266410,ETF_007,KODEX 필수소비재,5960.0,5955.0,0.0,0.0,0.0,HOLD,0.0,0.0,0.0,0.0,495624252.0,0.0,74343.6378,1037100462.7982984,1037026119.1604984,1045590660.2113092,0.0178361951564458,0.95,0.05,0.0,0.0,0.0,0.0,51879903.16049838,True
A3_LLM_POLICY,2024-02-15,2024-02-16,266420,ETF_008,KODEX 헬스케어,13572.0,13612.0,0.0,0.0,0.0,HOLD,0.0,0.0,0.0,0.0,495624252.0,0.0,74343.6378,1037100462.7982984,1037026119.1604984,1045590660.2113092,0.0178361951564458,0.95,0.05,0.0,0.0,0.0,0.0,51879903.16049838,True
A3_LLM_POLICY,2024-02-15,2024-02-16,315270,ETF_009,TIGER 200 커뮤니케이션서비스,17911.0,17907.0,5483.0,0.0,-5483.0,SELL,98206013.0,0.0,-98206013.0,98206013.0,495624252.0,14730.90195,74343.6378,1037100462.7982984,1037026119.1604984,1045590660.2113092,0.0178361951564458,0.95,0.05,0.0,0.0,0.0946928639246974,0.0,51879903.16049838,True
A3_LLM_POLICY,2024-02-16,2024-02-19,117460,ETF_001,KODEX 에너지화학,15425.0,15533.0,0.0,0.0,0.0,HOLD,0.0,0.0,0.0,0.0,398991560.0,0.0,59848.734,1048426401.2113092,1048366552.4773092,1063128022.1074376,0.0167726841521174,0.95,0.05,0.0,0.0,0.0,0.0,52450466.47730935,True
A3_LLM_POLICY,2024-02-16,2024-02-19,117680,ETF_002,KODEX 철강,8794.0,8915.0,28476.0,16987.0,-11489.0,SELL,250417944.0,149383678.0,-101034266.0,101034266.0,398991560.0,15155.1399,59848.734,1048426401.2113092,1048366552.4773092,1063128022.1074376,0.0167726841521174,0.95,0.05,0.15,0.1425,0.238851238113307,0.1424918389918141,52450466.47730935,True
A3_LLM_POLICY,2024-02-16,2024-02-19,139260,ETF_003,TIGER 200 IT,31233.0,31720.0,7911.0,4783.0,-3128.0,SELL,247084263.0,149387439.0,-97696824.0,97696824.0,398991560.0,14654.5236,59848.734,1048426401.2113092,1048366552.4773092,1063128022.1074376,0.0167726841521174,0.95,0.05,0.15,0.1425,0.2356715385214726,0.1424954264774994,52450466.47730935,True
A3_LLM_POLICY,2024-02-16,2024-02-19,139270,ETF_004,TIGER 200 금융,6977.0,7154.0,35814.0,35686.0,-128.0,SELL,249874278.0,248981222.0,-893056.0,893056.0,398991560.0,133.95839999999998,59848.734,1048426401.2113092,1048366552.4773092,1063128022.1074376,0.0167726841521174,0.95,0.05,0.25,0.2375,0.2383326838310304,0.2374944349489716,52450466.47730935,True
A3_LLM_POLICY,2024-02-16,2024-02-19,227550,ETF_005,TIGER 200 산업재,6209.0,6185.0,0.0,0.0,0.0,HOLD,0.0,0.0,0.0,0.0,398991560.0,0.0,59848.734,1048426401.2113092,1048366552.4773092,1063128022.1074376,0.0167726841521174,0.95,0.05,0.0,0.0,0.0,0.0,52450466.47730935,True
A3_LLM_POLICY,2024-02-16,2024-02-19,266390,ETF_006,KODEX 경기소비재,8319.0,8362.0,29951.0,29929.0,-22.0,SELL,249162369.0,248979351.0,-183018.0,183018.0,398991560.0,27.4527,59848.734,1048426401.2113092,1048366552.4773092,1063128022.1074376,0.0167726841521174,0.95,0.05,0.25,0.2375,0.2376536576264465,0.237492650267845,52450466.47730935,True
A3_LLM_POLICY,2024-02-16,2024-02-19,266410,ETF_007,KODEX 필수소비재,5974.0,6008.0,0.0,0.0,0.0,HOLD,0.0,0.0,0.0,0.0,398991560.0,0.0,59848.734,1048426401.2113092,1048366552.4773092,1063128022.1074376,0.0167726841521174,0.95,0.05,0.0,0.0,0.0,0.0,52450466.47730935,True
A3_LLM_POLICY,2024-02-16,2024-02-19,266420,ETF_008,KODEX 헬스케어,13612.0,13801.0,0.0,14633.0,14633.0,BUY,0.0,199184396.0,199184396.0,199184396.0,398991560.0,29877.6594,59848.734,1048426401.2113092,1048366552.4773092,1063128022.1074376,0.0167726841521174,0.95,0.05,0.2,0.19,0.0,0.1899949931913829,52450466.47730935,True
A3_LLM_POLICY,2024-02-16,2024-02-19,315270,ETF_009,TIGER 200 커뮤니케이션서비스,17988.0,18036.0,0.0,0.0,0.0,HOLD,0.0,0.0,0.0,0.0,398991560.0,0.0,59848.734,1048426401.2113092,1048366552.4773092,1063128022.1074376,0.0167726841521174,0.95,0.05,0.0,0.0,0.0,0.0,52450466.47730935,True
A3_LLM_POLICY,2024-02-19,2024-02-20,117460,ETF_001,KODEX 에너지화학,15533.0,15504.0,0.0,0.0,0.0,HOLD,0.0,0.0,0.0,0.0,1008628449.0,0.0,151294.26734999998,1065243815.1074376,1065092520.8400877,1045788857.3565316,-0.0163095736264524,0.95,0.05,0.0,0.0,0.0,0.0,53259224.84008765,True
A3_LLM_POLICY,2024-02-19,2024-02-20,117680,ETF_002,KODEX 철강,8906.0,8892.0,16987.0,0.0,-16987.0,SELL,151286222.0,0.0,-151286222.0,151286222.0,1008628449.0,22692.9333,151294.26734999998,1065243815.1074376,1065092520.8400877,1045788857.3565316,-0.0163095736264524,0.95,0.05,0.0,0.0,0.1420202772871689,0.0,53259224.84008765,True
A3_LLM_POLICY,2024-02-19,2024-02-20,139260,ETF_003,TIGER 200 IT,31686.0,31394.0,4783.0,0.0,-4783.0,SELL,151554138.0,0.0,-151554138.0,151554138.0,1008628449.0,22733.1207,151294.26734999998,1065243815.1074376,1065092520.8400877,1045788857.3565316,-0.0163095736264524,0.95,0.05,0.0,0.0,0.1422717840278797,0.0,53259224.84008765,True
A3_LLM_POLICY,2024-02-19,2024-02-20,139270,ETF_004,TIGER 200 금융,7254.0,6973.0,35686.0,48820.0,13134.0,BUY,258866244.0,354140280.0,95274036.0,95274036.0,1008628449.0,14291.1054,151294.26734999998,1065243815.1074376,1065092520.8400877,1045788857.3565316,-0.0163095736264524,0.95,0.05,0.35,0.3324999999999999,0.2430112621436731,0.332497199135971,53259224.84008765,True
A3_LLM_POLICY,2024-02-19,2024-02-20,227550,ETF_005,TIGER 200 산업재,6175.0,6237.0,0.0,0.0,0.0,HOLD,0.0,0.0,0.0,0.0,1008628449.0,0.0,151294.26734999998,1065243815.1074376,1065092520.8400877,1045788857.3565316,-0.0163095736264524,0.95,0.05,0.0,0.0,0.0,0.0,53259224.84008765,True
A3_LLM_POLICY,2024-02-19,2024-02-20,266390,ETF_006,KODEX 경기소비재,8324.0,8266.0,29929.0,30389.0,460.0,BUY,249128996.0,252958036.0,3829040.0,3829040.0,1008628449.0,574.3559999999999,151294.26734999998,1065243815.1074376,1065092520.8400877,1045788857.3565316,-0.0163095736264524,0.95,0.05,0.25,0.2375,0.233870398932918,0.2374986501646639,53259224.84008765,True
A3_LLM_POLICY,2024-02-19,2024-02-20,266410,ETF_007,KODEX 필수소비재,6022.0,5989.0,0.0,0.0,0.0,HOLD,0.0,0.0,0.0,0.0,1008628449.0,0.0,151294.26734999998,1065243815.1074376,1065092520.8400877,1045788857.3565316,-0.0163095736264524,0.95,0.05,0.0,0.0,0.0,0.0,53259224.84008765,True
A3_LLM_POLICY,2024-02-19,2024-02-20,266420,ETF_008,KODEX 헬스케어,13801.0,13831.0,14633.0,0.0,-14633.0,SELL,201950033.0,0.0,-201950033.0,201950033.0,1008628449.0,30292.50495,151294.26734999998,1065243815.1074376,1065092520.8400877,1045788857.3565316,-0.0163095736264524,0.95,0.05,0.0,0.0,0.1895810425143204,0.0,53259224.84008765,True
A3_LLM_POLICY,2024-02-19,2024-02-20,315270,ETF_009,TIGER 200 커뮤니케이션서비스,18174.0,18002.0,0.0,22270.0,22270.0,BUY,0.0,404734980.0,404734980.0,404734980.0,1008628449.0,60710.247,151294.26734999998,1065243815.1074376,1065092520.8400877,1045788857.3565316,-0.0163095736264524,0.95,0.05,0.4,0.38,0.0,0.379999832954199,53259224.84008765,True
A3_LLM_POLICY,2024-02-20,2024-02-21,117460,ETF_001,KODEX 에너지화학,15278.0,15489.0,0.0,16257.0,16257.0,BUY,0.0,248374446.0,248374446.0,248374446.0,992677338.0,37256.1669,148901.60069999998,1045942624.3565316,1045793722.7558316,1050057340.5859486,0.0040815918044934,0.95,0.05,0.25,0.2375,0.0,0.2374985052936578,52303839.7558316,True
A3_LLM_POLICY,2024-02-20,2024-02-21,117680,ETF_002,KODEX 철강,8892.0,8948.0,0.0,27932.0,27932.0,BUY,0.0,248371344.0,248371344.0,248371344.0,992677338.0,37255.70159999999,148901.60069999998,1045942624.3565316,1045793722.7558316,1050057340.5859486,0.0040815918044934,0.95,0.05,0.25,0.2375,0.0,0.2374955391255383,52303839.7558316,True
A3_LLM_POLICY,2024-02-20,2024-02-21,139260,ETF_003,TIGER 200 IT,31477.0,31442.0,0.0,0.0,0.0,HOLD,0.0,0.0,0.0,0.0,992677338.0,0.0,148901.60069999998,1045942624.3565316,1045793722.7558316,1050057340.5859486,0.0040815918044934,0.95,0.05,0.0,0.0,0.0,0.0,52303839.7558316,True
A3_LLM_POLICY,2024-02-20,2024-02-21,139270,ETF_004,TIGER 200 금융,6995.0,6954.0,48820.0,35507.0,-13313.0,SELL,341495900.0,248371465.0,-93124435.0,93124435.0,992677338.0,13968.665249999998,148901.60069999998,1045942624.3565316,1045793722.7558316,1050057340.5859486,0.0040815918044934,0.95,0.05,0.25,0.2375,0.3264958249598917,0.2374956548271316,52303839.7558316,True
A3_LLM_POLICY,2024-02-20,2024-02-21,227550,ETF_005,TIGER 200 산업재,6242.0,6275.0,0.0,0.0,0.0,HOLD,0.0,0.0,0.0,0.0,992677338.0,0.0,148901.60069999998,1045942624.3565316,1045793722.7558316,1050057340.5859486,0.0040815918044934,0.95,0.05,0.0,0.0,0.0,0.0,52303839.7558316,True
A3_LLM_POLICY,2024-02-20,2024-02-21,266390,ETF_006,KODEX 경기소비재,8309.0,8333.0,30389.0,29892.0,-497.0,SELL,252502201.0,248372628.0,-4129573.0,4129573.0,992677338.0,619.4359499999998,148901.60069999998,1045942624.3565316,1045793722.7558316,1050057340.5859486,0.0040815918044934,0.95,0.05,0.25,0.2375,0.2414111396935758,0.2374967669011236,52303839.7558316,True
A3_LLM_POLICY,2024-02-20,2024-02-21,266410,ETF_007,KODEX 필수소비재,6008.0,5974.0,0.0,0.0,0.0,HOLD,0.0,0.0,0.0,0.0,992677338.0,0.0,148901.60069999998,1045942624.3565316,1045793722.7558316,1050057340.5859486,0.0040815918044934,0.95,0.05,0.0,0.0,0.0,0.0,52303839.7558316,True
A3_LLM_POLICY,2024-02-20,2024-02-21,266420,ETF_008,KODEX 헬스케어,13861.0,13821.0,0.0,0.0,0.0,HOLD,0.0,0.0,0.0,0.0,992677338.0,0.0,148901.60069999998,1045942624.3565316,1045793722.7558316,1050057340.5859486,0.0040815918044934,0.95,0.05,0.0,0.0,0.0,0.0,52303839.7558316,True
A3_LLM_POLICY,2024-02-20,2024-02-21,315270,ETF_009,TIGER 200 커뮤니케이션서비스,17902.0,17816.0,22270.0,0.0,-22270.0,SELL,398677540.0,0.0,-398677540.0,398677540.0,992677338.0,59801.631,148901.60069999998,1045942624.3565316,1045793722.7558316,1050057340.5859486,0.0040815918044934,0.95,0.05,0.0,0.0,0.3811657835870951,0.0,52303839.7558316,True
A3_LLM_POLICY,2024-02-21,2024-02-22,117460,ETF_001,KODEX 에너지화학,15401.0,15210.0,16257.0,6474.0,-9783.0,SELL,250374057.0,99706074.0,-150667983.0,150667983.0,400246987.0,22600.19745,60037.04805,1049647426.5859486,1049587389.5378984,1043693683.901985,-0.006060294460122,0.95,0.05,0.1,0.095,0.2385315779931544,0.094995495366896,52503041.53789854,True
A3_LLM_POLICY,2024-02-21,2024-02-22,117680,ETF_002,KODEX 철강,8967.0,8883.0,27932.0,27799.0,-133.0,SELL,250466244.0,249273633.0,-1192611.0,1192611.0,400246987.0,178.89164999999997,60037.04805,1049647426.5859486,1049587389.5378984,1043693683.901985,-0.006060294460122,0.95,0.05,0.25,0.2375,0.2386194046268078,0.2374967872944315,52503041.53789854,True
A3_LLM_POLICY,2024-02-21,2024-02-22,139260,ETF_003,TIGER 200 IT,31817.0,32002.0,0.0,0.0,0.0,HOLD,0.0,0.0,0.0,0.0,400246987.0,0.0,60037.04805,1049647426.5859486,1049587389.5378984,1043693683.901985,-0.006060294460122,0.95,0.05,0.0,0.0,0.0,0.0,52503041.53789854,True
A3_LLM_POLICY,2024-02-21,2024-02-22,139270,ETF_004,TIGER 200 금융,7004.0,6950.0,35507.0,49826.0,14319.0,BUY,248691028.0,348981304.0,100290276.0,100290276.0,400246987.0,15043.5414,60037.04805,1049647426.5859486,1049587389.5378984,1043693683.901985,-0.006060294460122,0.95,0.05,0.35,0.3324999999999999,0.2369281548270783,0.3324938042116206,52503041.53789854,True
A3_LLM_POLICY,2024-02-21,2024-02-22,227550,ETF_005,TIGER 200 산업재,6323.0,6323.0,0.0,15769.0,15769.0,BUY,0.0,99707387.0,99707387.0,99707387.0,400246987.0,14956.10805,60037.04805,1049647426.5859486,1049587389.5378984,1043693683.901985,-0.006060294460122,0.95,0.05,0.1,0.095,0.0,0.0949967463346698,52503041.53789854,True
A3_LLM_POLICY,2024-02-21,2024-02-22,266390,ETF_006,KODEX 경기소비재,8290.0,8305.0,29892.0,24055.0,-5837.0,SELL,247804680.0,199415950.0,-48388730.0,48388730.0,400246987.0,7258.3095,60037.04805,1049647426.5859486,1049587389.5378984,1043693683.901985,-0.006060294460122,0.95,0.05,0.2,0.19,0.23608373033029,0.1899946131096304,52503041.53789854,True
A3_LLM_POLICY,2024-02-21,2024-02-22,266410,ETF_007,KODEX 필수소비재,6041.0,5955.0,0.0,0.0,0.0,HOLD,0.0,0.0,0.0,0.0,400246987.0,0.0,60037.04805,1049647426.5859486,1049587389.5378984,1043693683.901985,-0.006060294460122,0.95,0.05,0.0,0.0,0.0,0.0,52503041.53789854,True
A3_LLM_POLICY,2024-02-21,2024-02-22,266420,ETF_008,KODEX 헬스케어,13811.0,13796.0,0.0,0.0,0.0,HOLD,0.0,0.0,0.0,0.0,400246987.0,0.0,60037.04805,1049647426.5859486,1049587389.5378984,1043693683.901985,-0.006060294460122,0.95,0.05,0.0,0.0,0.0,0.0,52503041.53789854,True
A3_LLM_POLICY,2024-02-21,2024-02-22,315270,ETF_009,TIGER 200 커뮤니케이션서비스,18050.0,17773.0,0.0,0.0,0.0,HOLD,0.0,0.0,0.0,0.0,400246987.0,0.0,60037.04805,1049647426.5859486,1049587389.5378984,1043693683.901985,-0.006060294460122,0.95,0.05,0.0,0.0,0.0,0.0,52503041.53789854,True
A3_LLM_POLICY,2024-02-22,2024-02-23,117460,ETF_001,KODEX 에너지화학,15102.0,15058.0,6474.0,9831.0,3357.0,BUY,97770348.0,148467762.0,50697414.0,50697414.0,396276993.0,7604.612099999999,59441.54895,1042016754.901985,1041957313.3530352,1049172994.2904062,0.0052499219578834,0.95,0.05,0.15,0.1425,0.0938279999242397,0.1424892940404903,52124424.35303509,True
A3_LLM_POLICY,2024-02-22,2024-02-23,117680,ETF_002,KODEX 철강,8887.0,8850.0,27799.0,16707.0,-11092.0,SELL,247049713.0,148475109.0,-98574604.0,98574604.0,396276993.0,14786.190599999998,59441.54895,1042016754.901985,1041957313.3530352,1049172994.2904062,0.0052499219578834,0.95,0.05,0.15,0.1425,0.2370880428148568,0.142496345193072,52124424.35303509,True
A3_LLM_POLICY,2024-02-22,2024-02-23,139260,ETF_003,TIGER 200 IT,32508.0,31988.0,0.0,0.0,0.0,HOLD,0.0,0.0,0.0,0.0,396276993.0,0.0,59441.54895,1042016754.901985,1041957313.3530352,1049172994.2904062,0.0052499219578834,0.95,0.05,0.0,0.0,0.0,0.0,52124424.35303509,True
A3_LLM_POLICY,2024-02-22,2024-02-23,139270,ETF_004,TIGER 200 금융,6959.0,7118.0,49826.0,49784.0,-42.0,SELL,346739134.0,346446856.0,-292278.0,292278.0,396276993.0,43.8417,59441.54895,1042016754.901985,1041957313.3530352,1049172994.2904062,0.0052499219578834,0.95,0.05,0.35,0.3324999999999999,0.3327577338548795,0.3324962083956477,52124424.35303509,True
A3_LLM_POLICY,2024-02-22,2024-02-23,227550,ETF_005,TIGER 200 산업재,6285.0,6261.0,15769.0,0.0,-15769.0,SELL,99108165.0,0.0,-99108165.0,99108165.0,396276993.0,14866.22475,59441.54895,1042016754.901985,1041957313.3530352,1049172994.2904062,0.0052499219578834,0.95,0.05,0.0,0.0,0.0951118727542172,0.0,52124424.35303509,True
A3_LLM_POLICY,2024-02-22,2024-02-23,266390,ETF_006,KODEX 경기소비재,8266.0,8281.0,24055.0,29937.0,5882.0,BUY,198838630.0,247459242.0,48620612.0,48620612.0,396276993.0,7293.091799999999,59441.54895,1042016754.901985,1041957313.3530352,1049172994.2904062,0.0052499219578834,0.95,0.05,0.25,0.2375,0.1908209527961988,0.2374946063804401,52124424.35303509,True
A3_LLM_POLICY,2024-02-22,2024-02-23,266410,ETF_007,KODEX 필수소비재,5993.0,5970.0,0.0,0.0,0.0,HOLD,0.0,0.0,0.0,0.0,396276993.0,0.0,59441.54895,1042016754.901985,1041957313.3530352,1049172994.2904062,0.0052499219578834,0.95,0.05,0.0,0.0,0.0,0.0,52124424.35303509,True
A3_LLM_POLICY,2024-02-22,2024-02-23,266420,ETF_008,KODEX 헬스케어,13910.0,14119.0,0.0,0.0,0.0,HOLD,0.0,0.0,0.0,0.0,396276993.0,0.0,59441.54895,1042016754.901985,1041957313.3530352,1049172994.2904062,0.0052499219578834,0.95,0.05,0.0,0.0,0.0,0.0,52124424.35303509,True
A3_LLM_POLICY,2024-02-22,2024-02-23,315270,ETF_009,TIGER 200 커뮤니케이션서비스,17720.0,17701.0,0.0,5586.0,5586.0,BUY,0.0,98983920.0,98983920.0,98983920.0,396276993.0,14847.588,59441.54895,1042016754.901985,1041957313.3530352,1049172994.2904062,0.0052499219578834,0.95,0.05,0.0999999999999999,0.0949999999999999,0.0,0.0949980567644063,52124424.35303509,True
A3_LLM_POLICY,2024-02-23,2024-02-26,117460,ETF_001,KODEX 에너지화학,15117.0,15014.0,9831.0,9891.0,60.0,BUY,148615227.0,149522247.0,907020.0,907020.0,203771376.0,136.053,30565.7064,1049365451.2904062,1049334885.5840062,1031921591.061998,-0.0164428586346485,0.95,0.05,0.15,0.1425,0.1416238992976637,0.1424924007141757,52517061.58400619,True
A3_LLM_POLICY,2024-02-23,2024-02-26,117680,ETF_002,KODEX 철강,8883.0,8798.0,16707.0,16833.0,126.0,BUY,148408281.0,149527539.0,1119258.0,1119258.0,203771376.0,167.8887,30565.7064,1049365451.2904062,1049334885.5840062,1031921591.061998,-0.0164428586346485,0.95,0.05,0.15,0.1425,0.1414266886883898,0.1424974439087485,52517061.58400619,True
A3_LLM_POLICY,2024-02-23,2024-02-26,139260,ETF_003,TIGER 200 IT,31973.0,31803.0,0.0,1558.0,1558.0,BUY,0.0,49813934.0,49813934.0,49813934.0,203771376.0,7472.090099999999,30565.7064,1049365451.2904062,1049334885.5840062,1031921591.061998,-0.0164428586346485,0.95,0.05,0.05,0.0475,0.0,0.0474719126223237,52517061.58400619,True
A3_LLM_POLICY,2024-02-23,2024-02-26,139270,ETF_004,TIGER 200 금융,7036.0,6882.0,49784.0,49588.0,-196.0,SELL,350280224.0,348901168.0,-1379056.0,1379056.0,203771376.0,206.8584,30565.7064,1049365451.2904062,1049334885.5840062,1031921591.061998,-0.0164428586346485,0.95,0.05,0.35,0.3324999999999999,0.3338019405625179,0.3324974446130412,52517061.58400619,True
A3_LLM_POLICY,2024-02-23,2024-02-26,227550,ETF_005,TIGER 200 산업재,6266.0,6332.0,0.0,0.0,0.0,HOLD,0.0,0.0,0.0,0.0,203771376.0,0.0,30565.7064,1049365451.2904062,1049334885.5840062,1031921591.061998,-0.0164428586346485,0.95,0.05,0.0,0.0,0.0,0.0,52517061.58400619,True
A3_LLM_POLICY,2024-02-23,2024-02-26,266390,ETF_006,KODEX 경기소비재,8386.0,8180.0,29937.0,29718.0,-219.0,SELL,251051682.0,249215148.0,-1836534.0,1836534.0,203771376.0,275.4801,30565.7064,1049365451.2904062,1049334885.5840062,1031921591.061998,-0.0164428586346485,0.95,0.05,0.25,0.2375,0.2392414212715707,0.23749820140717,52517061.58400619,True
A3_LLM_POLICY,2024-02-23,2024-02-26,266410,ETF_007,KODEX 필수소비재,5993.0,5879.0,0.0,8316.0,8316.0,BUY,0.0,49837788.0,49837788.0,49837788.0,203771376.0,7475.668199999999,30565.7064,1049365451.2904062,1049334885.5840062,1031921591.061998,-0.0164428586346485,0.95,0.05,0.05,0.0475,0.0,0.0474946451172857,52517061.58400619,True
A3_LLM_POLICY,2024-02-23,2024-02-26,266420,ETF_008,KODEX 헬스케어,14288.0,14348.0,0.0,0.0,0.0,HOLD,0.0,0.0,0.0,0.0,203771376.0,0.0,30565.7064,1049365451.2904062,1049334885.5840062,1031921591.061998,-0.0164428586346485,0.95,0.05,0.0,0.0,0.0,0.0,52517061.58400619,True
A3_LLM_POLICY,2024-02-23,2024-02-26,315270,ETF_009,TIGER 200 커뮤니케이션서비스,17701.0,17629.0,5586.0,0.0,-5586.0,SELL,98877786.0,0.0,-98877786.0,98877786.0,203771376.0,14831.6679,30565.7064,1049365451.2904062,1049334885.5840062,1031921591.061998,-0.0164428586346485,0.95,0.05,0.0,0.0,0.0942262639563841,0.0,52517061.58400619,True
A3_LLM_POLICY,2024-02-26,2024-02-27,117460,ETF_001,KODEX 에너지화학,14994.0,14847.0,9891.0,0.0,-9891.0,SELL,148305654.0,0.0,-148305654.0,148305654.0,783803861.0,22245.8481,117570.57915,1032633359.061998,1032515788.4828482,1023526834.0621644,-0.0081350725409226,0.95,0.05,0.0,0.0,0.1436188872832026,0.0,51651701.48284817,True
A3_LLM_POLICY,2024-02-26,2024-02-27,117680,ETF_002,KODEX 철강,8840.0,8705.0,16833.0,0.0,-16833.0,SELL,148803720.0,0.0,-148803720.0,148803720.0,783803861.0,22320.558,117570.57915,1032633359.061998,1032515788.4828482,1023526834.0621644,-0.0081350725409226,0.95,0.05,0.0,0.0,0.1441012133630538,0.0,51651701.48284817,True
A3_LLM_POLICY,2024-02-26,2024-02-27,139260,ETF_003,TIGER 200 IT,31788.0,31141.0,1558.0,7714.0,6156.0,BUY,49525704.0,245212632.0,195686928.0,195686928.0,783803861.0,29353.0392,117570.57915,1032633359.061998,1032515788.4828482,1023526834.0621644,-0.0081350725409226,0.95,0.05,0.25,0.2375,0.0479605888821828,0.2374904429890695,51651701.48284817,True
A3_LLM_POLICY,2024-02-26,2024-02-27,139270,ETF_004,TIGER 200 금융,6909.0,6914.0,49588.0,49690.0,102.0,BUY,342603492.0,343308210.0,704718.0,704718.0,783803861.0,105.7077,117570.57915,1032633359.061998,1032515788.4828482,1023526834.0621644,-0.0081350725409226,0.95,0.05,0.35,0.3324999999999999,0.331776510020175,0.3324968139271247,51651701.48284817,True
A3_LLM_POLICY,2024-02-26,2024-02-27,227550,ETF_005,TIGER 200 산업재,6356.0,6266.0,0.0,0.0,0.0,HOLD,0.0,0.0,0.0,0.0,783803861.0,0.0,117570.57915,1032633359.061998,1032515788.4828482,1023526834.0621644,-0.0081350725409226,0.95,0.05,0.0,0.0,0.0,0.0,51651701.48284817,True
A3_LLM_POLICY,2024-02-26,2024-02-27,266390,ETF_006,KODEX 경기소비재,8128.0,8066.0,29718.0,18102.0,-11616.0,SELL,241547904.0,147133056.0,-94414848.0,94414848.0,783803861.0,14162.2272,117570.57915,1032633359.061998,1032515788.4828482,1023526834.0621644,-0.0081350725409226,0.95,0.05,0.15,0.1425,0.2339144885067554,0.1424995701191102,51651701.48284817,True
A3_LLM_POLICY,2024-02-26,2024-02-27,266410,ETF_007,KODEX 필수소비재,5931.0,5836.0,8316.0,24807.0,16491.0,BUY,49322196.0,147130317.0,97808121.0,97808121.0,783803861.0,14671.218149999995,117570.57915,1032633359.061998,1032515788.4828482,1023526834.0621644,-0.0081350725409226,0.95,0.05,0.15,0.1425,0.0477635121576958,0.142496917375171,51651701.48284817,True
A3_LLM_POLICY,2024-02-26,2024-02-27,266420,ETF_008,KODEX 헬스케어,14432.0,14318.0,0.0,6796.0,6796.0,BUY,0.0,98079872.0,98079872.0,98079872.0,783803861.0,14711.980799999998,117570.57915,1032633359.061998,1032515788.4828482,1023526834.0621644,-0.0081350725409226,0.95,0.05,0.1,0.095,0.0,0.0949911595483842,51651701.48284817,True
A3_LLM_POLICY,2024-02-27,2024-02-28,117460,ETF_001,KODEX 에너지화학,14911.0,15019.0,0.0,9804.0,9804.0,BUY,0.0,146187444.0,146187444.0,146187444.0,591366209.0,21928.1166,88704.93135,1026024334.0621644,1025935629.1308146,1033297388.6425712,0.0095459681712783,0.95,0.05,0.15,0.1425,0.0,0.1424918287747271,51329474.13081455,True
A3_LLM_POLICY,2024-02-27,2024-02-28,117680,ETF_002,KODEX 철강,8667.0,8780.0,0.0,11245.0,11245.0,BUY,0.0,97460415.0,97460415.0,97460415.0,591366209.0,14619.06225,88704.93135,1026024334.0621644,1025935629.1308146,1033297388.6425712,0.0095459681712783,0.95,0.05,0.1,0.095,0.0,0.0949966179482134,51329474.13081455,True
A3_LLM_POLICY,2024-02-27,2024-02-28,139260,ETF_003,TIGER 200 IT,31141.0,31399.0,7714.0,7824.0,110.0,BUY,240221674.0,243647184.0,3425510.0,3425510.0,591366209.0,513.8265,88704.93135,1026024334.0621644,1025935629.1308146,1033297388.6425712,0.0095459681712783,0.95,0.05,0.25,0.2375,0.2341286322605341,0.237487788786925,51329474.13081455,True
A3_LLM_POLICY,2024-02-27,2024-02-28,139270,ETF_004,TIGER 200 금융,6977.0,7027.0,49690.0,48892.0,-798.0,SELL,346687130.0,341119484.0,-5567646.0,5567646.0,591366209.0,835.1469000000001,88704.93135,1026024334.0621644,1025935629.1308146,1033297388.6425712,0.0095459681712783,0.95,0.05,0.35,0.3324999999999999,0.3378936721972473,0.3324959912826116,51329474.13081455,True
A3_LLM_POLICY,2024-02-27,2024-02-28,227550,ETF_005,TIGER 200 산업재,6337.0,6361.0,0.0,0.0,0.0,HOLD,0.0,0.0,0.0,0.0,591366209.0,0.0,88704.93135,1026024334.0621644,1025935629.1308146,1033297388.6425712,0.0095459681712783,0.95,0.05,0.0,0.0,0.0,0.0,51329474.13081455,True
A3_LLM_POLICY,2024-02-27,2024-02-28,266390,ETF_006,KODEX 경기소비재,8056.0,8099.0,18102.0,12098.0,-6004.0,SELL,145829712.0,97461488.0,-48368224.0,48368224.0,591366209.0,7255.2336,88704.93135,1026024334.0621644,1025935629.1308146,1033297388.6425712,0.0095459681712783,0.95,0.05,0.1,0.095,0.1421308512466182,0.0949976638227981,51329474.13081455,True
A3_LLM_POLICY,2024-02-27,2024-02-28,266410,ETF_007,KODEX 필수소비재,5826.0,5884.0,24807.0,0.0,-24807.0,SELL,144525582.0,0.0,-144525582.0,144525582.0,591366209.0,21678.8373,88704.93135,1026024334.0621644,1025935629.1308146,1033297388.6425712,0.0095459681712783,0.95,0.05,0.0,0.0,0.1408597995213274,0.0,51329474.13081455,True
A3_LLM_POLICY,2024-02-27,2024-02-28,266420,ETF_008,KODEX 헬스케어,14288.0,14388.0,6796.0,0.0,-6796.0,SELL,97101248.0,0.0,-97101248.0,97101248.0,591366209.0,14565.187199999998,88704.93135,1026024334.0621644,1025935629.1308146,1033297388.6425712,0.0095459681712783,0.95,0.05,0.0,0.0,0.0946383480161366,0.0,51329474.13081455,True
A3_LLM_POLICY,2024-02-27,2024-02-28,315270,ETF_009,TIGER 200 커뮤니케이션서비스,17466.0,17481.0,0.0,2790.0,2790.0,BUY,0.0,48730140.0,48730140.0,48730140.0,591366209.0,7309.521000000001,88704.93135,1026024334.0621644,1025935629.1308146,1033297388.6425712,0.0095459681712783,0.95,0.05,0.05,0.0475,0.0,0.0474982431805051,51329474.13081455,True
A3_LLM_POLICY,2024-02-28,2024-02-29,117460,ETF_001,KODEX 에너지화학,14891.0,14950.0,9804.0,6566.0,-3238.0,SELL,145991364.0,97774306.0,-48217058.0,48217058.0,196009194.0,7232.5587,29401.3791,1029388475.6425712,1029359074.2634712,1033921329.5243868,0.0006038347610994,0.95,0.05,0.1,0.095,0.1418233907358136,0.0949856162388811,51531037.263471246,True
A3_LLM_POLICY,2024-02-28,2024-02-29,117680,ETF_002,KODEX 철강,8747.0,8728.0,11245.0,16769.0,5524.0,BUY,98360015.0,146678443.0,48318428.0,48318428.0,196009194.0,7247.7642,29401.3791,1029388475.6425712,1029359074.2634712,1033921329.5243868,0.0006038347610994,0.95,0.05,0.15,0.1425,0.0955518905907714,0.1424949239457102,51531037.263471246,True
A3_LLM_POLICY,2024-02-28,2024-02-29,139260,ETF_003,TIGER 200 IT,31155.0,31369.0,7824.0,7846.0,22.0,BUY,243756720.0,244442130.0,685410.0,685410.0,196009194.0,102.8115,29401.3791,1029388475.6425712,1029359074.2634712,1033921329.5243868,0.0006038347610994,0.95,0.05,0.25,0.2375,0.2367975995144502,0.2374702240565603,51531037.263471246,True
A3_LLM_POLICY,2024-02-28,2024-02-29,139270,ETF_004,TIGER 200 금융,7027.0,7081.0,48892.0,48706.0,-186.0,SELL,343564084.0,342257062.0,-1307022.0,1307022.0,196009194.0,196.0533,29401.3791,1029388475.6425712,1029359074.2634712,1033921329.5243868,0.0006038347610994,0.95,0.05,0.35,0.3324999999999999,0.3337555180861514,0.3324953075727169,51531037.263471246,True
