PJH-02/HYFE38_ML/pilot/out_20260401_zai_flash_trade_full_json/A3/trade_history.csv
strategy,decision_date,execution_date,ticker,ETF_id,name,open,close,prev_qty,target_qty,delta_qty,side,prev_value_open,target_value_open,delta_value_open,trade_turnover_value,day_turnover_value,commission_allocated,day_commission,nav_open_pre,nav_open_post,nav_close,daily_return,stock_ratio,cash_weight,target_sleeve_weight,target_portfolio_weight,prev_portfolio_weight_open,actual_portfolio_weight_open,cash_after_rebalance,rebalanced
A3,2026-03-31,2026-04-01,139270,ETF_004,TIGER 200 금융,15811.0,15865.0,0.0,1501.0,1501.0,BUY,0.0,23732311.0,23732311.0,23732311.0,94957376.0,3559.84665,14243.6064,100000000.0,99985756.3936,100297016.3936,0.002970163936,0.95,0.05,0.25,0.2375,0.0,0.2373569181851894,5028380.393600002,True
A3,2026-03-31,2026-04-01,266390,ETF_006,KODEX 경기소비재,10604.0,10668.0,0.0,2239.0,2239.0,BUY,0.0,23742356.0,23742356.0,23742356.0,94957376.0,3561.3533999999995,14243.6064,100000000.0,99985756.3936,100297016.3936,0.002970163936,0.95,0.05,0.25,0.2375,0.0,0.2374573824949303,5028380.393600002,True
A3,2026-03-31,2026-04-01,266410,ETF_007,KODEX 필수소비재,9481.0,9496.0,0.0,2504.0,2504.0,BUY,0.0,23740424.0,23740424.0,23740424.0,94957376.0,3561.0636,14243.6064,100000000.0,99985756.3936,100297016.3936,0.002970163936,0.95,0.05,0.25,0.2375,0.0,0.2374380597426735,5028380.393600002,True
A3,2026-03-31,2026-04-01,476800,ETF_010,KODEX 한국부동산리츠인프라,4811.0,4821.0,0.0,4935.0,4935.0,BUY,0.0,23742285.0,23742285.0,23742285.0,94957376.0,3561.34275,14243.6064,100000000.0,99985756.3936,100297016.3936,0.002970163936,0.95,0.05,0.25,0.2375,0.0,0.2374566723937863,5028380.393600002,True
A3,2026-04-01,2026-04-02,139260,ETF_003,TIGER 200 IT,80904.0,76098.0,0.0,295.0,295.0,BUY,0.0,23866680.0,23866680.0,23866680.0,95798965.0,3580.0019999999995,14369.844749999998,100759233.3936,100744863.54885,97703398.54885,-0.0258593718737529,0.95,0.05,0.25,0.2375,0.0,0.2369022018519815,5111439.54885,True
A3,2026-04-01,2026-04-02,139270,ETF_004,TIGER 200 금융,15993.0,15466.0,1501.0,0.0,-1501.0,SELL,24005493.0,0.0,-24005493.0,24005493.0,95798965.0,3600.82395,14369.844749999998,100759233.3936,100744863.54885,97703398.54885,-0.0258593718737529,0.95,0.05,0.0,0.0,0.2382460861549664,0.0,5111439.54885,True
A3,2026-04-01,2026-04-02,227550,ETF_005,TIGER 200 산업재,14124.0,13853.0,0.0,1694.0,1694.0,BUY,0.0,23926056.0,23926056.0,23926056.0,95798965.0,3588.9084,14369.844749999998,100759233.3936,100744863.54885,97703398.54885,-0.0258593718737529,0.95,0.05,0.25,0.2375,0.0,0.2374915718497006,5111439.54885,True
A3,2026-04-01,2026-04-02,266390,ETF_006,KODEX 경기소비재,10788.0,10285.0,2239.0,2217.0,-22.0,SELL,24154332.0,23916996.0,-237336.0,237336.0,95798965.0,35.60039999999999,14369.844749999998,100759233.3936,100744863.54885,97703398.54885,-0.0258593718737529,0.95,0.05,0.25,0.2375,0.2397232609506359,0.2374016417065564,5111439.54885,True
A3,2026-04-01,2026-04-02,266410,ETF_007,KODEX 필수소비재,9467.0,9263.0,2504.0,0.0,-2504.0,SELL,23705368.0,0.0,-23705368.0,23705368.0,95798965.0,3555.8052,14369.844749999998,100759233.3936,100744863.54885,97703398.54885,-0.0258593718737529,0.95,0.05,0.0,0.0,0.2352674509481302,0.0,5111439.54885,True
A3,2026-04-01,2026-04-02,476800,ETF_010,KODEX 한국부동산리츠인프라,4836.0,4826.0,4935.0,4947.0,12.0,BUY,23865660.0,23923692.0,58032.0,58032.0,95798965.0,8.704799999999999,14369.844749999998,100759233.3936,100744863.54885,97703398.54885,-0.0258593718737529,0.95,0.05,0.25,0.2375,0.2368582927459618,0.2374681066335424,5111439.54885,True
A3,2026-04-02,2026-04-03,139260,ETF_003,TIGER 200 IT,78364.0,78568.0,295.0,291.0,-4.0,SELL,23117380.0,22803924.0,-313456.0,313456.0,688685.0,47.0184,103.30275,99313615.54885,99313512.2461,99023855.2461,0.0135149515458234,0.95,0.05,0.242449887036087,0.2303273926842826,0.2327715074337326,0.2296155224426221,5049563.246099994,True
A3,2026-04-02,2026-04-03,227550,ETF_005,TIGER 200 산업재,14079.0,14070.0,1694.0,1698.0,4.0,BUY,23849826.0,23906142.0,56316.0,56316.0,688685.0,8.4474,103.30275,99313615.54885,99313512.2461,99023855.2461,0.0135149515458234,0.95,0.05,0.2534451398744031,0.2407728828806829,0.2401465888458047,0.2407138913863031,5049563.246099994,True
A3,2026-04-02,2026-04-03,266390,ETF_006,KODEX 경기소비재,10459.0,10320.0,2217.0,2221.0,4.0,BUY,23187603.0,23229439.0,41836.0,41836.0,688685.0,6.275399999999999,103.30275,99313615.54885,99313512.2461,99023855.2461,0.0135149515458234,0.95,0.05,0.2462616111189525,0.2339485305630049,0.2334785907436284,0.2339000854429273,5049563.246099994,True
A3,2026-04-02,2026-04-03,476800,ETF_010,KODEX 한국부동산리츠인프라,4861.0,4856.0,4947.0,5004.0,57.0,BUY,24047367.0,24324444.0,277077.0,277077.0,688685.0,41.56155,103.30275,99313615.54885,99313512.2461,99023855.2461,0.0135149515458234,0.95,0.05,0.2578433619705573,0.2449511938720294,0.2421356514623281,0.2449258258002572,5049563.246099994,True
A3,2026-04-03,2026-04-06,117460,ETF_001,KODEX 에너지화학,14982.0,15167.0,0.0,629.0,629.0,BUY,0.0,9423678.0,9423678.0,9423678.0,113093259.0,1413.5517,16963.988849999998,99309111.2461,99292147.25725,99318132.25725,0.0029717789760723,0.95,0.05,0.1,0.095,0.0,0.0949085930792166,5054954.257249996,True
A3,2026-04-03,2026-04-06,117680,ETF_002,KODEX 철강,15021.0,14788.0,0.0,627.0,627.0,BUY,0.0,9418167.0,9418167.0,9418167.0,113093259.0,1412.7250499999998,16963.988849999998,99309111.2461,99292147.25725,99318132.25725,0.0029717789760723,0.95,0.05,0.1,0.095,0.0,0.0948530902005678,5054954.257249996,True
A3,2026-04-03,2026-04-06,139260,ETF_003,TIGER 200 IT,79127.0,79766.0,291.0,119.0,-172.0,SELL,23025957.0,9416113.0,-13609844.0,13609844.0,113093259.0,2041.4766,16963.988849999998,99309111.2461,99292147.25725,99318132.25725,0.0029717789760723,0.95,0.05,0.1,0.095,0.2318614748543957,0.0948324037711095,5054954.257249996,True
A3,2026-04-03,2026-04-06,139270,ETF_004,TIGER 200 금융,15412.0,15619.0,0.0,612.0,612.0,BUY,0.0,9432144.0,9432144.0,9432144.0,113093259.0,1414.8216,16963.988849999998,99309111.2461,99292147.25725,99318132.25725,0.0029717789760723,0.95,0.05,0.1,0.095,0.0,0.0949938566195253,5054954.257249996,True
A3,2026-04-03,2026-04-06,227550,ETF_005,TIGER 200 산업재,14134.0,14163.0,1698.0,667.0,-1031.0,SELL,23999532.0,9427378.0,-14572154.0,14572154.0,113093259.0,2185.8231,16963.988849999998,99309111.2461,99292147.25725,99318132.25725,0.0029717789760723,0.95,0.05,0.1,0.095,0.2416649560031431,0.0949458568518533,5054954.257249996,True
A3,2026-04-03,2026-04-06,266390,ETF_006,KODEX 경기소비재,10315.0,10360.0,2221.0,914.0,-1307.0,SELL,22909615.0,9427910.0,-13481705.0,13481705.0,113093259.0,2022.25575,16963.988849999998,99309111.2461,99292147.25725,99318132.25725,0.0029717789760723,0.95,0.05,0.1,0.095,0.2306899609969039,0.094951214778081,5054954.257249996,True
A3,2026-04-03,2026-04-06,266410,ETF_007,KODEX 필수소비재,9149.0,9144.0,0.0,1031.0,1031.0,BUY,0.0,9432619.0,9432619.0,9432619.0,113093259.0,1414.8928499999995,16963.988849999998,99309111.2461,99292147.25725,99318132.25725,0.0029717789760723,0.95,0.05,0.1,0.095,0.0,0.0949986404822286,5054954.257249996,True
A3,2026-04-03,2026-04-06,266420,ETF_008,KODEX 헬스케어,21205.0,20940.0,0.0,444.0,444.0,BUY,0.0,9415020.0,9415020.0,9415020.0,113093259.0,1412.2529999999997,16963.988849999998,99309111.2461,99292147.25725,99318132.25725,0.0029717789760723,0.95,0.05,0.1,0.095,0.0,0.0948213958512469,5054954.257249996,True
A3,2026-04-03,2026-04-06,315270,ETF_009,TIGER 200 커뮤니케이션서비스,21013.0,20824.0,0.0,448.0,448.0,BUY,0.0,9413824.0,9413824.0,9413824.0,113093259.0,1412.0735999999995,16963.988849999998,99309111.2461,99292147.25725,99318132.25725,0.0029717789760723,0.95,0.05,0.1,0.095,0.0,0.0948093505885243,5054954.257249996,True
A3,2026-04-03,2026-04-06,476800,ETF_010,KODEX 한국부동산리츠인프라,4861.0,4861.0,5004.0,1940.0,-3064.0,SELL,24324444.0,9430340.0,-14894104.0,14894104.0,113093259.0,2234.1156,16963.988849999998,99309111.2461,99292147.25725,99318132.25725,0.0029717789760723,0.95,0.05,0.1,0.095,0.2449366799761311,0.0949756880125424,5054954.257249996,True
A3,2026-04-06,2026-04-07,117460,ETF_001,KODEX 에너지화학,15187.0,15032.0,629.0,622.0,-7.0,SELL,9552623.0,9446314.0,-106309.0,106309.0,1153680.0,15.94635,173.052,99560286.25725,99560113.20525,98920051.20525,-0.0040081407387817,0.95,0.05,0.1,0.095,0.0959481271007733,0.0948805068202943,5110959.205249995,True
A3,2026-04-06,2026-04-07,117680,ETF_002,KODEX 철강,14788.0,14644.0,627.0,639.0,12.0,BUY,9272076.0,9449532.0,177456.0,177456.0,1153680.0,26.6184,173.052,99560286.25725,99560113.20525,98920051.20525,-0.0040081407387817,0.95,0.05,0.1,0.095,0.0931302665808155,0.0949128290013003,5110959.205249995,True
A3,2026-04-06,2026-04-07,139260,ETF_003,TIGER 200 IT,81708.0,80600.0,119.0,115.0,-4.0,SELL,9723252.0,9396420.0,-326832.0,326832.0,1153680.0,49.0248,173.052,99560286.25725,99560113.20525,98920051.20525,-0.0040081407387817,0.95,0.05,0.1,0.095,0.0976619530289061,0.0943793623519555,5110959.205249995,True
A3,2026-04-06,2026-04-07,139270,ETF_004,TIGER 200 금융,15614.0,15367.0,612.0,605.0,-7.0,SELL,9555768.0,9446470.0,-109298.0,109298.0,1153680.0,16.3947,173.052,99560286.25725,99560113.20525,98920051.20525,-0.0040081407387817,0.95,0.05,0.1,0.095,0.095979716001511,0.0948820737128477,5110959.205249995,True
A3,2026-04-06,2026-04-07,227550,ETF_005,TIGER 200 산업재,14065.0,14306.0,667.0,672.0,5.0,BUY,9381355.0,9451680.0,70325.0,70325.0,1153680.0,10.54875,173.052,99560286.25725,99560113.20525,98920051.20525,-0.0040081407387817,0.95,0.05,0.1,0.095,0.0942278829508372,0.0949344039064591,5110959.205249995,True
A3,2026-04-06,2026-04-07,266390,ETF_006,KODEX 경기소비재,10415.0,10305.0,914.0,908.0,-6.0,SELL,9519310.0,9456820.0,-62490.0,62490.0,1153680.0,9.3735,173.052,99560286.25725,99560113.20525,98920051.20525,-0.0040081407387817,0.95,0.05,0.1,0.095,0.0956135258129272,0.094986031007258,5110959.205249995,True
A3,2026-04-06,2026-04-07,266410,ETF_007,KODEX 필수소비재,9124.0,8985.0,1031.0,1036.0,5.0,BUY,9406844.0,9452464.0,45620.0,45620.0,1153680.0,6.842999999999999,173.052,99560286.25725,99560113.20525,98920051.20525,-0.0040081407387817,0.95,0.05,0.1,0.095,0.0944838986872136,0.0949422785459584,5110959.205249995,True
A3,2026-04-06,2026-04-07,266420,ETF_008,KODEX 헬스케어,20845.0,20765.0,444.0,453.0,9.0,BUY,9255180.0,9442785.0,187605.0,187605.0,1153680.0,28.14075,173.052,99560286.25725,99560113.20525,98920051.20525,-0.0040081407387817,0.95,0.05,0.1,0.095,0.0929605603592369,0.0948450608983645,5110959.205249995,True
A3,2026-04-06,2026-04-07,315270,ETF_009,TIGER 200 커뮤니케이션서비스,20958.0,20854.0,448.0,451.0,3.0,BUY,9389184.0,9452058.0,62874.0,62874.0,1153680.0,9.4311,173.052,99560286.25725,99560113.20525,98920051.20525,-0.0040081407387817,0.95,0.05,0.1,0.095,0.0943065187231347,0.0949382006076463,5110959.205249995,True
A3,2026-04-06,2026-04-07,476800,ETF_010,KODEX 한국부동산리츠인프라,4871.0,4866.0,1940.0,1941.0,1.0,BUY,9449740.0,9454611.0,4871.0,4871.0,1153680.0,0.73065,173.052,99560286.25725,99560113.20525,98920051.20525,-0.0040081407387817,0.95,0.05,0.1,0.095,0.0949147532137782,0.0949638434069341,5110959.205249995,True
A3,2026-04-07,2026-04-08,117460,ETF_001,KODEX 에너지화학,15805.0,15675.0,622.0,614.0,-8.0,SELL,9830710.0,9704270.0,-126440.0,126440.0,1249149.0,18.966,187.37235,102230009.20525,102229821.8329,102843219.8329,0.0396599939026496,0.95,0.05,0.1,0.095,0.0961626637464407,0.0949260189053458,5211576.832899988,True
A3,2026-04-07,2026-04-08,117680,ETF_002,KODEX 철강,15036.0,15513.0,639.0,645.0,6.0,BUY,9608004.0,9698220.0,90216.0,90216.0,1249149.0,13.5324,187.37235,102230009.20525,102229821.8329,102843219.8329,0.0396599939026496,0.95,0.05,0.1,0.095,0.0939841840443322,0.0948668385224445,5211576.832899988,True
A3,2026-04-07,2026-04-08,139260,ETF_003,TIGER 200 IT,83365.0,88810.0,115.0,116.0,1.0,BUY,9586975.0,9670340.0,83365.0,83365.0,1249149.0,12.504749999999998,187.37235,102230009.20525,102229821.8329,102843219.8329,0.0396599939026496,0.95,0.05,0.1,0.095,0.0937784812358958,0.0945941196670251,5211576.832899988,True
A3,2026-04-07,2026-04-08,139270,ETF_004,TIGER 200 금융,16417.0,16407.0,605.0,591.0,-14.0,SELL,9932285.0,9702447.0,-229838.0,229838.0,1249149.0,34.4757,187.37235,102230009.20525,102229821.8329,102843219.8329,0.0396599939026496,0.95,0.05,0.1,0.095,0.0971562565357758,0.0949081865354236,5211576.832899988,True
A3,2026-04-07,2026-04-08,227550,ETF_005,TIGER 200 산업재,14591.0,14453.0,672.0,665.0,-7.0,SELL,9805152.0,9703015.0,-102137.0,102137.0,1249149.0,15.320549999999995,187.37235,102230009.20525,102229821.8329,102843219.8329,0.0396599939026496,0.95,0.05,0.1,0.095,0.0959126588780201,0.0949137426440993,5211576.832899988,True
A3,2026-04-07,2026-04-08,266390,ETF_006,KODEX 경기소비재,10852.0,10802.0,908.0,894.0,-14.0,SELL,9853616.0,9701688.0,-151928.0,151928.0,1249149.0,22.7892,187.37235,102230009.20525,102229821.8329,102843219.8329,0.0396599939026496,0.95,0.05,0.1,0.095,0.0963867271127465,0.0949007620873869,5211576.832899988,True
A3,2026-04-07,2026-04-08,266410,ETF_007,KODEX 필수소비재,9223.0,9134.0,1036.0,1053.0,17.0,BUY,9555028.0,9711819.0,156791.0,156791.0,1249149.0,23.51865,187.37235,102230009.20525,102229821.8329,102843219.8329,0.0396599939026496,0.95,0.05,0.1,0.095,0.0934659800413018,0.0949998623285725,5211576.832899988,True
A3,2026-04-07,2026-04-08,266420,ETF_008,KODEX 헬스케어,21530.0,21350.0,453.0,451.0,-2.0,SELL,9753090.0,9710030.0,-43060.0,43060.0,1249149.0,6.458999999999999,187.37235,102230009.20525,102229821.8329,102843219.8329,0.0396599939026496,0.95,0.05,0.1,0.095,0.0954033954982675,0.0949823625426204,5211576.832899988,True
A3,2026-04-07,2026-04-08,315270,ETF_009,TIGER 200 커뮤니케이션서비스,21574.0,21688.0,451.0,450.0,-1.0,SELL,9729874.0,9708300.0,-21574.0,21574.0,1249149.0,3.2360999999999995,187.37235,102230009.20525,102229821.8329,102843219.8329,0.0396599939026496,0.95,0.05,0.1,0.095,0.0951762997542635,0.0949654398876751,5211576.832899988,True
A3,2026-04-07,2026-04-08,476800,ETF_010,KODEX 한국부동산리츠인프라,4876.0,4886.0,1941.0,1991.0,50.0,BUY,9464316.0,9708116.0,243800.0,243800.0,1249149.0,36.56999999999999,187.37235,102230009.20525,102229821.8329,102843219.8329,0.0396599939026496,0.95,0.05,0.1,0.095,0.0925786476356295,0.0949636400214843,5211576.832899988,True
A3,2026-04-08,2026-04-09,117460,ETF_001,KODEX 에너지화학,15715.0,15860.0,614.0,623.0,9.0,BUY,9649010.0,9790445.0,141435.0,141435.0,1488426.0,21.21525,223.2639,103103480.8329,103103257.569,103050106.569,0.0020116711285016,0.95,0.05,0.1,0.095,0.093585686167455,0.0949576689509341,5291603.568999991,True
A3,2026-04-08,2026-04-09,117680,ETF_002,KODEX 철강,15523.0,15438.0,645.0,630.0,-15.0,SELL,10012335.0,9779490.0,-232845.0,232845.0,1488426.0,34.92675,223.2639,103103480.8329,103103257.569,103050106.569,0.0020116711285016,0.95,0.05,0.1,0.095,0.0971095730145814,0.094851416246041,5291603.568999991,True
A3,2026-04-08,2026-04-09,139260,ETF_003,TIGER 200 IT,88281.0,87857.0,116.0,110.0,-6.0,SELL,10240596.0,9710910.0,-529686.0,529686.0,1488426.0,79.45289999999999,223.2639,103103480.8329,103103257.569,103050106.569,0.0020116711285016,0.95,0.05,0.1,0.095,0.0993234749910815,0.0941862578250852,5291603.568999991,True
A3,2026-04-08,2026-04-09,139270,ETF_004,TIGER 200 금융,16481.0,16254.0,591.0,594.0,3.0,BUY,9740271.0,9789714.0,49443.0,49443.0,1488426.0,7.416449999999998,223.2639,103103480.8329,103103257.569,103050106.569,0.0020116711285016,0.95,0.05,0.1,0.095,0.0944708260217332,0.0949505789712649,5291603.568999991,True
A3,2026-04-08,2026-04-09,227550,ETF_005,TIGER 200 산업재,14507.0,14507.0,665.0,675.0,10.0,BUY,9647155.0,9792225.0,145070.0,145070.0,1488426.0,21.7605,223.2639,103103480.8329,103103257.569,103050106.569,0.0020116711285016,0.95,0.05,0.1,0.095,0.0935676945343403,0.094974933196914,5291603.568999991,True
A3,2026-04-08,2026-04-09,266390,ETF_006,KODEX 경기소비재,10812.0,10783.0,894.0,905.0,11.0,BUY,9665928.0,9784860.0,118932.0,118932.0,1488426.0,17.839799999999997,223.2639,103103480.8329,103103257.569,103050106.569,0.0020116711285016,0.95,0.05,0.1,0.095,0.0937497737410591,0.0949034999544186,5291603.568999991,True
A3,2026-04-08,2026-04-09,266410,ETF_007,KODEX 필수소비재,9243.0,9362.0,1053.0,1059.0,6.0,BUY,9732879.0,9788337.0,55458.0,55458.0,1488426.0,8.318699999999998,223.2639,103103480.8329,103103257.569,103050106.569,0.0020116711285016,0.95,0.05,0.1,0.095,0.0943991310610947,0.0949372234281669,5291603.568999991,True
A3,2026-04-08,2026-04-09,266420,ETF_008,KODEX 헬스케어,21385.0,21155.0,451.0,458.0,7.0,BUY,9644635.0,9794330.0,149695.0,149695.0,1488426.0,22.45425,223.2639,103103480.8329,103103257.569,103050106.569,0.0020116711285016,0.95,0.05,0.1,0.095,0.0935432530704863,0.0949953496226375,5291603.568999991,True
A3,2026-04-08,2026-04-09,315270,ETF_009,TIGER 200 커뮤니케이션서비스,21807.0,22001.0,450.0,449.0,-1.0,SELL,9813150.0,9791343.0,-21807.0,21807.0,1488426.0,3.27105,223.2639,103103480.8329,103103257.569,103050106.569,0.0020116711285016,0.95,0.05,0.1,0.095,0.0951776789757873,0.0949663786660409,5291603.568999991,True
A3,2026-04-08,2026-04-09,476800,ETF_010,KODEX 한국부동산리츠인프라,4895.0,4900.0,1991.0,2000.0,9.0,BUY,9745945.0,9790000.0,44055.0,44055.0,1488426.0,6.608249999999999,223.2639,103103480.8329,103103257.569,103050106.569,0.0020116711285016,0.95,0.05,0.1,0.095,0.0945258581113791,0.0949533528894392,5291603.568999991,True
A3,2026-04-09,2026-04-10,117460,ETF_001,KODEX 에너지화학,16010.0,15985.0,623.0,616.0,-7.0,SELL,9974230.0,9862160.0,-112070.0,112070.0,734399.0,16.8105,110.15985,103821705.569,103821595.40915,104458270.40915,0.0136648460349444,0.95,0.05,0.1,0.095,0.0960707584732473,0.0949914125393109,5311658.4091499895,True
A3,2026-04-09,2026-04-10,117680,ETF_002,KODEX 철강,15786.0,15736.0,630.0,624.0,-6.0,SELL,9945180.0,9850464.0,-94716.0,94716.0,734399.0,14.207399999999998,110.15985,103821705.569,103821595.40915,104458270.40915,0.0136648460349444,0.95,0.05,0.1,0.095,0.0957909518582357,0.0948787577495833,5311658.4091499895,True
A3,2026-04-09,2026-04-10,139260,ETF_003,TIGER 200 IT,89084.0,88910.0,110.0,110.0,0.0,HOLD,9799240.0,9799240.0,0.0,0.0,734399.0,0.0,110.15985,103821705.569,103821595.40915,104458270.40915,0.0136648460349444,0.95,0.05,0.1,0.095,0.0943852727740772,0.094385372921522,5311658.4091499895,True
A3,2026-04-09,2026-04-10,139270,ETF_004,TIGER 200 금융,16323.0,16589.0,594.0,604.0,10.0,BUY,9695862.0,9859092.0,163230.0,163230.0,734399.0,24.4845,110.15985,103821705.569,103821595.40915,104458270.40915,0.0136648460349444,0.95,0.05,0.1,0.095,0.0933895465005255,0.0949618618472039,5311658.4091499895,True
A3,2026-04-09,2026-04-10,227550,ETF_005,TIGER 200 산업재,14581.0,14797.0,675.0,676.0,1.0,BUY,9842175.0,9856756.0,14581.0,14581.0,734399.0,2.18715,110.15985,103821705.569,103821595.40915,104458270.40915,0.0136648460349444,0.95,0.05,0.1,0.095,0.0947988182823569,0.0949393617113622,5311658.4091499895,True
A3,2026-04-09,2026-04-10,266390,ETF_006,KODEX 경기소비재,10867.0,10947.0,905.0,907.0,2.0,BUY,9834635.0,9856369.0,21734.0,21734.0,734399.0,3.2601,110.15985,103821705.569,103821595.40915,104458270.40915,0.0136648460349444,0.95,0.05,0.1,0.095,0.0947261937771181,0.0949356341631727,5311658.4091499895,True
A3,2026-04-09,2026-04-10,266410,ETF_007,KODEX 필수소비재,9472.0,9591.0,1059.0,1041.0,-18.0,SELL,10030848.0,9860352.0,-170496.0,170496.0,734399.0,25.5744,110.15985,103821705.569,103821595.40915,104458270.40915,0.0136648460349444,0.95,0.05,0.1,0.095,0.0966160972315513,0.0949739980506116,5311658.4091499895,True
A3,2026-04-09,2026-04-10,266420,ETF_008,KODEX 헬스케어,21450.0,21320.0,458.0,459.0,1.0,BUY,9824100.0,9845550.0,21450.0,21450.0,734399.0,3.2175,110.15985,103821705.569,103821595.40915,104458270.40915,0.0136648460349444,0.95,0.05,0.1,0.095,0.0946247217396259,0.0948314265562932,5311658.4091499895,True
A3,2026-04-09,2026-04-10,315270,ETF_009,TIGER 200 커뮤니케이션서비스,21768.0,22140.0,449.0,453.0,4.0,BUY,9773832.0,9860904.0,87072.0,87072.0,734399.0,13.0608,110.15985,103821705.569,103821595.40915,104458270.40915,0.0136648460349444,0.95,0.05,0.1,0.095,0.0941405455288374,0.0949793148635331,5311658.4091499895,True
A3,2026-04-09,2026-04-10,476800,ETF_010,KODEX 한국부동산리츠인프라,4905.0,4950.0,2000.0,2010.0,10.0,BUY,9810000.0,9859050.0,49050.0,49050.0,734399.0,7.357499999999999,110.15985,103821705.569,103821595.40915,104458270.40915,0.0136648460349444,0.95,0.05,0.1,0.095,0.0944889119884499,0.0949614573070903,5311658.4091499895,True
A3,2026-04-10,2026-04-13,117460,ETF_001,KODEX 에너지화학,15790.0,15785.0,616.0,600.0,-16.0,SELL,9726640.0,9474000.0,-252640.0,252640.0,952506.0,37.896,142.8759,103464540.40915,103464397.53325,104131371.53325,-0.0031294685870212,0.95,0.05,0.0963963963963964,0.0915765765765765,0.0940094061360158,0.0915677298266331,5309731.533249989,True
A3,2026-04-10,2026-04-13,117680,ETF_002,KODEX 철강,15632.0,15731.0,624.0,629.0,5.0,BUY,9754368.0,9832528.0,78160.0,78160.0,952506.0,11.724,142.8759,103464540.40915,103464397.53325,104131371.53325,-0.0031294685870212,0.95,0.05,0.1001001001001001,0.0950950950950951,0.0942774013340841,0.0950329604619807,5309731.533249989,True
A3,2026-04-10,2026-04-13,139260,ETF_003,TIGER 200 IT,86843.0,89354.0,110.0,113.0,3.0,BUY,9552730.0,9813259.0,260529.0,260529.0,952506.0,39.07935,142.8759,103464540.40915,103464397.53325,104131371.53325,-0.0031294685870212,0.95,0.05,0.1007007007007007,0.0956656656656656,0.0923285404083735,0.0948467224858323,5309731.533249989,True
A3,2026-04-10,2026-04-13,139270,ETF_004,TIGER 200 금융,16338.0,16461.0,604.0,602.0,-2.0,SELL,9868152.0,9835476.0,-32676.0,32676.0,952506.0,4.9014,142.8759,103464540.40915,103464397.53325,104131371.53325,-0.0031294685870212,0.95,0.05,0.1002002002002002,0.0951901901901901,0.095377140428754,0.0950614533549012,5309731.533249989,True
A3,2026-04-10,2026-04-13,227550,ETF_005,TIGER 200 산업재,14822.0,14827.0,676.0,669.0,-7.0,SELL,10019672.0,9915918.0,-103754.0,103754.0,952506.0,15.5631,142.8759,103464540.40915,103464397.53325,104131371.53325,-0.0031294685870212,0.95,0.05,0.101001001001001,0.0959509509509509,0.0968416035134091,0.0958389381894709,5309731.533249989,True
A3,2026-04-10,2026-04-13,266390,ETF_006,KODEX 경기소비재,10773.0,10783.0,907.0,914.0,7.0,BUY,9771111.0,9846522.0,75411.0,75411.0,952506.0,11.31165,142.8759,103464540.40915,103464397.53325,104131371.53325,-0.0031294685870212,0.95,0.05,0.1002002002002002,0.0951901901901901,0.0944392248915444,0.0951682147169093,5309731.533249989,True
A3,2026-04-10,2026-04-13,266410,ETF_007,KODEX 필수소비재,9516.0,9620.0,1041.0,1041.0,0.0,HOLD,9906156.0,9906156.0,0.0,0.0,952506.0,0.0,142.8759,103464540.40915,103464397.53325,104131371.53325,-0.0031294685870212,0.95,0.05,0.1008008008008008,0.0957607607607607,0.095744454678155,0.0957445868934431,5309731.533249989,True
A3,2026-04-10,2026-04-13,266420,ETF_008,KODEX 헬스케어,21015.0,21255.0,459.0,462.0,3.0,BUY,9645885.0,9708930.0,63045.0,63045.0,952506.0,9.45675,142.8759,103464540.40915,103464397.53325,104131371.53325,-0.0031294685870212,0.95,0.05,0.0987987987987988,0.0938588588588588,0.0932288971840535,0.093838365964291,5309731.533249989,True
A3,2026-04-10,2026-04-13,315270,ETF_009,TIGER 200 커뮤니케이션서비스,22006.0,21936.0,453.0,452.0,-1.0,SELL,9968718.0,9946712.0,-22006.0,22006.0,952506.0,3.3009,142.8759,103464540.40915,103464397.53325,104131371.53325,-0.0031294685870212,0.95,0.05,0.1013013013013013,0.0962362362362362,0.0963491256093996,0.096136567139469,5309731.533249989,True
A3,2026-04-10,2026-04-13,476800,ETF_010,KODEX 한국부동산리츠인프라,4945.0,4970.0,2010.0,1997.0,-13.0,SELL,9939450.0,9875165.0,-64285.0,64285.0,952506.0,9.64275,142.8759,103464540.40915,103464397.53325,104131371.53325,-0.0031294685870212,0.95,0.05,0.1005005005005005,0.0954754754754754,0.0960662460848373,0.0954450539068422,5309731.533249989,True
A3,2026-04-13,2026-04-14,117460,ETF_001,KODEX 에너지화학,15890.0,15860.0,600.0,0.0,-600.0,SELL,9534000.0,0.0,-9534000.0,9534000.0,119413710.0,1430.1,17912.0565,105519875.53325,105501963.47675,105291823.47675,0.0111441146545299,0.95,0.05,0.0,0.0,0.0903526463788878,0.0,5302651.476749986,True
A3,2026-04-13,2026-04-14,117680,ETF_002,KODEX 철강,15969.0,15880.0,629.0,1255.0,626.0,BUY,10044501.0,20041095.0,9996594.0,9996594.0,119413710.0,1499.4890999999998,17912.0565,105519875.53325,105501963.47675,105291823.47675,0.0111441146545299,0.95,0.05,0.2,0.19,0.0951906069756016,0.1899594504173996,5302651.476749986,True
A3,2026-04-13,2026-04-14,139260,ETF_003,TIGER 200 IT,91899.0,92932.0,113.0,218.0,105.0,BUY,10384587.0,20033982.0,9649395.0,9649395.0,119413710.0,1447.4092499999997,17912.0565,105519875.53325,105501963.47675,105291823.47675,0.0111441146545299,0.95,0.05,0.2,0.19,0.0984135637719526,0.1898920298712259,5302651.476749986,True
A3,2026-04-13,2026-04-14,139270,ETF_004,TIGER 200 금융,16693.0,16905.0,602.0,0.0,-602.0,SELL,10049186.0,0.0,-10049186.0,10049186.0,119413710.0,1507.3779,17912.0565,105519875.53325,105501963.47675,105291823.47675,0.0111441146545299,0.95,0.05,0.0,0.0,0.0952350061940078,0.0,5302651.476749986,True
A3,2026-04-13,2026-04-14,227550,ETF_005,TIGER 200 산업재,14959.0,14856.0,669.0,0.0,-669.0,SELL,10007571.0,0.0,-10007571.0,10007571.0,119413710.0,1501.1356499999995,17912.0565,105519875.53325,105501963.47675,105291823.47675,0.0111441146545299,0.95,0.05,0.0,0.0,0.0948406255165317,0.0,5302651.476749986,True
A3,2026-04-13,2026-04-14,266390,ETF_006,KODEX 경기소비재,10932.0,11071.0,914.0,0.0,-914.0,SELL,9991848.0,0.0,-9991848.0,9991848.0,119413710.0,1498.7772,17912.0565,105519875.53325,105501963.47675,105291823.47675,0.0111441146545299,0.95,0.05,0.0,0.0,0.0946916204127961,0.0,5302651.476749986,True
A3,2026-04-13,2026-04-14,266410,ETF_007,KODEX 필수소비재,9725.0,9591.0,1041.0,3091.0,2050.0,BUY,10123725.0,30059975.0,19936250.0,19936250.0,119413710.0,2990.4375,17912.0565,105519875.53325,105501963.47675,105291823.47675,0.0111441146545299,0.95,0.05,0.3,0.285,0.095941403918828,0.2849233702330523,5302651.476749986,True
A3,2026-04-13,2026-04-14,266420,ETF_008,KODEX 헬스케어,21545.0,21350.0,462.0,0.0,-462.0,SELL,9953790.0,0.0,-9953790.0,9953790.0,119413710.0,1493.0685,17912.0565,105519875.53325,105501963.47675,105291823.47675,0.0111441146545299,0.95,0.05,0.0,0.0,0.0943309490245133,0.0,5302651.476749986,True
A3,2026-04-13,2026-04-14,315270,ETF_009,TIGER 200 커뮤니케이션서비스,22513.0,22374.0,452.0,0.0,-452.0,SELL,10175876.0,0.0,-10175876.0,10175876.0,119413710.0,1526.3814,17912.0565,105519875.53325,105501963.47675,105291823.47675,0.0111441146545299,0.95,0.05,0.0,0.0,0.0964356330840583,0.0,5302651.476749986,True
A3,2026-04-13,2026-04-14,476800,ETF_010,KODEX 한국부동산리츠인프라,4980.0,4995.0,1997.0,6037.0,4040.0,BUY,9945060.0,30064260.0,20119200.0,20119200.0,119413710.0,3017.88,17912.0565,105519875.53325,105501963.47675,105291823.47675,0.0111441146545299,0.95,0.05,0.3,0.285,0.0942482157957649,0.2849639855908977,5302651.476749986,True
A3,2026-04-14,2026-04-15,117680,ETF_002,KODEX 철강,16103.0,16014.0,1255.0,0.0,-1255.0,SELL,20209265.0,0.0,-20209265.0,20209265.0,41517227.0,3031.38975,6227.58405,106563709.47675,106557481.8927,106758492.8927,0.0139295661098874,0.95,0.05,0.0,0.0,0.189644909127429,0.0,5357478.892699987,True
A3,2026-04-14,2026-04-15,139260,ETF_003,TIGER 200 IT,96646.0,96177.0,218.0,212.0,-6.0,SELL,21068828.0,20488952.0,-579876.0,579876.0,41517227.0,86.9814,6227.58405,106563709.47675,106557481.8927,106758492.8927,0.0139295661098874,0.95,0.05,0.2026136990113289,0.1924830140607625,0.1977110979286694,0.192280744965724,5357478.892699987,True
A3,2026-04-14,2026-04-15,266410,ETF_007,KODEX 필수소비재,9650.0,9839.0,3091.0,3110.0,19.0,BUY,29828150.0,30011500.0,183350.0,183350.0,41517227.0,27.5025,6227.58405,106563709.47675,106557481.8927,106758492.8927,0.0139295661098874,0.95,0.05,0.2964899139278801,0.2816654182314861,0.2799090811164741,0.2816461074992428,5357478.892699987,True
A3,2026-04-14,2026-04-15,315270,ETF_009,TIGER 200 커뮤니케이션서비스,22771.0,22895.0,0.0,886.0,886.0,BUY,0.0,20175106.0,20175106.0,20175106.0,41517227.0,3026.2659,6227.58405,106563709.47675,106557481.8927,106758492.8927,0.0139295661098874,0.95,0.05,0.1993155818912071,0.1893498027966468,0.0,0.1893354238636728,5357478.892699987,True
A3,2026-04-14,2026-04-15,476800,ETF_010,KODEX 한국부동산리츠인프라,4995.0,4930.0,6037.0,6111.0,74.0,BUY,30154815.0,30524445.0,369630.0,369630.0,41517227.0,55.44449999999999,6227.58405,106563709.47675,106557481.8927,106758492.8927,0.0139295661098874,0.95,0.05,0.3015808051695838,0.2865017649111046,0.2829745243297781,0.286459894301342,5357478.892699987,True
A3,2026-04-15,2026-04-16,139260,ETF_003,TIGER 200 IT,96596.0,98622.0,212.0,212.0,0.0,HOLD,20478352.0,20478352.0,0.0,0.0,465240.0,0.0,69.78599999999999,107500603.8927,107500534.1067,107930647.1067,0.0109794938298548,0.95,0.05,0.2010781075621196,0.1910242021840136,0.1904952275471879,0.190495351210759,5457459.106699988,True
A3,2026-04-15,2026-04-16,266410,ETF_007,KODEX 필수소비재,9923.0,9968.0,3110.0,3105.0,-5.0,SELL,30860530.0,30810915.0,-49615.0,49615.0,465240.0,7.442249999999999,69.78599999999999,107500603.8927,107500534.1067,107930647.1067,0.0109794938298548,0.95,0.05,0.3017651283053244,0.2866768718900582,0.287073085010787,0.28661173877907,5457459.106699988,True
A3,2026-04-15,2026-04-16,315270,ETF_009,TIGER 200 커뮤니케이션서비스,23303.0,23074.0,886.0,876.0,-10.0,SELL,20646458.0,20413428.0,-233030.0,233030.0,465240.0,34.95449999999999,69.78599999999999,107500603.8927,107500534.1067,107930647.1067,0.0109794938298548,0.95,0.05,0.2000470133365727,0.1900446626697441,0.1920589955067409,0.1898914100253547,5457459.106699988,True
A3,2026-04-15,2026-04-16,476800,ETF_010,KODEX 한국부동산리츠인프라,4935.0,4945.0,6111.0,6148.0,37.0,BUY,30157785.0,30340380.0,182595.0,182595.0,465240.0,27.38925,69.78599999999999,107500603.8927,107500534.1067,107930647.1067,0.0109794938298548,0.95,0.05,0.2971097507959832,0.282254263256184,0.2805359589430912,0.2822346907587041,5457459.106699988,True
A3,2026-04-16,2026-04-17,117460,ETF_001,KODEX 에너지화학,16893.0,16828.0,0.0,6084.0,6084.0,BUY,0.0,102777012.0,102777012.0,102777012.0,205546320.0,15416.551799999996,30831.948,108226767.1067,108195935.1587,107800475.1587,-0.0012060703006006,0.95,0.05,1.0,0.95,0.0,0.9499156493194352,5418923.158699989,True
A3,2026-04-16,2026-04-17,139260,ETF_003,TIGER 200 IT,98188.0,99216.0,212.0,0.0,-212.0,SELL,20815856.0,0.0,-20815856.0,20815856.0,205546320.0,3122.3784,30831.948,108226767.1067,108195935.1587,107800475.1587,-0.0012060703006006,0.95,0.05,0.0,0.0,0.1923355613078398,0.0,5418923.158699989,True
A3,2026-04-16,2026-04-17,266410,ETF_007,KODEX 필수소비재,9992.0,10057.0,3105.0,0.0,-3105.0,SELL,31025160.0,0.0,-31025160.0,31025160.0,205546320.0,4653.773999999999,30831.948,108226767.1067,108195935.1587,107800475.1587,-0.0012060703006006,0.95,0.05,0.0,0.0,0.2866680843327097,0.0,5418923.158699989,True
A3,2026-04-16,2026-04-17,315270,ETF_009,TIGER 200 커뮤니케이션서비스,23432.0,23258.0,876.0,0.0,-876.0,SELL,20526432.0,0.0,-20526432.0,20526432.0,205546320.0,3078.9647999999997,30831.948,108226767.1067,108195935.1587,107800475.1587,-0.0012060703006006,0.95,0.05,0.0,0.0,0.1896613245387172,0.0,5418923.158699989,True
A3,2026-04-16,2026-04-17,476800,ETF_010,KODEX 한국부동산리츠인프라,4945.0,4960.0,6148.0,0.0,-6148.0,SELL,30401860.0,0.0,-30401860.0,30401860.0,205546320.0,4560.279,30831.948,108226767.1067,108195935.1587,107800475.1587,-0.0012060703006006,0.95,0.05,0.0,0.0,0.2809088806101639,0.0,5418923.158699989,True
A3,2026-04-17,2026-04-20,117460,ETF_001,KODEX 에너지화학,16903.0,16833.0,6084.0,0.0,-6084.0,SELL,102837852.0,0.0,-102837852.0,102837852.0,205620048.0,15425.6778,30843.0072,108256775.1587,108225932.1515,107620206.1515,-0.0016722468702908,0.95,0.05,0.0,0.0,0.9499437965821902,0.0,5443736.151499987,True
A3,2026-04-17,2026-04-20,266410,ETF_007,KODEX 필수소비재,10077.0,10057.0,0.0,3400.0,3400.0,BUY,0.0,34261800.0,34261800.0,34261800.0,205620048.0,5139.27,30843.0072,108256775.1587,108225932.1515,107620206.1515,-0.0016722468702908,0.95,0.05,0.3333333333333333,0.3166666666666666,0.0,0.3165766218768959,5443736.151499987,True
A3,2026-04-17,2026-04-20,315270,ETF_009,TIGER 200 커뮤니케이션서비스,23412.0,22950.0,0.0,1463.0,1463.0,BUY,0.0,34251756.0,34251756.0,34251756.0,205620048.0,5137.763399999999,30843.0072,108256775.1587,108225932.1515,107620206.1515,-0.0016722468702908,0.95,0.05,0.3333333333333333,0.3166666666666666,0.0,0.3164838160234342,5443736.151499987,True
A3,2026-04-17,2026-04-20,476800,ETF_010,KODEX 한국부동산리츠인프라,4960.0,4980.0,0.0,6909.0,6909.0,BUY,0.0,34268640.0,34268640.0,34268640.0,205620048.0,5140.295999999999,30843.0072,108256775.1587,108225932.1515,107620206.1515,-0.0016722468702908,0.95,0.05,0.3333333333333333,0.3166666666666666,0.0,0.3166398229957407,5443736.151499987,True
A3,2026-04-20,2026-04-21,266410,ETF_007,KODEX 필수소비재,10072.0,9928.0,3400.0,3404.0,4.0,BUY,34244800.0,34285088.0,40288.0,40288.0,174285.0,6.043199999999999,26.14275,107872533.1515,107872507.00875,107586211.00875,-0.0003158806693061,0.95,0.05,0.3346543485011764,0.3179216310761176,0.3174561586674283,0.317829713526719,5407809.008749992,True
A3,2026-04-20,2026-04-21,315270,ETF_009,TIGER 200 커뮤니케이션서비스,23064.0,23014.0,1463.0,1460.0,-3.0,SELL,33742632.0,33673440.0,-69192.0,69192.0,174285.0,10.378799999999998,26.14275,107872533.1515,107872507.00875,107586211.00875,-0.0003158806693061,0.95,0.05,0.3286064785757425,0.3121761546469554,0.3128009606728217,0.3121596126181493,5407809.008749992,True
A3,2026-04-20,2026-04-21,476800,ETF_010,KODEX 한국부동산리츠인프라,4985.0,5025.0,6909.0,6922.0,13.0,BUY,34441365.0,34506170.0,64805.0,64805.0,174285.0,9.72075,26.14275,107872533.1515,107872507.00875,107586211.00875,-0.0003158806693061,0.95,0.05,0.336739172923081,0.3199022142769269,0.3192783556091089,0.3198791884683004,5407809.008749992,True
A3,2026-04-21,2026-04-22,266410,ETF_007,KODEX 필수소비재,9963.0,10097.0,3404.0,3394.0,-10.0,SELL,33914052.0,33814422.0,-99630.0,99630.0,193665.0,14.9445,29.04975,107641111.00875,107641081.959,108332502.959,0.006936687733982,0.95,0.05,0.3307441821217756,0.3142069730156868,0.3150659788084422,0.3141404878564837,5413374.958999991,True
A3,2026-04-21,2026-04-22,315270,ETF_009,TIGER 200 커뮤니케이션서비스,22970.0,22895.0,1460.0,1463.0,3.0,BUY,33536200.0,33605110.0,68910.0,68910.0,193665.0,10.3365,29.04975,107641111.00875,107641081.959,108332502.959,0.006936687733982,0.95,0.05,0.3288409227617398,0.3123988766236528,0.3115556843079582,0.3121959514751072,5413374.958999991,True
A3,2026-04-21,2026-04-22,476800,ETF_010,KODEX 한국부동산리츠인프라,5025.0,5075.0,6922.0,6927.0,5.0,BUY,34783050.0,34808175.0,25125.0,25125.0,193665.0,3.76875,29.04975,107641111.00875,107641081.959,108332502.959,0.006936687733982,0.95,0.05,0.3404148951164846,0.3233941503606603,0.3231390838874984,0.3233725856941709,5413374.958999991,True
A3,2026-04-22,2026-04-23,227550,ETF_005,TIGER 200 산업재,15707.0,15594.0,0.0,2154.0,2154.0,BUY,0.0,33832878.0,33832878.0,33832878.0,68544326.0,5074.931699999999,10281.648899999998,109467779.959,109457498.3101,108978161.3101,0.0059599689240481,0.95,0.05,0.3254534472931018,0.3091807749284467,0.0,0.3090960283428854,5490743.310099989,True
A3,2026-04-22,2026-04-23,266410,ETF_007,KODEX 필수소비재,10221.0,10141.0,3394.0,3387.0,-7.0,SELL,34690074.0,34618527.0,-71547.0,71547.0,68544326.0,10.732049999999996,10281.648899999998,109467779.959,109457498.3101,108978161.3101,0.0059599689240481,0.95,0.05,0.3329722925751955,0.3163236779464358,0.3168975749119312,0.3162736910167957,5490743.310099989,True
A3,2026-04-22,2026-04-23,315270,ETF_009,TIGER 200 커뮤니케이션서비스,23407.0,22841.0,1463.0,0.0,-1463.0,SELL,34244441.0,0.0,-34244441.0,34244441.0,68544326.0,5136.666149999999,10281.648899999998,109467779.959,109457498.3101,108978161.3101,0.0059599689240481,0.95,0.05,0.0,0.0,0.3128266692978143,0.0,5490743.310099989,True
A3,2026-04-22,2026-04-23,476800,ETF_010,KODEX 한국부동산리츠인프라,5070.0,5075.0,6927.0,7005.0,78.0,BUY,35119890.0,35515350.0,395460.0,395460.0,68544326.0,59.319,10281.648899999998,109467779.959,109457498.3101,108978161.3101,0.0059599689240481,0.95,0.05,0.3415742601317026,0.3244955471251174,0.3208239905217205,0.3244670355920503,5490743.310099989,True
A3,2026-04-23,2026-04-24,227550,ETF_005,TIGER 200 산업재,15594.0,15844.0,2154.0,2154.0,0.0,HOLD,33589476.0,33589476.0,0.0,0.0,25347.0,0.0,3.80205,108961226.3101,108961222.50805,110178693.50805,0.01101626402499,0.95,0.05,0.3245754570860005,0.3083466842317005,0.3082699886692306,0.3082699994258822,5465392.508049995,True
A3,2026-04-23,2026-04-24,266410,ETF_007,KODEX 필수소비재,10136.0,10295.0,3387.0,3389.0,2.0,BUY,34330632.0,34350904.0,20272.0,20272.0,25347.0,3.0407999999999995,3.80205,108961226.3101,108961222.50805,110178693.50805,0.01101626402499,0.95,0.05,0.3319008983294955,0.3153058534130207,0.3150720046257205,0.3152580634588803,5465392.508049995,True
A3,2026-04-23,2026-04-24,476800,ETF_010,KODEX 한국부동산리츠인프라,5075.0,5095.0,7005.0,7006.0,1.0,BUY,35550375.0,35555450.0,5075.0,5075.0,25347.0,0.7612499999999999,3.80205,108961226.3101,108961222.50805,110178693.50805,0.01101626402499,0.95,0.05,0.3435236445845039,0.3263474623552787,0.3262662894305615,0.3263128770179977,5465392.508049995,True
A3,2026-04-24,2026-04-27,227550,ETF_005,TIGER 200 산업재,15997.0,15928.0,2154.0,2147.0,-7.0,SELL,34457538.0,34345559.0,-111979.0,111979.0,420995.0,16.79685,63.14925,110947716.50805,110947653.3588,110882445.3588,0.0063873679051982,0.95,0.05,0.3259182517796856,0.3096223391907013,0.3105745578594209,0.3095654388374301,5559604.358799994,True
A3,2026-04-24,2026-04-27,266410,ETF_007,KODEX 필수소비재,10404.0,10439.0,3389.0,3375.0,-14.0,SELL,35259156.0,35113500.0,-145656.0,145656.0,420995.0,21.8484,63.14925,110947716.50805,110947653.3588,110882445.3588,0.0063873679051982,0.95,0.05,0.333193153752263,0.3165334960646498,0.3177997448684914,0.3164870904159138,5559604.358799994,True
A3,2026-04-24,2026-04-27,476800,ETF_010,KODEX 한국부동산리츠인프라,5105.0,5100.0,7006.0,7038.0,32.0,BUY,35765630.0,35928990.0,163360.0,163360.0,420995.0,24.504,63.14925,110947716.50805,110947653.3588,110882445.3588,0.0063873679051982,0.95,0.05,0.3408885944680513,0.3238441647446488,0.3223647239049301,0.3238373134743749,5559604.358799994,True
A3,2026-04-27,2026-04-28,139260,ETF_003,TIGER 200 IT,112812.0,114074.0,0.0,312.0,312.0,BUY,0.0,35197344.0,35197344.0,35197344.0,71184463.0,5279.6016,10677.66945,111328323.3588,111317645.68935,110467888.68935,-0.003738704247625,0.95,0.05,0.3333333333333333,0.3166666666666666,0.0,0.3161883615309644,5639865.689349994,True
A3,2026-04-27,2026-04-28,227550,ETF_005,TIGER 200 산업재,16252.0,15790.0,2147.0,2168.0,21.0,BUY,34893044.0,35234336.0,341292.0,341292.0,71184463.0,51.1938,10677.66945,111328323.3588,111317645.68935,110467888.68935,-0.003738704247625,0.95,0.05,0.3333333333333333,0.3166666666666666,0.3134246788891558,0.3165206718288594,5639865.689349994,True
A3,2026-04-27,2026-04-28,266410,ETF_007,KODEX 필수소비재,10365.0,10330.0,3375.0,0.0,-3375.0,SELL,34981875.0,0.0,-34981875.0,34981875.0,71184463.0,5247.28125,10677.66945,111328323.3588,111317645.68935,110467888.68935,-0.003738704247625,0.95,0.05,0.0,0.0,0.3142225980288676,0.0,5639865.689349994,True
A3,2026-04-27,2026-04-28,476800,ETF_010,KODEX 한국부동산리츠인프라,5100.0,5065.0,7038.0,6911.0,-127.0,SELL,35893800.0,35246100.0,-647700.0,647700.0,71184463.0,97.155,10677.66945,111328323.3588,111317645.68935,110467888.68935,-0.003738704247625,0.95,0.05,0.3333333333333333,0.3166666666666666,0.3224139097497938,0.3166263513905062,5639865.689349994,True
A3,2026-04-28,2026-04-29,139260,ETF_003,TIGER 200 IT,112795.0,114730.0,312.0,0.0,-312.0,SELL,35192040.0,0.0,-35192040.0,35192040.0,139985960.0,5278.806,20997.894,110416385.68935,110395387.79535,107066107.79535,-0.0307942962824812,0.95,0.05,0.0,0.0,0.3187211733139928,0.0,5523067.79535,True
A3,2026-04-28,2026-04-29,227550,ETF_005,TIGER 200 산업재,16030.0,16145.0,2168.0,0.0,-2168.0,SELL,34753040.0,0.0,-34753040.0,34753040.0,139985960.0,5212.955999999999,20997.894,110416385.68935,110395387.79535,107066107.79535,-0.0307942962824812,0.95,0.05,0.0,0.0,0.3147453141400193,0.0,5523067.79535,True
A3,2026-04-28,2026-04-29,476800,ETF_010,KODEX 한국부동산리츠인프라,5040.0,4880.0,6911.0,20808.0,13897.0,BUY,34831440.0,104872320.0,70040880.0,70040880.0,139985960.0,10506.131999999998,20997.894,110416385.68935,110395387.79535,107066107.79535,-0.0307942962824812,0.95,0.05,1.0,0.95,0.3154553536827061,0.9499701218896154,5523067.79535,True
A3,2026-04-29,2026-04-30,117460,ETF_001,KODEX 에너지화학,19150.0,18925.0,0.0,1317.0,1317.0,BUY,0.0,25220550.0,25220550.0,25220550.0,151135580.0,3783.0825,22670.337,106233787.79535,106211117.45835,105069237.45835,-0.0186508165666849,0.95,0.05,0.25,0.2375,0.0,0.2374567804532333,5343777.458350003,True
A3,2026-04-29,2026-04-30,227550,ETF_005,TIGER 200 산업재,16150.0,15990.0,0.0,1561.0,1561.0,BUY,0.0,25210150.0,25210150.0,25210150.0,151135580.0,3781.522500000001,22670.337,106233787.79535,106211117.45835,105069237.45835,-0.0186508165666849,0.95,0.05,0.25,0.2375,0.0,0.2373588622668055,5343777.458350003,True
A3,2026-04-29,2026-04-30,266420,ETF_008,KODEX 헬스케어,21700.0,21120.0,0.0,1162.0,1162.0,BUY,0.0,25215400.0,25215400.0,25215400.0,151135580.0,3782.31,22670.337,106233787.79535,106211117.45835,105069237.45835,-0.0186508165666849,0.95,0.05,0.25,0.2375,0.0,0.2374082921205311,5343777.458350003,True
A3,2026-04-29,2026-04-30,476800,ETF_010,KODEX 한국부동산리츠인프라,4840.0,4855.0,20808.0,5211.0,-15597.0,SELL,100710720.0,25221240.0,-75489480.0,75489480.0,151135580.0,11323.422,22670.337,106233787.79535,106211117.45835,105069237.45835,-0.0186508165666849,0.95,0.05,0.25,0.2375,0.948010252576236,0.2374632769482944,5343777.458350003,True
A3,2026-04-30,2026-05-04,117460,ETF_001,KODEX 에너지화학,19255.0,18975.0,1317.0,0.0,-1317.0,SELL,25358835.0,0.0,-25358835.0,25358835.0,151641180.0,3803.82525,22746.177,106470862.45835,106448116.28135,105263086.28135,0.001844962690215,0.95,0.05,0.0,0.0,0.2381762898738614,0.0,5335211.281350002,True
A3,2026-04-30,2026-05-04,227550,ETF_005,TIGER 200 산업재,16375.0,16605.0,1561.0,0.0,-1561.0,SELL,25561375.0,0.0,-25561375.0,25561375.0,151641180.0,3834.20625,22746.177,106470862.45835,106448116.28135,105263086.28135,0.001844962690215,0.95,0.05,0.0,0.0,0.2400785943665974,0.0,5335211.281350002,True
A3,2026-04-30,2026-05-04,266390,ETF_006,KODEX 경기소비재,12520.0,12330.0,0.0,2692.0,2692.0,BUY,0.0,33703840.0,33703840.0,33703840.0,151641180.0,5055.575999999999,22746.177,106470862.45835,106448116.28135,105263086.28135,0.001844962690215,0.95,0.05,0.3333333333333333,0.3166666666666666,0.0,0.3166222304105254,5335211.281350002,True
A3,2026-04-30,2026-05-04,266410,ETF_007,KODEX 필수소비재,10325.0,10225.0,0.0,3264.0,3264.0,BUY,0.0,33700800.0,33700800.0,33700800.0,151641180.0,5055.12,22746.177,106470862.45835,106448116.28135,105263086.28135,0.001844962690215,0.95,0.05,0.3333333333333333,0.3166666666666666,0.0,0.3165936718967048,5335211.281350002,True
A3,2026-04-30,2026-05-04,266420,ETF_008,KODEX 헬스케어,21435.0,21135.0,1162.0,0.0,-1162.0,SELL,24907470.0,0.0,-24907470.0,24907470.0,151641180.0,3736.1205,22746.177,106470862.45835,106448116.28135,105263086.28135,0.001844962690215,0.95,0.05,0.0,0.0,0.2339369610135681,0.0,5335211.281350002,True
A3,2026-04-30,2026-05-04,476800,ETF_010,KODEX 한국부동산리츠인프라,4855.0,4805.0,5211.0,6943.0,1732.0,BUY,25299405.0,33708265.0,8408860.0,8408860.0,151641180.0,1261.329,22746.177,106470862.45835,106448116.28135,105263086.28135,0.001844962690215,0.95,0.05,0.3333333333333333,0.3166666666666666,0.2376181089910565,0.3166637999577807,5335211.281350002,True
