PJH-02/HYFE38_ML/testing/backtest_state/out_2024_kofr_decision_regime_a0_a6_k10/A4_k10/trade_history.csv
strategy,decision_date,execution_date,ticker,ETF_id,name,open,close,prev_qty,target_qty,delta_qty,side,prev_value_open,target_value_open,delta_value_open,trade_turnover_value,day_turnover_value,commission_allocated,day_commission,nav_open_pre,nav_open_post,nav_close,daily_return,stock_ratio,cash_weight,target_sleeve_weight,target_portfolio_weight,prev_portfolio_weight_open,actual_portfolio_weight_open,cash_after_rebalance,rebalanced
A4_RULE_LLM_BLEND,2024-01-05,2024-01-08,117460,ETF_001,KODEX 에너지화학,15298.0,15175.0,0.0,2217.0,2217.0,BUY,0.0,33915666.0,33915666.0,33915666.0,949820806.0,5087.349899999999,142473.12089999998,1000000000.0,999857526.8791,995639265.721092,-0.004360734278908,0.95,0.05,0.0357142857142857,0.0339285714285714,0.0,0.0339204987593207,50036720.879099965,True
A4_RULE_LLM_BLEND,2024-01-05,2024-01-08,117680,ETF_002,KODEX 철강,8836.0,8724.0,0.0,4319.0,4319.0,BUY,0.0,38162684.0,38162684.0,38162684.0,949820806.0,5724.402599999999,142473.12089999998,1000000000.0,999857526.8791,995639265.721092,-0.004360734278908,0.95,0.05,0.0401785714285714,0.0381696428571428,0.0,0.0381681219314504,50036720.879099965,True
A4_RULE_LLM_BLEND,2024-01-05,2024-01-08,139260,ETF_003,TIGER 200 IT,31194.0,31155.0,0.0,8754.0,8754.0,BUY,0.0,273072276.0,273072276.0,273072276.0,949820806.0,40960.8414,142473.12089999998,1000000000.0,999857526.8791,995639265.721092,-0.004360734278908,0.95,0.05,0.2875,0.2731249999999999,0.0,0.273111187003165,50036720.879099965,True
A4_RULE_LLM_BLEND,2024-01-05,2024-01-08,139270,ETF_004,TIGER 200 금융,5704.0,5695.0,0.0,22005.0,22005.0,BUY,0.0,125516520.0,125516520.0,125516520.0,949820806.0,18827.478,142473.12089999998,1000000000.0,999857526.8791,995639265.721092,-0.004360734278908,0.95,0.05,0.1321428571428571,0.1255357142857142,0.0,0.1255344052785003,50036720.879099965,True
A4_RULE_LLM_BLEND,2024-01-05,2024-01-08,266390,ETF_006,KODEX 경기소비재,7956.0,7985.0,0.0,17588.0,17588.0,BUY,0.0,139930128.0,139930128.0,139930128.0,949820806.0,20989.5192,142473.12089999998,1000000000.0,999857526.8791,995639265.721092,-0.004360734278908,0.95,0.05,0.1473214285714285,0.1399553571428571,0.0,0.1399500671228331,50036720.879099965,True
A4_RULE_LLM_BLEND,2024-01-05,2024-01-08,266410,ETF_007,KODEX 필수소비재,6217.0,6165.0,0.0,22235.0,22235.0,BUY,0.0,138234995.0,138234995.0,138234995.0,949820806.0,20735.24925,142473.12089999998,1000000000.0,999857526.8791,995639265.721092,-0.004360734278908,0.95,0.05,0.1455357142857142,0.1382589285714285,0.0,0.1382546925775306,50036720.879099965,True
A4_RULE_LLM_BLEND,2024-01-05,2024-01-08,266420,ETF_008,KODEX 헬스케어,13995.0,13701.0,0.0,6787.0,6787.0,BUY,0.0,94984065.0,94984065.0,94984065.0,949820806.0,14247.609749999998,142473.12089999998,1000000000.0,999857526.8791,995639265.721092,-0.004360734278908,0.95,0.05,0.1,0.095,0.0,0.0949975996044936,50036720.879099965,True
A4_RULE_LLM_BLEND,2024-01-05,2024-01-08,315270,ETF_009,TIGER 200 커뮤니케이션서비스,17691.0,17643.0,0.0,5992.0,5992.0,BUY,0.0,106004472.0,106004472.0,106004472.0,949820806.0,15900.670799999998,142473.12089999998,1000000000.0,999857526.8791,995639265.721092,-0.004360734278908,0.95,0.05,0.1116071428571428,0.1060267857142857,0.0,0.1060195769400031,50036720.879099965,True
A4_RULE_LLM_BLEND,2024-01-08,2024-01-09,117460,ETF_001,KODEX 에너지화학,15244.0,15170.0,2217.0,3034.0,817.0,BUY,33795948.0,46250296.0,12454348.0,12454348.0,117494191.0,1868.1522,17624.12865,1004203528.721092,1004185904.592442,998435147.711005,0.002808127487708,0.95,0.05,0.0484896661367249,0.0460651828298887,0.0336544804249403,0.0460575036838135,50265132.59244204,True
A4_RULE_LLM_BLEND,2024-01-08,2024-01-09,117680,ETF_002,KODEX 철강,8780.0,8672.0,4319.0,4145.0,-174.0,SELL,37920820.0,36393100.0,-1527720.0,1527720.0,117494191.0,229.158,17624.12865,1004203528.721092,1004185904.592442,998435147.711005,0.002808127487708,0.95,0.05,0.0381558028616852,0.0362480127186009,0.0377620859869853,0.0362413969699868,50265132.59244204,True
A4_RULE_LLM_BLEND,2024-01-08,2024-01-09,139260,ETF_003,TIGER 200 IT,31511.0,31004.0,8754.0,8787.0,33.0,BUY,275847294.0,276887157.0,1039863.0,1039863.0,117494191.0,155.97945,17624.12865,1004203528.721092,1004185904.592442,998435147.711005,0.002808127487708,0.95,0.05,0.2902623211446741,0.2757492050874404,0.2746926157004313,0.2757329651150373,50265132.59244204,True
A4_RULE_LLM_BLEND,2024-01-08,2024-01-09,139270,ETF_004,TIGER 200 금융,5744.0,5731.0,22005.0,16753.0,-5252.0,SELL,126396720.0,96229232.0,-30167488.0,30167488.0,117494191.0,4525.1232,17624.12865,1004203528.721092,1004185904.592442,998435147.711005,0.002808127487708,0.95,0.05,0.1008744038155803,0.0958306836248012,0.1258676317946951,0.095828104696466,50265132.59244204,True
A4_RULE_LLM_BLEND,2024-01-08,2024-01-09,266390,ETF_006,KODEX 경기소비재,8042.0,8009.0,17588.0,19783.0,2195.0,BUY,141442696.0,159094886.0,17652190.0,17652190.0,117494191.0,2647.8285,17624.12865,1004203528.721092,1004185904.592442,998435147.711005,0.002808127487708,0.95,0.05,0.1667726550079491,0.1584340222575516,0.1408506263467675,0.15843170599429,50265132.59244204,True
A4_RULE_LLM_BLEND,2024-01-08,2024-01-09,266410,ETF_007,KODEX 필수소비재,6232.0,6194.0,22235.0,17875.0,-4360.0,SELL,138568520.0,111397000.0,-27171520.0,27171520.0,117494191.0,4075.728,17624.12865,1004203528.721092,1004185904.592442,998435147.711005,0.002808127487708,0.95,0.05,0.1167726550079491,0.1109340222575516,0.1379884814550239,0.1109326465254573,50265132.59244204,True
A4_RULE_LLM_BLEND,2024-01-08,2024-01-09,266420,ETF_008,KODEX 헬스케어,13885.0,13890.0,6787.0,8593.0,1806.0,BUY,94237495.0,119313805.0,25076310.0,25076310.0,117494191.0,3761.4465,17624.12865,1004203528.721092,1004185904.592442,998435147.711005,0.002808127487708,0.95,0.05,0.1250794912559618,0.1188255166931637,0.0938430231568859,0.1188164506734682,50265132.59244204,True
A4_RULE_LLM_BLEND,2024-01-08,2024-01-09,315270,ETF_009,TIGER 200 커뮤니케이션서비스,17682.0,17825.0,5992.0,6128.0,136.0,BUY,105950544.0,108355296.0,2404752.0,2404752.0,117494191.0,360.7128,17624.12865,1004203528.721092,1004185904.592442,998435147.711005,0.002808127487708,0.95,0.05,0.1135930047694753,0.1079133545310015,0.1055070421181787,0.1079036217342415,50265132.59244204,True
A4_RULE_LLM_BLEND,2024-01-09,2024-01-10,117460,ETF_001,KODEX 에너지화학,15264.0,15038.0,3034.0,1712.0,-1322.0,SELL,46310976.0,26131968.0,-20179008.0,20179008.0,211353397.0,3026.8512,31703.00955,1002435071.711005,1002403368.701455,991095039.7754931,-0.0073516121225696,0.95,0.05,0.0274542429284525,0.0260815307820299,0.0461984793897465,0.0260693138270795,50157671.701455,True
A4_RULE_LLM_BLEND,2024-01-09,2024-01-10,117680,ETF_002,KODEX 철강,8658.0,8579.0,4145.0,12362.0,8217.0,BUY,35887410.0,107030196.0,71142786.0,71142786.0,211353397.0,10671.4179,31703.00955,1002435071.711005,1002403368.701455,991095039.7754931,-0.0073516121225696,0.95,0.05,0.112396006655574,0.1067762063227953,0.0358002338632721,0.1067735797203577,50157671.701455,True
A4_RULE_LLM_BLEND,2024-01-09,2024-01-10,139260,ETF_003,TIGER 200 IT,31185.0,30425.0,8787.0,8086.0,-701.0,SELL,274022595.0,252161910.0,-21860685.0,21860685.0,211353397.0,3279.10275,31703.00955,1002435071.711005,1002403368.701455,991095039.7754931,-0.0073516121225696,0.95,0.05,0.2648086522462562,0.2515682196339434,0.273356951221075,0.2515573249984769,50157671.701455,True
A4_RULE_LLM_BLEND,2024-01-09,2024-01-10,139270,ETF_004,TIGER 200 금융,5790.0,5695.0,16753.0,7115.0,-9638.0,SELL,96999870.0,41195850.0,-55804020.0,55804020.0,211353397.0,8370.603,31703.00955,1002435071.711005,1002403368.701455,991095039.7754931,-0.0073516121225696,0.95,0.05,0.043261231281198,0.041098169717138,0.0967642421313491,0.0410970785676492,50157671.701455,True
A4_RULE_LLM_BLEND,2024-01-09,2024-01-10,266390,ETF_006,KODEX 경기소비재,8013.0,7942.0,19783.0,20189.0,406.0,BUY,158521179.0,161774457.0,3253278.0,3253278.0,211353397.0,487.9917,31703.00955,1002435071.711005,1002403368.701455,991095039.7754931,-0.0073516121225696,0.95,0.05,0.1698835274542429,0.1613893510815307,0.1581361062412035,0.1613865855314989,50157671.701455,True
A4_RULE_LLM_BLEND,2024-01-09,2024-01-10,266410,ETF_007,KODEX 필수소비재,6232.0,6175.0,17875.0,22901.0,5026.0,BUY,111397000.0,142719032.0,31322032.0,31322032.0,211353397.0,4698.3048,31703.00955,1002435071.711005,1002403368.701455,991095039.7754931,-0.0073516121225696,0.95,0.05,0.1498752079866888,0.1423814475873544,0.1111263992488433,0.1423768479398495,50157671.701455,True
A4_RULE_LLM_BLEND,2024-01-09,2024-01-10,266420,ETF_008,KODEX 헬스케어,13920.0,13880.0,8593.0,8318.0,-275.0,SELL,119614560.0,115786560.0,-3828000.0,3828000.0,211353397.0,574.1999999999999,31703.00955,1002435071.711005,1002403368.701455,991095039.7754931,-0.0073516121225696,0.95,0.05,0.1215890183028285,0.1155095673876871,0.1193239975092212,0.115508949406259,50157671.701455,True
A4_RULE_LLM_BLEND,2024-01-09,2024-01-10,315270,ETF_009,TIGER 200 커뮤니케이션서비스,17854.0,17844.0,6128.0,5906.0,-222.0,SELL,109409312.0,105445724.0,-3963588.0,3963588.0,211353397.0,594.5382,31703.00955,1002435071.711005,1002403368.701455,991095039.7754931,-0.0073516121225696,0.95,0.05,0.1107321131447587,0.1051955074875207,0.1091435396541492,0.105192906660517,50157671.701455,True
A4_RULE_LLM_BLEND,2024-01-10,2024-01-11,117460,ETF_001,KODEX 에너지화학,14994.0,14974.0,1712.0,2780.0,1068.0,BUY,25669728.0,41683320.0,16013592.0,16013592.0,307721955.0,2402.0388,46158.29325,992645935.7754931,992599777.4822432,992555846.4417849,0.0014739319718748,0.95,0.05,0.0442122186495176,0.0420016077170418,0.0258599033903723,0.0419940855777047,49653630.48224318,True
A4_RULE_LLM_BLEND,2024-01-10,2024-01-11,117680,ETF_002,KODEX 철강,8579.0,8560.0,12362.0,11504.0,-858.0,SELL,106053598.0,98692816.0,-7360782.0,7360782.0,307721955.0,1104.1173,46158.29325,992645935.7754931,992599777.4822432,992555846.4417849,0.0014739319718748,0.95,0.05,0.1046623794212218,0.0994292604501607,0.1068393010818574,0.0994286098374282,49653630.48224318,True
A4_RULE_LLM_BLEND,2024-01-10,2024-01-11,139260,ETF_003,TIGER 200 IT,30469.0,30727.0,8086.0,6431.0,-1655.0,SELL,246372334.0,195946139.0,-50426195.0,50426195.0,307721955.0,7563.929249999999,46158.29325,992645935.7754931,992599777.4822432,992555846.4417849,0.0014739319718748,0.95,0.05,0.2077974276527331,0.1974075562700964,0.2481975950543982,0.1974069946872472,49653630.48224318,True
A4_RULE_LLM_BLEND,2024-01-10,2024-01-11,139270,ETF_004,TIGER 200 금융,5771.0,5785.0,7115.0,17758.0,10643.0,BUY,41060665.0,102481418.0,61420753.0,61420753.0,307721955.0,9213.11295,46158.29325,992645935.7754931,992599777.4822432,992555846.4417849,0.0014739319718748,0.95,0.05,0.1086816720257234,0.1032475884244372,0.0413648648729134,0.1032454573583997,49653630.48224318,True
A4_RULE_LLM_BLEND,2024-01-10,2024-01-11,266390,ETF_006,KODEX 경기소비재,7942.0,7932.0,20189.0,17494.0,-2695.0,SELL,160341038.0,138937348.0,-21403690.0,21403690.0,307721955.0,3210.5534999999995,46158.29325,992645935.7754931,992599777.4822432,992555846.4417849,0.0014739319718748,0.95,0.05,0.1473472668810289,0.1399799035369775,0.1615289321410815,0.1399731806835766,49653630.48224318,True
A4_RULE_LLM_BLEND,2024-01-10,2024-01-11,266410,ETF_007,KODEX 필수소비재,6179.0,6127.0,22901.0,20769.0,-2132.0,SELL,141505279.0,128331651.0,-13173628.0,13173628.0,307721955.0,1976.0442,46158.29325,992645935.7754931,992599777.4822432,992555846.4417849,0.0014739319718748,0.95,0.05,0.1360932475884244,0.1292885852090032,0.142553627532309,0.1292884140328106,49653630.48224318,True
A4_RULE_LLM_BLEND,2024-01-10,2024-01-11,266420,ETF_008,KODEX 헬스케어,13885.0,13841.0,8318.0,13839.0,5521.0,BUY,115495430.0,192154515.0,76659085.0,76659085.0,307721955.0,11498.862749999998,46158.29325,992645935.7754931,992599777.4822432,992555846.4417849,0.0014739319718748,0.95,0.05,0.2037781350482315,0.1935892282958199,0.1163510833394694,0.1935871026360748,49653630.48224318,True
A4_RULE_LLM_BLEND,2024-01-10,2024-01-11,315270,ETF_009,TIGER 200 커뮤니케이션서비스,17945.0,18017.0,5906.0,2492.0,-3414.0,SELL,105983170.0,44718940.0,-61264230.0,61264230.0,307721955.0,9189.6345,46158.29325,992645935.7754931,992599777.4822432,992555846.4417849,0.0014739319718748,0.95,0.05,0.0474276527331189,0.045056270096463,0.1067683513126983,0.0450523373211213,49653630.48224318,True
A4_RULE_LLM_BLEND,2024-01-11,2024-01-12,117460,ETF_001,KODEX 에너지화학,15028.0,14783.0,2780.0,3826.0,1046.0,BUY,41777840.0,57497128.0,15719288.0,15719288.0,317986030.0,2357.8932,47697.9045,989914608.4417849,989866910.5372849,980097177.3672336,-0.0125521089006872,0.95,0.05,0.0611538461538461,0.0580961538461538,0.042203478606869,0.0580857157542436,49552681.53728473,True
A4_RULE_LLM_BLEND,2024-01-11,2024-01-12,117680,ETF_002,KODEX 철강,8560.0,8443.0,11504.0,11365.0,-139.0,SELL,98474240.0,97284400.0,-1189840.0,1189840.0,317986030.0,178.476,47697.9045,989914608.4417849,989866910.5372849,980097177.3672336,-0.0125521089006872,0.95,0.05,0.1034615384615384,0.0982884615384615,0.0994775096359143,0.0982802828990369,49552681.53728473,True
A4_RULE_LLM_BLEND,2024-01-11,2024-01-12,139260,ETF_003,TIGER 200 IT,30557.0,30090.0,6431.0,8214.0,1783.0,BUY,196512067.0,250995198.0,54483131.0,54483131.0,317986030.0,8172.469649999999,47697.9045,989914608.4417849,989866910.5372849,980097177.3672336,-0.0125521089006872,0.95,0.05,0.2669230769230769,0.2535769230769231,0.198514160033791,0.253564590681957,49552681.53728473,True
A4_RULE_LLM_BLEND,2024-01-11,2024-01-12,139270,ETF_004,TIGER 200 금융,5830.0,5762.0,17758.0,2357.0,-15401.0,SELL,103529140.0,13741310.0,-89787830.0,89787830.0,317986030.0,13468.1745,47697.9045,989914608.4417849,989866910.5372849,980097177.3672336,-0.0125521089006872,0.95,0.05,0.0146153846153846,0.0138846153846153,0.1045839096798099,0.0138819773180835,49552681.53728473,True
A4_RULE_LLM_BLEND,2024-01-11,2024-01-12,266390,ETF_006,KODEX 경기소비재,7942.0,7894.0,17494.0,14572.0,-2922.0,SELL,138937348.0,115730824.0,-23206524.0,23206524.0,317986030.0,3480.9786,47697.9045,989914608.4417849,989866910.5372849,980097177.3672336,-0.0125521089006872,0.95,0.05,0.123076923076923,0.1169230769230769,0.140352861565201,0.1169155396225772,49552681.53728473,True
A4_RULE_LLM_BLEND,2024-01-11,2024-01-12,266410,ETF_007,KODEX 필수소비재,6127.0,6079.0,20769.0,20719.0,-50.0,SELL,127251663.0,126945313.0,-306350.0,306350.0,317986030.0,45.95249999999999,47697.9045,989914608.4417849,989866910.5372849,980097177.3672336,-0.0125521089006872,0.95,0.05,0.1349999999999999,0.1282499999999999,0.1285481211357267,0.1282448293287185,49552681.53728473,True
A4_RULE_LLM_BLEND,2024-01-11,2024-01-12,266420,ETF_008,KODEX 헬스케어,13667.0,13562.0,13839.0,10585.0,-3254.0,SELL,189137613.0,144665195.0,-44472418.0,44472418.0,317986030.0,6670.8627,47697.9045,989914608.4417849,989866910.5372849,980097177.3672336,-0.0125521089006872,0.95,0.05,0.1538461538461538,0.1461538461538461,0.1910645740421183,0.1461461065725269,49552681.53728473,True
A4_RULE_LLM_BLEND,2024-01-11,2024-01-12,315270,ETF_009,TIGER 200 커뮤니케이션서비스,17911.0,17816.0,2492.0,7451.0,4959.0,BUY,44634212.0,133454861.0,88820649.0,88820649.0,317986030.0,13323.097349999998,47697.9045,989914608.4417849,989866910.5372849,980097177.3672336,-0.0125521089006872,0.95,0.05,0.1419230769230769,0.134826923076923,0.0450889517331785,0.134821014400373,49552681.53728473,True
A4_RULE_LLM_BLEND,2024-01-12,2024-01-15,117460,ETF_001,KODEX 에너지화학,14876.0,14636.0,3826.0,2308.0,-1518.0,SELL,56915576.0,34333808.0,-22581768.0,22581768.0,613043732.0,3387.2652,91956.5598,982134757.3672336,982042800.8074336,977130218.831976,-0.0030272085296966,0.95,0.05,0.0368055555555555,0.0349652777777777,0.0579508825780396,0.0349616207885957,49130326.807433605,True
A4_RULE_LLM_BLEND,2024-01-12,2024-01-15,117680,ETF_002,KODEX 철강,8424.0,8373.0,11365.0,6691.0,-4674.0,SELL,95738760.0,56364984.0,-39373776.0,39373776.0,613043732.0,5906.066399999999,91956.5598,982134757.3672336,982042800.8074336,977130218.831976,-0.0030272085296966,0.95,0.05,0.0604166666666666,0.0573958333333333,0.0974802686513638,0.0573956491037425,49130326.807433605,True
A4_RULE_LLM_BLEND,2024-01-12,2024-01-15,139260,ETF_003,TIGER 200 IT,30187.0,30177.0,8214.0,3949.0,-4265.0,SELL,247956018.0,119208463.0,-128747555.0,128747555.0,613043732.0,19312.133249999995,91956.5598,982134757.3672336,982042800.8074336,977130218.831976,-0.0030272085296966,0.95,0.05,0.1277777777777777,0.1213888888888888,0.2524663913378699,0.121388256094324,49130326.807433605,True
A4_RULE_LLM_BLEND,2024-01-12,2024-01-15,139270,ETF_004,TIGER 200 금융,5848.0,5871.0,2357.0,17061.0,14704.0,BUY,13783736.0,99772728.0,85988992.0,85988992.0,613043732.0,12898.348799999998,91956.5598,982134757.3672336,982042800.8074336,977130218.831976,-0.0030272085296966,0.95,0.05,0.1069444444444444,0.1015972222222222,0.0140344651246733,0.101597127862418,49130326.807433605,True
A4_RULE_LLM_BLEND,2024-01-12,2024-01-15,227550,ETF_005,TIGER 200 산업재,6209.0,6209.0,0.0,28173.0,28173.0,BUY,0.0,174926157.0,174926157.0,174926157.0,613043732.0,26238.92355,91956.5598,982134757.3672336,982042800.8074336,977130218.831976,-0.0030272085296966,0.95,0.05,0.1875,0.1781249999999999,0.0,0.1781247791401516,49130326.807433605,True
A4_RULE_LLM_BLEND,2024-01-12,2024-01-15,266390,ETF_006,KODEX 경기소비재,7889.0,7870.0,14572.0,4845.0,-9727.0,SELL,114958508.0,38222205.0,-76736303.0,76736303.0,613043732.0,11510.44545,91956.5598,982134757.3672336,982042800.8074336,977130218.831976,-0.0030272085296966,0.95,0.05,0.0409722222222222,0.0389236111111111,0.1170496280043731,0.0389211192919226,49130326.807433605,True
A4_RULE_LLM_BLEND,2024-01-12,2024-01-15,266410,ETF_007,KODEX 필수소비재,6108.0,6051.0,20719.0,15168.0,-5551.0,SELL,126551652.0,92646144.0,-33905508.0,33905508.0,613043732.0,5085.8262,91956.5598,982134757.3672336,982042800.8074336,977130218.831976,-0.0030272085296966,0.95,0.05,0.0993055555555555,0.0943402777777777,0.12885365378906,0.0943402303075044,49130326.807433605,True
A4_RULE_LLM_BLEND,2024-01-12,2024-01-15,266420,ETF_008,KODEX 헬스케어,13547.0,13319.0,10585.0,13964.0,3379.0,BUY,143394995.0,189170308.0,45775313.0,45775313.0,613043732.0,6866.296949999999,91956.5598,982134757.3672336,982042800.8074336,977130218.831976,-0.0030272085296966,0.95,0.05,0.2027777777777777,0.1926388888888889,0.1460033808236181,0.1926293923691152,49130326.807433605,True
A4_RULE_LLM_BLEND,2024-01-12,2024-01-15,315270,ETF_009,TIGER 200 커뮤니케이션서비스,17887.0,17854.0,7451.0,7171.0,-280.0,SELL,133276037.0,128267677.0,-5008360.0,5008360.0,613043732.0,751.2539999999999,91956.5598,982134757.3672336,982042800.8074336,977130218.831976,-0.0030272085296966,0.95,0.05,0.1375,0.130625,0.1357003567995774,0.1306131228644399,49130326.807433605,True
A4_RULE_LLM_BLEND,2024-01-15,2024-01-16,117460,ETF_001,KODEX 에너지화학,14720.0,14519.0,2308.0,7357.0,5049.0,BUY,33973760.0,108295040.0,74321280.0,74321280.0,375903822.0,11148.192,56385.5733,976897809.831976,976841424.258676,965498928.2456852,-0.0119035215185487,0.95,0.05,0.1166974382644818,0.1108625663512577,0.034777189239316,0.1108624565979938,48868057.25867593,True
A4_RULE_LLM_BLEND,2024-01-15,2024-01-16,117680,ETF_002,KODEX 철강,8368.0,8340.0,6691.0,5848.0,-843.0,SELL,55990288.0,48936064.0,-7054224.0,7054224.0,375903822.0,1058.1336,56385.5733,976897809.831976,976841424.258676,965498928.2456852,-0.0119035215185487,0.95,0.05,0.0527348257558273,0.0500980844680359,0.0573143756045785,0.0500962211314262,48868057.25867593,True
A4_RULE_LLM_BLEND,2024-01-15,2024-01-16,139260,ETF_003,TIGER 200 IT,30075.0,29686.0,3949.0,3909.0,-40.0,SELL,118766175.0,117563175.0,-1203000.0,1203000.0,375903822.0,180.45,56385.5733,976897809.831976,976841424.258676,965498928.2456852,-0.0119035215185487,0.95,0.05,0.1266962843295638,0.1203614701130856,0.1215748196020907,0.1203503169301185,48868057.25867593,True
A4_RULE_LLM_BLEND,2024-01-15,2024-01-16,139270,ETF_004,TIGER 200 금융,5907.0,5794.0,17061.0,17336.0,275.0,BUY,100779327.0,102403752.0,1624425.0,1624425.0,375903822.0,243.66375,56385.5733,976897809.831976,976841424.258676,965498928.2456852,-0.0119035215185487,0.95,0.05,0.1103507962150934,0.1048332564043387,0.1031626092163455,0.1048315002383463,48868057.25867593,True
A4_RULE_LLM_BLEND,2024-01-15,2024-01-16,227550,ETF_005,TIGER 200 산업재,6185.0,6175.0,28173.0,0.0,-28173.0,SELL,174250005.0,0.0,-174250005.0,174250005.0,375903822.0,26137.50075,56385.5733,976897809.831976,976841424.258676,965498928.2456852,-0.0119035215185487,0.95,0.05,0.0,0.0,0.1783707602230888,0.0,48868057.25867593,True
A4_RULE_LLM_BLEND,2024-01-15,2024-01-16,266390,ETF_006,KODEX 경기소비재,7832.0,7775.0,4845.0,5305.0,460.0,BUY,37946040.0,41548760.0,3602720.0,3602720.0,375903822.0,540.4079999999999,56385.5733,976897809.831976,976841424.258676,965498928.2456852,-0.0119035215185487,0.95,0.05,0.04477267482114,0.042534041080083,0.0388434077936223,0.0425337818075552,48868057.25867593,True
A4_RULE_LLM_BLEND,2024-01-15,2024-01-16,266410,ETF_007,KODEX 필수소비재,6022.0,5922.0,15168.0,22031.0,6863.0,BUY,91341696.0,132670682.0,41328986.0,41328986.0,375903822.0,6199.3479,56385.5733,976897809.831976,976841424.258676,965498928.2456852,-0.0119035215185487,0.95,0.05,0.1429667666743595,0.1358184283406416,0.0935017921840878,0.135815986817598,48868057.25867593,True
A4_RULE_LLM_BLEND,2024-01-15,2024-01-16,266420,ETF_008,KODEX 헬스케어,13413.0,13309.0,13964.0,13566.0,-398.0,SELL,187299132.0,181960758.0,-5338374.0,5338374.0,375903822.0,800.7561000000001,56385.5733,976897809.831976,976841424.258676,965498928.2456852,-0.0119035215185487,0.95,0.05,0.1960823909531502,0.1862782714054926,0.1917284798009886,0.1862746127275364,48868057.25867593,True
A4_RULE_LLM_BLEND,2024-01-15,2024-01-16,315270,ETF_009,TIGER 200 커뮤니케이션서비스,17768.0,17557.0,7171.0,10952.0,3781.0,BUY,127414328.0,194595136.0,67180808.0,67180808.0,375903822.0,10077.1212,56385.5733,976897809.831976,976841424.258676,965498928.2456852,-0.0119035215185487,0.95,0.05,0.2096988229863835,0.1992138818370643,0.1304274886458338,0.1992085216366393,48868057.25867593,True
A4_RULE_LLM_BLEND,2024-01-16,2024-01-17,117460,ETF_001,KODEX 에너지화학,14519.0,14014.0,7357.0,4516.0,-2841.0,SELL,106816283.0,65567804.0,-41248479.0,41248479.0,453381600.0,6187.271849999999,68007.23999999999,965066025.2456852,964998018.0056852,946410041.4285928,-0.0197710077749926,0.95,0.05,0.0715277777777777,0.0679513888888888,0.1106828757885315,0.0679460504338711,48295249.00568521,True
A4_RULE_LLM_BLEND,2024-01-16,2024-01-17,117680,ETF_002,KODEX 철강,8363.0,8134.0,5848.0,3577.0,-2271.0,SELL,48906824.0,29914451.0,-18992373.0,18992373.0,453381600.0,2848.85595,68007.23999999999,965066025.2456852,964998018.0056852,946410041.4285928,-0.0197710077749926,0.95,0.05,0.0326388888888888,0.0310069444444444,0.0506771793023688,0.0309994947573288,48295249.00568521,True
A4_RULE_LLM_BLEND,2024-01-16,2024-01-17,139260,ETF_003,TIGER 200 IT,29978.0,29038.0,3909.0,1316.0,-2593.0,SELL,117184002.0,39451048.0,-77732954.0,77732954.0,453381600.0,11659.9431,68007.23999999999,965066025.2456852,964998018.0056852,946410041.4285928,-0.0197710077749926,0.95,0.05,0.0430555555555555,0.0409027777777777,0.121425891011102,0.0408819989926316,48295249.00568521,True
A4_RULE_LLM_BLEND,2024-01-16,2024-01-17,139270,ETF_004,TIGER 200 금융,5880.0,5717.0,17336.0,22628.0,5292.0,BUY,101935680.0,133052640.0,31116960.0,31116960.0,453381600.0,4667.543999999999,68007.23999999999,965066025.2456852,964998018.0056852,946410041.4285928,-0.0197710077749926,0.95,0.05,0.1451388888888888,0.1378819444444444,0.1056256021177922,0.1378786666059412,48295249.00568521,True
A4_RULE_LLM_BLEND,2024-01-16,2024-01-17,227550,ETF_005,TIGER 200 산업재,6052.0,6019.0,0.0,32294.0,32294.0,BUY,0.0,195443288.0,195443288.0,195443288.0,453381600.0,29316.4932,68007.23999999999,965066025.2456852,964998018.0056852,946410041.4285928,-0.0197710077749926,0.95,0.05,0.2131944444444444,0.2025347222222221,0.0,0.2025323206403192,48295249.00568521,True
A4_RULE_LLM_BLEND,2024-01-16,2024-01-17,266390,ETF_006,KODEX 경기소비재,7727.0,7622.0,5305.0,5355.0,50.0,BUY,40991735.0,41378085.0,386350.0,386350.0,453381600.0,57.95249999999999,68007.23999999999,965066025.2456852,964998018.0056852,946410041.4285928,-0.0197710077749926,0.95,0.05,0.0451388888888888,0.0428819444444444,0.042475575688787,0.0428789326277727,48295249.00568521,True
A4_RULE_LLM_BLEND,2024-01-16,2024-01-17,266410,ETF_007,KODEX 필수소비재,5927.0,5793.0,22031.0,19871.0,-2160.0,SELL,130577737.0,117775417.0,-12802320.0,12802320.0,453381600.0,1920.348,68007.23999999999,965066025.2456852,964998018.0056852,946410041.4285928,-0.0197710077749926,0.95,0.05,0.1284722222222222,0.1220486111111111,0.135304459574937,0.1220473149192583,48295249.00568521,True
A4_RULE_LLM_BLEND,2024-01-16,2024-01-17,266420,ETF_008,KODEX 헬스케어,13284.0,12901.0,13566.0,8866.0,-4700.0,SELL,180210744.0,117775944.0,-62434800.0,62434800.0,453381600.0,9365.22,68007.23999999999,965066025.2456852,964998018.0056852,946410041.4285928,-0.0197710077749926,0.95,0.05,0.1284722222222222,0.1220486111111111,0.1867341086368906,0.1220478610343696,48295249.00568521,True
A4_RULE_LLM_BLEND,2024-01-16,2024-01-17,315270,ETF_009,TIGER 200 커뮤니케이션서비스,17309.0,17026.0,10952.0,10188.0,-764.0,SELL,189568168.0,176344092.0,-13224076.0,13224076.0,453381600.0,1983.6114,68007.23999999999,965066025.2456852,964998018.0056852,946410041.4285928,-0.0197710077749926,0.95,0.05,0.192361111111111,0.1827430555555555,0.1964302576621532,0.1827403670366513,48295249.00568521,True
A4_RULE_LLM_BLEND,2024-01-17,2024-01-18,117460,ETF_001,KODEX 에너지화학,14048.0,13980.0,4516.0,2971.0,-1545.0,SELL,63440768.0,41736608.0,-21704160.0,21704160.0,457607209.0,3255.624,68641.08135,947368572.4285928,947299931.3472428,945329608.32803,-0.001141612042632,0.95,0.05,0.0463881837064389,0.044068774521117,0.0669652444110202,0.0440584936395408,47416124.34724271,True
A4_RULE_LLM_BLEND,2024-01-17,2024-01-18,117680,ETF_002,KODEX 철강,8111.0,8106.0,3577.0,3187.0,-390.0,SELL,29013047.0,25849757.0,-3163290.0,3163290.0,457607209.0,474.4935,68641.08135,947368572.4285928,947299931.3472428,945329608.32803,-0.001141612042632,0.95,0.05,0.0287329794599584,0.0272963304869605,0.0306248780510257,0.0272878273761053,47416124.34724271,True
A4_RULE_LLM_BLEND,2024-01-17,2024-01-18,139260,ETF_003,TIGER 200 IT,29092.0,29262.0,1316.0,2746.0,1430.0,BUY,38285072.0,79886632.0,41601560.0,41601560.0,457607209.0,6240.234,68641.08135,947368572.4285928,947299931.3472428,945329608.32803,-0.001141612042632,0.95,0.05,0.0887722132471728,0.0843336025848142,0.040412013987181,0.0843308748965978,47416124.34724271,True
A4_RULE_LLM_BLEND,2024-01-17,2024-01-18,139270,ETF_004,TIGER 200 금융,5717.0,5631.0,22628.0,22468.0,-160.0,SELL,129364276.0,128449556.0,-914720.0,914720.0,457607209.0,137.20799999999997,68641.08135,947368572.4285928,947299931.3472428,945329608.32803,-0.001141612042632,0.95,0.05,0.1427359796907454,0.1355991807062081,0.1365511584032947,0.1355954452749933,47416124.34724271,True
A4_RULE_LLM_BLEND,2024-01-17,2024-01-18,227550,ETF_005,TIGER 200 산업재,6028.0,6009.0,32294.0,0.0,-32294.0,SELL,194668232.0,0.0,-194668232.0,194668232.0,457607209.0,29200.2348,68641.08135,947368572.4285928,947299931.3472428,945329608.32803,-0.001141612042632,0.95,0.05,0.0,0.0,0.2054831009445091,0.0,47416124.34724271,True
A4_RULE_LLM_BLEND,2024-01-17,2024-01-18,266390,ETF_006,KODEX 경기소비재,7660.0,7607.0,5355.0,21455.0,16100.0,BUY,41019300.0,164345300.0,123326000.0,123326000.0,457607209.0,18498.9,68641.08135,947368572.4285928,947299931.3472428,945329608.32803,-0.001141612042632,0.95,0.05,0.1826217401338564,0.1734906531271636,0.0432981430815743,0.1734881367153372,47416124.34724271,True
A4_RULE_LLM_BLEND,2024-01-17,2024-01-18,266410,ETF_007,KODEX 필수소비재,5803.0,5865.0,19871.0,28052.0,8181.0,BUY,115311413.0,162785756.0,47474343.0,47474343.0,457607209.0,7121.151449999999,68641.08135,947368572.4285928,947299931.3472428,945329608.32803,-0.001141612042632,0.95,0.05,0.1808908377567505,0.1718462958689129,0.1217175831623774,0.1718418323629426,47416124.34724271,True
A4_RULE_LLM_BLEND,2024-01-17,2024-01-18,266420,ETF_008,KODEX 헬스케어,12931.0,12797.0,8866.0,10166.0,1300.0,BUY,114646246.0,131456546.0,16810300.0,16810300.0,457607209.0,2521.545,68641.08135,947368572.4285928,947299931.3472428,945329608.32803,-0.001141612042632,0.95,0.05,0.1460823909531502,0.1387782714054927,0.121015462552344,0.1387697197581799,47416124.34724271,True
A4_RULE_LLM_BLEND,2024-01-17,2024-01-18,315270,ETF_009,TIGER 200 커뮤니케이션서비스,17012.0,17060.0,10188.0,9721.0,-467.0,SELL,173318256.0,165373652.0,-7944604.0,7944604.0,457607209.0,1191.6906,68641.08135,947368572.4285928,947299931.3472428,945329608.32803,-0.001141612042632,0.95,0.05,0.183775675051927,0.1745868912993307,0.1829470187676758,0.1745736978623094,47416124.34724271,True
A4_RULE_LLM_BLEND,2024-01-18,2024-01-19,117460,ETF_001,KODEX 에너지화학,14014.0,13720.0,2971.0,4482.0,1511.0,BUY,41635594.0,62810748.0,21175154.0,21175154.0,552518126.0,3176.2731,82877.71889999999,952249809.32803,952166931.60913,946062359.5127852,0.00077512772085,0.95,0.05,0.0694444444444444,0.0659722222222222,0.0437233944203998,0.0659661094235356,47666789.60912991,True
A4_RULE_LLM_BLEND,2024-01-18,2024-01-19,117680,ETF_002,KODEX 철강,8115.0,8106.0,3187.0,5495.0,2308.0,BUY,25862505.0,44591925.0,18729420.0,18729420.0,552518126.0,2809.413,82877.71889999999,952249809.32803,952166931.60913,946062359.5127852,0.00077512772085,0.95,0.05,0.0493055555555555,0.0468402777777777,0.027159370100846,0.0468320454320348,47666789.60912991,True
A4_RULE_LLM_BLEND,2024-01-18,2024-01-19,139260,ETF_003,TIGER 200 IT,29729.0,29905.0,2746.0,4035.0,1289.0,BUY,81635834.0,119956515.0,38320681.0,38320681.0,552518126.0,5748.10215,82877.71889999999,952249809.32803,952166931.60913,946062359.5127852,0.00077512772085,0.95,0.05,0.1326388888888889,0.1260069444444444,0.0857294306602251,0.1259826517995931,47666789.60912991,True
A4_RULE_LLM_BLEND,2024-01-18,2024-01-19,139270,ETF_004,TIGER 200 금융,5631.0,5663.0,22468.0,11713.0,-10755.0,SELL,126517308.0,65955903.0,-60561405.0,60561405.0,552518126.0,9084.210749999998,82877.71889999999,952249809.32803,952166931.60913,946062359.5127852,0.00077512772085,0.95,0.05,0.0729166666666666,0.0692708333333333,0.1328614684515179,0.0692692644645164,47666789.60912991,True
A4_RULE_LLM_BLEND,2024-01-18,2024-01-19,227550,ETF_005,TIGER 200 산업재,6033.0,5971.0,0.0,32798.0,32798.0,BUY,0.0,197870334.0,197870334.0,197870334.0,552518126.0,29680.5501,82877.71889999999,952249809.32803,952166931.60913,946062359.5127852,0.00077512772085,0.95,0.05,0.21875,0.2078124999999999,0.0,0.2078105502630781,47666789.60912991,True
A4_RULE_LLM_BLEND,2024-01-18,2024-01-19,266390,ETF_006,KODEX 경기소비재,7684.0,7650.0,21455.0,5722.0,-15733.0,SELL,164860220.0,43967848.0,-120892372.0,120892372.0,552518126.0,18133.8558,82877.71889999999,952249809.32803,952166931.60913,946062359.5127852,0.00077512772085,0.95,0.05,0.0486111111111111,0.0461805555555555,0.1731270706332157,0.0461766172930368,47666789.60912991,True
A4_RULE_LLM_BLEND,2024-01-18,2024-01-19,266410,ETF_007,KODEX 필수소비재,5898.0,5869.0,28052.0,21940.0,-6112.0,SELL,165450696.0,129402120.0,-36048576.0,36048576.0,552518126.0,5407.2864,82877.71889999999,952249809.32803,952166931.60913,946062359.5127852,0.00077512772085,0.95,0.05,0.1430555555555555,0.1359027777777777,0.1737471558190732,0.1359027663156866,47666789.60912991,True
A4_RULE_LLM_BLEND,2024-01-18,2024-01-19,266420,ETF_008,KODEX 헬스케어,12916.0,12737.0,10166.0,8316.0,-1850.0,SELL,131304056.0,107409456.0,-23894600.0,23894600.0,552518126.0,3584.19,82877.71889999999,952249809.32803,952166931.60913,946062359.5127852,0.00077512772085,0.95,0.05,0.11875,0.1128125,0.1378882460398252,0.1128052786064326,47666789.60912991,True
A4_RULE_LLM_BLEND,2024-01-18,2024-01-19,315270,ETF_009,TIGER 200 커뮤니케이션서비스,17237.0,17045.0,9721.0,7689.0,-2032.0,SELL,167560877.0,132535293.0,-35025584.0,35025584.0,552518126.0,5253.8376,82877.71889999999,952249809.32803,952166931.60913,946062359.5127852,0.00077512772085,0.95,0.05,0.1465277777777777,0.1392013888888888,0.1759631510120668,0.1391933374287845,47666789.60912991,True
A4_RULE_LLM_BLEND,2024-01-19,2024-01-22,117460,ETF_001,KODEX 에너지화학,13818.0,13240.0,4482.0,1452.0,-3030.0,SELL,61932276.0,20063736.0,-41868540.0,41868540.0,371929001.0,6280.280999999999,55789.35015,950569212.5127852,950513423.1626352,945285411.1415726,-0.0008212443539269,0.95,0.05,0.0222222222222222,0.0211111111111111,0.0651528317820066,0.0211083142132197,47568628.16263533,True
A4_RULE_LLM_BLEND,2024-01-19,2024-01-22,117680,ETF_002,KODEX 철강,8144.0,7999.0,5495.0,2386.0,-3109.0,SELL,44751280.0,19431584.0,-25319696.0,25319696.0,371929001.0,3797.9544,55789.35015,950569212.5127852,950513423.1626352,945285411.1415726,-0.0008212443539269,0.95,0.05,0.0215277777777777,0.0204513888888888,0.0470784025096942,0.0204432504859799,47568628.16263533,True
A4_RULE_LLM_BLEND,2024-01-19,2024-01-22,139260,ETF_003,TIGER 200 IT,30260.0,29856.0,4035.0,5429.0,1394.0,BUY,122099100.0,164281540.0,42182440.0,42182440.0,371929001.0,6327.365999999999,55789.35015,950569212.5127852,950513423.1626352,945285411.1415726,-0.0008212443539269,0.95,0.05,0.1819444444444444,0.1728472222222222,0.1284484058527802,0.1728345292098952,47568628.16263533,True
A4_RULE_LLM_BLEND,2024-01-19,2024-01-22,139270,ETF_004,TIGER 200 금융,5717.0,5663.0,11713.0,11517.0,-196.0,SELL,66963221.0,65842689.0,-1120532.0,1120532.0,371929001.0,168.0798,55789.35015,950569212.5127852,950513423.1626352,945285411.1415726,-0.0008212443539269,0.95,0.05,0.0729166666666666,0.0692708333333333,0.0704453922118788,0.0692706566740763,47568628.16263533,True
A4_RULE_LLM_BLEND,2024-01-19,2024-01-22,227550,ETF_005,TIGER 200 산업재,5909.0,5933.0,32798.0,17510.0,-15288.0,SELL,193803382.0,103466590.0,-90336792.0,90336792.0,371929001.0,13550.5188,55789.35015,950569212.5127852,950513423.1626352,945285411.1415726,-0.0008212443539269,0.95,0.05,0.1145833333333333,0.1088541666666666,0.2038814001641078,0.1088533706927951,47568628.16263533,True
A4_RULE_LLM_BLEND,2024-01-19,2024-01-22,266390,ETF_006,KODEX 경기소비재,7650.0,7679.0,5722.0,17541.0,11819.0,BUY,43773300.0,134188650.0,90415350.0,90415350.0,371929001.0,13562.3025,55789.35015,950569212.5127852,950513423.1626352,945285411.1415726,-0.0008212443539269,0.95,0.05,0.1486111111111111,0.1411805555555555,0.0460495663269877,0.1411749131890376,47568628.16263533,True
A4_RULE_LLM_BLEND,2024-01-19,2024-01-22,266410,ETF_007,KODEX 필수소비재,5912.0,5888.0,21940.0,30971.0,9031.0,BUY,129709280.0,183100552.0,53391272.0,53391272.0,371929001.0,8008.690799999999,55789.35015,950569212.5127852,950513423.1626352,945285411.1415726,-0.0008212443539269,0.95,0.05,0.2027777777777777,0.1926388888888889,0.1364543247273069,0.192633315362103,47568628.16263533,True
A4_RULE_LLM_BLEND,2024-01-19,2024-01-22,266420,ETF_008,KODEX 헬스케어,12836.0,13000.0,8316.0,6253.0,-2063.0,SELL,106744176.0,80263508.0,-26480668.0,26480668.0,371929001.0,3972.1002,55789.35015,950569212.5127852,950513423.1626352,945285411.1415726,-0.0008212443539269,0.95,0.05,0.0888888888888888,0.0844444444444444,0.1122950066074902,0.0844422667203792,47568628.16263533,True
A4_RULE_LLM_BLEND,2024-01-19,2024-01-22,315270,ETF_009,TIGER 200 커뮤니케이션서비스,17313.0,16993.0,7689.0,7642.0,-47.0,SELL,133119657.0,132305946.0,-813711.0,813711.0,371929001.0,122.05665,55789.35015,950569212.5127852,950513423.1626352,945285411.1415726,-0.0008212443539269,0.95,0.05,0.1465277777777777,0.1392013888888889,0.1400420455950855,0.1391941899776433,47568628.16263533,True
A4_RULE_LLM_BLEND,2024-01-22,2024-01-23,117460,ETF_001,KODEX 에너지화학,13264.0,13343.0,1452.0,943.0,-509.0,SELL,19259328.0,12507952.0,-6751376.0,6751376.0,429760830.0,1012.7064,64464.12449999999,948752898.1415726,948688434.0170726,952772084.427597,0.0079200135723909,0.95,0.05,0.0138888888888888,0.0131944444444444,0.0202996249473655,0.0131844676834912,47508085.01707256,True
A4_RULE_LLM_BLEND,2024-01-22,2024-01-23,117680,ETF_002,KODEX 철강,7999.0,8055.0,2386.0,15257.0,12871.0,BUY,19085614.0,122040743.0,102955129.0,102955129.0,429760830.0,15443.26935,64464.12449999999,948752898.1415726,948688434.0170726,952772084.427597,0.0079200135723909,0.95,0.05,0.1354166666666666,0.1286458333333333,0.0201165277464607,0.1286415419688818,47508085.01707256,True
A4_RULE_LLM_BLEND,2024-01-22,2024-01-23,139260,ETF_003,TIGER 200 IT,29953.0,29885.0,5429.0,6226.0,797.0,BUY,162614837.0,186487378.0,23872541.0,23872541.0,429760830.0,3580.88115,64464.12449999999,948752898.1415726,948688434.0170726,952772084.427597,0.0079200135723909,0.95,0.05,0.2069444444444444,0.1965972222222222,0.1713985141110311,0.1965738922423122,47508085.01707256,True
A4_RULE_LLM_BLEND,2024-01-22,2024-01-23,139270,ETF_004,TIGER 200 금융,5762.0,5839.0,11517.0,17487.0,5970.0,BUY,66360954.0,100760094.0,34399140.0,34399140.0,429760830.0,5159.870999999999,64464.12449999999,948752898.1415726,948688434.0170726,952772084.427597,0.0079200135723909,0.95,0.05,0.1118055555555555,0.1062152777777777,0.0699454559032057,0.106209889766809,47508085.01707256,True
A4_RULE_LLM_BLEND,2024-01-22,2024-01-23,227550,ETF_005,TIGER 200 산업재,5933.0,5881.0,17510.0,7806.0,-9704.0,SELL,103886830.0,46312998.0,-57573832.0,57573832.0,429760830.0,8636.074799999999,64464.12449999999,948752898.1415726,948688434.0170726,952772084.427597,0.0079200135723909,0.95,0.05,0.0513888888888888,0.0488194444444444,0.1094983005622377,0.0488179220272506,47508085.01707256,True
A4_RULE_LLM_BLEND,2024-01-22,2024-01-23,266390,ETF_006,KODEX 경기소비재,7650.0,7755.0,17541.0,4663.0,-12878.0,SELL,134188650.0,35671950.0,-98516700.0,98516700.0,429760830.0,14777.505,64464.12449999999,948752898.1415726,948688434.0170726,952772084.427597,0.0079200135723909,0.95,0.05,0.0395833333333333,0.0376041666666666,0.1414368802064796,0.0376013332943806,47508085.01707256,True
A4_RULE_LLM_BLEND,2024-01-22,2024-01-23,266410,ETF_007,KODEX 필수소비재,5931.0,5931.0,30971.0,30074.0,-897.0,SELL,183689001.0,178368894.0,-5320107.0,5320107.0,429760830.0,798.01605,64464.12449999999,948752898.1415726,948688434.0170726,952772084.427597,0.0079200135723909,0.95,0.05,0.1979166666666666,0.1880208333333333,0.1936110038344146,0.1880163050420303,47508085.01707256,True
A4_RULE_LLM_BLEND,2024-01-22,2024-01-23,266420,ETF_008,KODEX 헬스케어,13075.0,13085.0,6253.0,2680.0,-3573.0,SELL,81757975.0,35041000.0,-46716975.0,46716975.0,429760830.0,7007.546249999999,64464.12449999999,948752898.1415726,948688434.0170726,952772084.427597,0.0079200135723909,0.95,0.05,0.0388888888888888,0.0369444444444444,0.0861741504665212,0.0369362571983979,47508085.01707256,True
A4_RULE_LLM_BLEND,2024-01-22,2024-01-23,315270,ETF_009,TIGER 200 커뮤니케이션서비스,17055.0,17251.0,7642.0,10788.0,3146.0,BUY,130334310.0,183989340.0,53655030.0,53655030.0,429760830.0,8048.254499999998,64464.12449999999,948752898.1415726,948688434.0170726,952772084.427597,0.0079200135723909,0.95,0.05,0.2041666666666666,0.1939583333333333,0.1373743471617322,0.1939407432437285,47508085.01707256,True
A4_RULE_LLM_BLEND,2024-01-23,2024-01-24,117460,ETF_001,KODEX 에너지화학,13470.0,13504.0,943.0,1253.0,310.0,BUY,12702210.0,16877910.0,4175700.0,4175700.0,399835296.0,626.3549999999999,59975.29439999999,952098814.427597,952038839.1331972,948710044.0932494,-0.0042633914246007,0.95,0.05,0.0186741363211951,0.0177404295051353,0.0133412727833681,0.0177281737952695,47661053.13319707,True
A4_RULE_LLM_BLEND,2024-01-23,2024-01-24,117680,ETF_002,KODEX 철강,8055.0,8017.0,15257.0,15982.0,725.0,BUY,122895135.0,128735010.0,5839875.0,5839875.0,399835296.0,875.9812499999999,59975.29439999999,952098814.427597,952038839.1331972,948710044.0932494,-0.0042633914246007,0.95,0.05,0.1423436041083099,0.1352264239028944,0.1290781304815348,0.1352203342010809,47661053.13319707,True
A4_RULE_LLM_BLEND,2024-01-23,2024-01-24,139260,ETF_003,TIGER 200 IT,29905.0,29710.0,6226.0,6646.0,420.0,BUY,186188530.0,198748630.0,12560100.0,12560100.0,399835296.0,1884.015,59975.29439999999,952098814.427597,952038839.1331972,948710044.0932494,-0.0042633914246007,0.95,0.05,0.2197712418300653,0.2087826797385621,0.1955558889251813,0.2087610524177298,47661053.13319707,True
A4_RULE_LLM_BLEND,2024-01-23,2024-01-24,139270,ETF_004,TIGER 200 금융,5839.0,5902.0,17487.0,14795.0,-2692.0,SELL,102106593.0,86388005.0,-15718588.0,15718588.0,399835296.0,2357.7881999999995,59975.29439999999,952098814.427597,952038839.1331972,948710044.0932494,-0.0042633914246007,0.95,0.05,0.0955182072829131,0.0907422969187674,0.1072436930418683,0.0907400007741844,47661053.13319707,True
A4_RULE_LLM_BLEND,2024-01-23,2024-01-24,227550,ETF_005,TIGER 200 산업재,5838.0,5885.0,7806.0,18830.0,11024.0,BUY,45571428.0,109929540.0,64358112.0,64358112.0,399835296.0,9653.716799999998,59975.29439999999,952098814.427597,952038839.1331972,948710044.0932494,-0.0042633914246007,0.95,0.05,0.1215452847805789,0.1154680205415499,0.0478641789165524,0.1154674951077495,47661053.13319707,True
A4_RULE_LLM_BLEND,2024-01-23,2024-01-24,266390,ETF_006,KODEX 경기소비재,7722.0,7765.0,4663.0,7586.0,2923.0,BUY,36007686.0,58579092.0,22571406.0,22571406.0,399835296.0,3385.7109,59975.29439999999,952098814.427597,952038839.1331972,948710044.0932494,-0.0042633914246007,0.95,0.05,0.0647759103641456,0.0615371148459383,0.0378192740652112,0.0615301493932059,47661053.13319707,True
A4_RULE_LLM_BLEND,2024-01-23,2024-01-24,266410,ETF_007,KODEX 필수소비재,5974.0,5931.0,30074.0,32671.0,2597.0,BUY,179662076.0,195176554.0,15514478.0,15514478.0,399835296.0,2327.1717,59975.29439999999,952098814.427597,952038839.1331972,948710044.0932494,-0.0042633914246007,0.95,0.05,0.2158029878618114,0.2050128384687208,0.1887010815237839,0.2050090248184647,47661053.13319707,True
A4_RULE_LLM_BLEND,2024-01-23,2024-01-24,266420,ETF_008,KODEX 헬스케어,13115.0,12851.0,2680.0,8383.0,5703.0,BUY,35148200.0,109943045.0,74794845.0,74794845.0,399835296.0,11219.226749999998,59975.29439999999,952098814.427597,952038839.1331972,948710044.0932494,-0.0042633914246007,0.95,0.05,0.1215686274509803,0.1154901960784313,0.0369165463367698,0.1154816804533939,47661053.13319707,True
A4_RULE_LLM_BLEND,2024-01-23,2024-01-24,315270,ETF_009,TIGER 200 커뮤니케이션서비스,17084.0,17213.0,10788.0,0.0,-10788.0,SELL,184302192.0,0.0,-184302192.0,184302192.0,399835296.0,27645.3288,59975.29439999999,952098814.427597,952038839.1331972,948710044.0932494,-0.0042633914246007,0.95,0.05,0.0,0.0,0.1935746470924897,0.0,47661053.13319707,True
A4_RULE_LLM_BLEND,2024-01-24,2024-01-25,117460,ETF_001,KODEX 에너지화학,13549.0,13553.0,1253.0,276.0,-977.0,SELL,16976897.0,3739524.0,-13237373.0,13237373.0,497493296.0,1985.60595,74623.9944,947883150.0932494,947808526.0988494,949401191.267546,0.0007285125509102,0.95,0.05,0.0041666666666666,0.0039583333333333,0.0179103268143651,0.0039454424570242,47448892.098849416,True
A4_RULE_LLM_BLEND,2024-01-24,2024-01-25,117680,ETF_002,KODEX 철강,8003.0,8050.0,15982.0,10235.0,-5747.0,SELL,127903946.0,81910705.0,-45993241.0,45993241.0,497493296.0,6898.98615,74623.9944,947883150.0932494,947808526.0988494,949401191.267546,0.0007285125509102,0.95,0.05,0.0909722222222222,0.0864236111111111,0.1349364064414661,0.0864211523155862,47448892.098849416,True
A4_RULE_LLM_BLEND,2024-01-24,2024-01-25,139260,ETF_003,TIGER 200 IT,29764.0,29355.0,6646.0,4600.0,-2046.0,SELL,197811544.0,136914400.0,-60897144.0,60897144.0,497493296.0,9134.5716,74623.9944,947883150.0932494,947808526.0988494,949401191.267546,0.0007285125509102,0.95,0.05,0.1520833333333333,0.1444791666666667,0.2086876889630752,0.1444536488435437,47448892.098849416,True
A4_RULE_LLM_BLEND,2024-01-24,2024-01-25,139270,ETF_004,TIGER 200 금융,5920.0,5907.0,14795.0,7182.0,-7613.0,SELL,87586400.0,42517440.0,-45068960.0,45068960.0,497493296.0,6760.343999999999,74623.9944,947883150.0932494,947808526.0988494,949401191.267546,0.0007285125509102,0.95,0.05,0.0472222222222222,0.0448611111111111,0.0924021067273783,0.0448586806609563,47448892.098849416,True
A4_RULE_LLM_BLEND,2024-01-24,2024-01-25,227550,ETF_005,TIGER 200 산업재,5781.0,5852.0,18830.0,6489.0,-12341.0,SELL,108856230.0,37512909.0,-71343321.0,71343321.0,497493296.0,10701.49815,74623.9944,947883150.0932494,947808526.0988494,949401191.267546,0.0007285125509102,0.95,0.05,0.0416666666666666,0.0395833333333333,0.1148414021172241,0.0395785730630657,47448892.098849416,True
A4_RULE_LLM_BLEND,2024-01-24,2024-01-25,266390,ETF_006,KODEX 경기소비재,7751.0,7765.0,7586.0,13310.0,5724.0,BUY,58799086.0,103165810.0,44366724.0,44366724.0,497493296.0,6655.008599999999,74623.9944,947883150.0932494,947808526.0988494,949401191.267546,0.0007285125509102,0.95,0.05,0.1145833333333333,0.1088541666666666,0.062031998347281,0.1088466785845737,47448892.098849416,True
A4_RULE_LLM_BLEND,2024-01-24,2024-01-25,266410,ETF_007,KODEX 필수소비재,5960.0,5970.0,32671.0,30635.0,-2036.0,SELL,194719160.0,182584600.0,-12134560.0,12134560.0,497493296.0,1820.184,74623.9944,947883150.0932494,947808526.0988494,949401191.267546,0.0007285125509102,0.95,0.05,0.2027777777777777,0.1926388888888889,0.2054252784015036,0.1926386975558371,47448892.098849416,True
A4_RULE_LLM_BLEND,2024-01-24,2024-01-25,266420,ETF_008,KODEX 헬스케어,12831.0,12966.0,8383.0,8674.0,291.0,BUY,107562273.0,111296094.0,3733821.0,3733821.0,497493296.0,560.0731499999999,74623.9944,947883150.0932494,947808526.0988494,949401191.267546,0.0007285125509102,0.95,0.05,0.1236111111111111,0.1174305555555555,0.1134763003112972,0.1174246600820223,47448892.098849416,True
A4_RULE_LLM_BLEND,2024-01-24,2024-01-25,315270,ETF_009,TIGER 200 커뮤니케이션서비스,17036.0,17117.0,0.0,11782.0,11782.0,BUY,0.0,200718152.0,200718152.0,200718152.0,497493296.0,30107.7228,74623.9944,947883150.0932494,947808526.0988494,949401191.267546,0.0007285125509102,0.95,0.05,0.2229166666666666,0.2117708333333333,0.0,0.2117707812000275,47448892.098849416,True
A4_RULE_LLM_BLEND,2024-01-25,2024-01-26,117460,ETF_001,KODEX 에너지화학,13460.0,13823.0,276.0,1902.0,1626.0,BUY,3714960.0,25600920.0,21885960.0,21885960.0,191860212.0,3282.894,28779.0318,946794314.267546,946765535.235746,955596044.748426,0.0065250112785399,0.95,0.05,0.0284722222222222,0.0270486111111111,0.0039237244499867,0.027040401289666,47420264.23574591,True
A4_RULE_LLM_BLEND,2024-01-25,2024-01-26,117680,ETF_002,KODEX 철강,7984.0,8148.0,10235.0,2972.0,-7263.0,SELL,81716240.0,23728448.0,-57987792.0,57987792.0,191860212.0,8698.1688,28779.0318,946794314.267546,946765535.235746,955596044.748426,0.0065250112785399,0.95,0.05,0.0263888888888888,0.0250694444444444,0.0863083341002284,0.0250626444635963,47420264.23574591,True
A4_RULE_LLM_BLEND,2024-01-25,2024-01-26,139260,ETF_003,TIGER 200 IT,29160.0,29306.0,4600.0,5611.0,1011.0,BUY,134136000.0,163616760.0,29480760.0,29480760.0,191860212.0,4422.114,28779.0318,946794314.267546,946765535.235746,955596044.748426,0.0065250112785399,0.95,0.05,0.1819444444444444,0.1728472222222222,0.1416738545834737,0.1728165569094772,47420264.23574591,True
A4_RULE_LLM_BLEND,2024-01-25,2024-01-26,139270,ETF_004,TIGER 200 금융,5979.0,5988.0,7182.0,9401.0,2219.0,BUY,42941178.0,56208579.0,13267401.0,13267401.0,191860212.0,1990.11015,28779.0318,946794314.267546,946765535.235746,955596044.748426,0.0065250112785399,0.95,0.05,0.0625,0.059375,0.0453542837688246,0.0593690590838881,47420264.23574591,True
A4_RULE_LLM_BLEND,2024-01-25,2024-01-26,227550,ETF_005,TIGER 200 산업재,5833.0,5885.0,6489.0,7174.0,685.0,BUY,37850337.0,41845942.0,3995605.0,3995605.0,191860212.0,599.34075,28779.0318,946794314.267546,946765535.235746,955596044.748426,0.0065250112785399,0.95,0.05,0.0465277777777777,0.0442013888888888,0.0399773598442884,0.0441988437924922,47420264.23574591,True
A4_RULE_LLM_BLEND,2024-01-25,2024-01-26,266390,ETF_006,KODEX 경기소비재,7717.0,7798.0,13310.0,16835.0,3525.0,BUY,102713270.0,129915695.0,27202425.0,27202425.0,191860212.0,4080.36375,28779.0318,946794314.267546,946765535.235746,955596044.748426,0.0065250112785399,0.95,0.05,0.1444444444444444,0.1372222222222222,0.1084853050469156,0.1372205579575209,47420264.23574591,True
A4_RULE_LLM_BLEND,2024-01-25,2024-01-26,266410,ETF_007,KODEX 필수소비재,5950.0,5965.0,30635.0,30652.0,17.0,BUY,182278250.0,182379400.0,101150.0,101150.0,191860212.0,15.172499999999998,28779.0318,946794314.267546,946765535.235746,955596044.748426,0.0065250112785399,0.95,0.05,0.2027777777777777,0.1926388888888889,0.192521487775318,0.1926341773252099,47420264.23574591,True
A4_RULE_LLM_BLEND,2024-01-25,2024-01-26,266420,ETF_008,KODEX 헬스케어,12916.0,13274.0,8674.0,6866.0,-1808.0,SELL,112033384.0,88681256.0,-23352128.0,23352128.0,191860212.0,3502.8191999999995,28779.0318,946794314.267546,946765535.235746,955596044.748426,0.0065250112785399,0.95,0.05,0.0986111111111111,0.0936805555555555,0.1183291685551266,0.093667600582776,47420264.23574591,True
A4_RULE_LLM_BLEND,2024-01-25,2024-01-26,315270,ETF_009,TIGER 200 커뮤니케이션서비스,17141.0,17332.0,11782.0,10931.0,-851.0,SELL,201955262.0,187368271.0,-14586991.0,14586991.0,191860212.0,2188.04865,28779.0318,946794314.267546,946765535.235746,955596044.748426,0.0065250112785399,0.95,0.05,0.2083333333333333,0.1979166666666666,0.2133042615029174,0.1979035611529152,47420264.23574591,True
A4_RULE_LLM_BLEND,2024-01-26,2024-01-29,117460,ETF_001,KODEX 에너지화학,13798.0,13990.0,1902.0,4504.0,2602.0,BUY,26243796.0,62146192.0,35902396.0,35902396.0,228681432.0,5385.359399999999,34302.214799999994,961283213.748426,961248911.533626,960461703.7213964,0.005091752942794,0.95,0.05,0.0680555555555555,0.0646527777777777,0.0273007950463058,0.064651508318328,48108470.53362608,True
A4_RULE_LLM_BLEND,2024-01-26,2024-01-29,117680,ETF_002,KODEX 철강,8195.0,8363.0,2972.0,3482.0,510.0,BUY,24355540.0,28534990.0,4179450.0,4179450.0,228681432.0,626.9174999999999,34302.214799999994,961283213.748426,961248911.533626,960461703.7213964,0.005091752942794,0.95,0.05,0.03125,0.0296875,0.0253364873657036,0.0296853288025822,48108470.53362608,True
A4_RULE_LLM_BLEND,2024-01-26,2024-01-29,139260,ETF_003,TIGER 200 IT,29311.0,29569.0,5611.0,5365.0,-246.0,SELL,164464021.0,157253515.0,-7210506.0,7210506.0,228681432.0,1081.5758999999998,34302.214799999994,961283213.748426,961248911.533626,960461703.7213964,0.005091752942794,0.95,0.05,0.1722222222222222,0.1636111111111111,0.1710879984668506,0.1635929186636057,48108470.53362608,True
A4_RULE_LLM_BLEND,2024-01-26,2024-01-29,139270,ETF_004,TIGER 200 금융,6024.0,6065.0,9401.0,20738.0,11337.0,BUY,56631624.0,124925712.0,68294088.0,68294088.0,228681432.0,10244.113199999998,34302.214799999994,961283213.748426,961248911.533626,960461703.7213964,0.005091752942794,0.95,0.05,0.1368055555555555,0.1299652777777777,0.0589125277442126,0.1299618761603455,48108470.53362608,True
A4_RULE_LLM_BLEND,2024-01-26,2024-01-29,227550,ETF_005,TIGER 200 산업재,5885.0,5828.0,7174.0,4956.0,-2218.0,SELL,42218990.0,29166060.0,-13052930.0,13052930.0,228681432.0,1957.9395,34302.214799999994,961283213.748426,961248911.533626,960461703.7213964,0.005091752942794,0.95,0.05,0.0319444444444444,0.0303472222222222,0.0439194083451965,0.0303418392989043,48108470.53362608,True
A4_RULE_LLM_BLEND,2024-01-26,2024-01-29,266390,ETF_006,KODEX 경기소비재,7846.0,7918.0,16835.0,13821.0,-3014.0,SELL,132087410.0,108439566.0,-23647844.0,23647844.0,228681432.0,3547.1766,34302.214799999994,961283213.748426,961248911.533626,960461703.7213964,0.005091752942794,0.95,0.05,0.11875,0.1128125,0.1374073822478794,0.1128111196786583,48108470.53362608,True
A4_RULE_LLM_BLEND,2024-01-26,2024-01-29,266410,ETF_007,KODEX 필수소비재,6003.0,5979.0,30652.0,31586.0,934.0,BUY,184003956.0,189610758.0,5606802.0,5606802.0,228681432.0,841.0202999999999,34302.214799999994,961283213.748426,961248911.533626,960461703.7213964,0.005091752942794,0.95,0.05,0.2076388888888889,0.1972569444444444,0.191414926806529,0.1972545879895824,48108470.53362608,True
A4_RULE_LLM_BLEND,2024-01-26,2024-01-29,266420,ETF_008,KODEX 헬스케어,13503.0,13299.0,6866.0,1972.0,-4894.0,SELL,92711598.0,26627916.0,-66083682.0,66083682.0,228681432.0,9912.552299999998,34302.214799999994,961283213.748426,961248911.533626,960461703.7213964,0.005091752942794,0.95,0.05,0.0291666666666666,0.0277083333333333,0.0964456641643419,0.0277013744104182,48108470.53362608,True
A4_RULE_LLM_BLEND,2024-01-26,2024-01-29,315270,ETF_009,TIGER 200 커뮤니케이션서비스,17486.0,17108.0,10931.0,10662.0,-269.0,SELL,191139466.0,186435732.0,-4703734.0,4703734.0,228681432.0,705.5600999999999,34302.214799999994,961283213.748426,961248911.533626,960461703.7213964,0.005091752942794,0.95,0.05,0.2041666666666666,0.1939583333333333,0.1988378276727324,0.1939515663040396,48108470.53362608,True
A4_RULE_LLM_BLEND,2024-01-29,2024-01-30,117460,ETF_001,KODEX 에너지화학,13994.0,13911.0,4504.0,346.0,-4158.0,SELL,63028976.0,4841924.0,-58187052.0,58187052.0,495051986.0,8728.057799999999,74257.79789999999,964296307.7213964,964222049.9234964,962572845.5381416,0.0021980489264334,0.95,0.05,0.0052991830426142,0.0050342238904835,0.0653626644583298,0.0050215860551873,48276658.923496366,True
A4_RULE_LLM_BLEND,2024-01-29,2024-01-30,117680,ETF_002,KODEX 철강,8448.0,8331.0,3482.0,7350.0,3868.0,BUY,29415936.0,62092800.0,32676864.0,32676864.0,495051986.0,4901.529599999999,74257.79789999999,964296307.7213964,964222049.9234964,962572845.5381416,0.0021980489264334,0.95,0.05,0.0677886950761757,0.0643992603223669,0.0305050799888563,0.0643967849572892,48276658.923496366,True
A4_RULE_LLM_BLEND,2024-01-29,2024-01-30,139260,ETF_003,TIGER 200 IT,29729.0,29613.0,5365.0,4512.0,-853.0,SELL,159496085.0,134137248.0,-25358837.0,25358837.0,495051986.0,3803.82555,74257.79789999999,964296307.7213964,964222049.9234964,962572845.5381416,0.0021980489264334,0.95,0.05,0.1464605873261205,0.1391375579598145,0.1654015303417313,0.1391144788802981,48276658.923496366,True
A4_RULE_LLM_BLEND,2024-01-29,2024-01-30,139270,ETF_004,TIGER 200 금융,6106.0,6115.0,20738.0,28648.0,7910.0,BUY,126626228.0,174924688.0,48298460.0,48298460.0,495051986.0,7244.768999999998,74257.79789999999,964296307.7213964,964222049.9234964,962572845.5381416,0.0021980489264334,0.95,0.05,0.1909693088982115,0.1814208434533009,0.1313146457018113,0.1814153576075956,48276658.923496366,True
A4_RULE_LLM_BLEND,2024-01-29,2024-01-30,227550,ETF_005,TIGER 200 산업재,5824.0,5762.0,4956.0,0.0,-4956.0,SELL,28863744.0,0.0,-28863744.0,28863744.0,495051986.0,4329.5616,74257.79789999999,964296307.7213964,964222049.9234964,962572845.5381416,0.0021980489264334,0.95,0.05,0.0,0.0,0.0299324427241707,0.0,48276658.923496366,True
A4_RULE_LLM_BLEND,2024-01-29,2024-01-30,266390,ETF_006,KODEX 경기소비재,7946.0,7932.0,13821.0,18992.0,5171.0,BUY,109821666.0,150910432.0,41088766.0,41088766.0,495051986.0,6163.314899999999,74257.79789999999,964296307.7213964,964222049.9234964,962572845.5381416,0.0021980489264334,0.95,0.05,0.1647549127842791,0.1565171671450651,0.1138878839632865,0.1565100404123444,48276658.923496366,True
A4_RULE_LLM_BLEND,2024-01-29,2024-01-30,266410,ETF_007,KODEX 필수소비재,6017.0,5974.0,31586.0,21749.0,-9837.0,SELL,190052962.0,130863733.0,-59189229.0,59189229.0,495051986.0,8878.384349999998,74257.79789999999,964296307.7213964,964222049.9234964,962572845.5381416,0.0021980489264334,0.95,0.05,0.1428637668359461,0.1357205784941488,0.1970897954064446,0.1357194984395794,48276658.923496366,True
A4_RULE_LLM_BLEND,2024-01-29,2024-01-30,266420,ETF_008,KODEX 헬스케어,13423.0,13448.0,1972.0,11310.0,9338.0,BUY,26470156.0,151814130.0,125343974.0,125343974.0,495051986.0,18801.5961,74257.79789999999,964296307.7213964,964222049.9234964,962572845.5381416,0.0021980489264334,0.95,0.05,0.1657341576506955,0.1574474497681607,0.0274502305858125,0.1574472705867339,48276658.923496366,True
A4_RULE_LLM_BLEND,2024-01-29,2024-01-30,315270,ETF_009,TIGER 200 커뮤니케이션서비스,17108.0,17175.0,10662.0,6217.0,-4445.0,SELL,182405496.0,106360436.0,-76045060.0,76045060.0,495051986.0,11406.758999999998,74257.79789999999,964296307.7213964,964222049.9234964,962572845.5381416,0.0021980489264334,0.95,0.05,0.1161293883859571,0.1103229189666593,0.1891591770490325,0.1103069941290379,48276658.923496366,True
A4_RULE_LLM_BLEND,2024-01-30,2024-01-31,117460,ETF_001,KODEX 에너지화학,13784.0,13798.0,346.0,550.0,204.0,BUY,4769264.0,7581200.0,2811936.0,2811936.0,181235740.0,421.7904,27185.361,958815602.5381416,958788417.1771418,957215772.0515608,-0.0055653694277922,0.95,0.05,0.0083333333333333,0.0079166666666666,0.0049741201409061,0.0079070625637307,48006763.177141786,True
A4_RULE_LLM_BLEND,2024-01-30,2024-01-31,117680,ETF_002,KODEX 철강,8260.0,8246.0,7350.0,15392.0,8042.0,BUY,60711000.0,127137920.0,66426920.0,66426920.0,181235740.0,9964.038,27185.361,958815602.5381416,958788417.1771418,957215772.0515608,-0.0055653694277922,0.95,0.05,0.1395833333333333,0.1326041666666666,0.063318744333413,0.1326026866014074,48006763.177141786,True
A4_RULE_LLM_BLEND,2024-01-30,2024-01-31,139260,ETF_003,TIGER 200 IT,29364.0,29321.0,4512.0,4415.0,-97.0,SELL,132490368.0,129642060.0,-2848308.0,2848308.0,181235740.0,427.24619999999993,27185.361,958815602.5381416,958788417.1771418,957215772.0515608,-0.0055653694277922,0.95,0.05,0.1423611111111111,0.1352430555555555,0.1381812807898373,0.1352144619995423,48006763.177141786,True
A4_RULE_LLM_BLEND,2024-01-30,2024-01-31,139270,ETF_004,TIGER 200 금융,6115.0,6247.0,28648.0,28239.0,-409.0,SELL,175182520.0,172681485.0,-2501035.0,2501035.0,181235740.0,375.15525,27185.361,958815602.5381416,958788417.1771418,957215772.0515608,-0.0055653694277922,0.95,0.05,0.1895833333333333,0.1801041666666666,0.1827072061992558,0.1801038497194278,48006763.177141786,True
A4_RULE_LLM_BLEND,2024-01-30,2024-01-31,227550,ETF_005,TIGER 200 산업재,5762.0,5762.0,0.0,3732.0,3732.0,BUY,0.0,21503784.0,21503784.0,21503784.0,181235740.0,3225.5675999999994,27185.361,958815602.5381416,958788417.1771418,957215772.0515608,-0.0055653694277922,0.95,0.05,0.0236111111111111,0.0224305555555555,0.0,0.0224280807055547,48006763.177141786,True
A4_RULE_LLM_BLEND,2024-01-30,2024-01-31,266390,ETF_006,KODEX 경기소비재,7903.0,7880.0,18992.0,16487.0,-2505.0,SELL,150093776.0,130296761.0,-19797015.0,19797015.0,181235740.0,2969.55225,27185.361,958815602.5381416,958788417.1771418,957215772.0515608,-0.0055653694277922,0.95,0.05,0.1430555555555555,0.1359027777777777,0.1565408151501469,0.1358973039991647,48006763.177141786,True
A4_RULE_LLM_BLEND,2024-01-30,2024-01-31,266410,ETF_007,KODEX 필수소비재,5974.0,5846.0,21749.0,21176.0,-573.0,SELL,129928526.0,126505424.0,-3423102.0,3423102.0,181235740.0,513.4653,27185.361,958815602.5381416,958788417.1771418,957215772.0515608,-0.0055653694277922,0.95,0.05,0.1388888888888889,0.1319444444444444,0.13550939894601,0.1319430040388435,48006763.177141786,True
A4_RULE_LLM_BLEND,2024-01-30,2024-01-31,266420,ETF_008,KODEX 헬스케어,13498.0,13264.0,11310.0,7310.0,-4000.0,SELL,152662380.0,98670380.0,-53992000.0,53992000.0,181235740.0,8098.799999999998,27185.361,958815602.5381416,958788417.1771418,957215772.0515608,-0.0055653694277922,0.95,0.05,0.1083333333333333,0.1029166666666666,0.1592197494449169,0.1029115269148793,48006763.177141786,True
A4_RULE_LLM_BLEND,2024-01-30,2024-01-31,315270,ETF_009,TIGER 200 커뮤니케이션서비스,16840.0,16821.0,6217.0,5746.0,-471.0,SELL,104694280.0,96762640.0,-7931640.0,7931640.0,181235740.0,1189.746,27185.361,958815602.5381416,958788417.1771418,957215772.0515608,-0.0055653694277922,0.95,0.05,0.1062499999999999,0.1009374999999999,0.1091912560901774,0.1009217865656824,48006763.177141786,True
A4_RULE_LLM_BLEND,2024-01-31,2024-02-01,117460,ETF_001,KODEX 에너지화학,13730.0,14146.0,550.0,4858.0,4308.0,BUY,7551500.0,66700340.0,59148840.0,59148840.0,323864506.0,8872.326,48579.6759,954471222.0515608,954422642.3756608,974212771.2967412,0.0177567062113397,0.95,0.05,0.0735758445572974,0.0698970523294325,0.0079117105110499,0.0698855381657497,47769332.37566078,True
A4_RULE_LLM_BLEND,2024-01-31,2024-02-01,117680,ETF_002,KODEX 철강,8167.0,8410.0,15392.0,11152.0,-4240.0,SELL,125706464.0,91078384.0,-34628080.0,34628080.0,323864506.0,5194.212,48579.6759,954471222.0515608,954422642.3756608,974212771.2967412,0.0177567062113397,0.95,0.05,0.1004526385515566,0.0954300066239788,0.1317027282706374,0.0954277276713554,47769332.37566078,True
A4_RULE_LLM_BLEND,2024-01-31,2024-02-01,139260,ETF_003,TIGER 200 IT,29194.0,29705.0,4415.0,3260.0,-1155.0,SELL,128891510.0,95172440.0,-33719070.0,33719070.0,323864506.0,5057.8605,48579.6759,954471222.0515608,954422642.3756608,974212771.2967412,0.0177567062113397,0.95,0.05,0.1049790240671229,0.0997300728637668,0.1350397026355156,0.0997172906157229,47769332.37566078,True
A4_RULE_LLM_BLEND,2024-01-31,2024-02-01,139270,ETF_004,TIGER 200 금융,6256.0,6569.0,28239.0,26653.0,-1586.0,SELL,176663184.0,166741168.0,-9922016.0,9922016.0,323864506.0,1488.3023999999998,48579.6759,954471222.0515608,954422642.3756608,974212771.2967412,0.0177567062113397,0.95,0.05,0.1839037315080592,0.1747085449326562,0.1850901105433817,0.1747037010615792,47769332.37566078,True
A4_RULE_LLM_BLEND,2024-01-31,2024-02-01,227550,ETF_005,TIGER 200 산업재,5786.0,5866.0,3732.0,0.0,-3732.0,SELL,21593352.0,0.0,-21593352.0,21593352.0,323864506.0,3239.0028,48579.6759,954471222.0515608,954422642.3756608,974212771.2967412,0.0177567062113397,0.95,0.05,0.0,0.0,0.0226233662169371,0.0,47769332.37566078,True
A4_RULE_LLM_BLEND,2024-01-31,2024-02-01,266390,ETF_006,KODEX 경기소비재,7880.0,8075.0,16487.0,16721.0,234.0,BUY,129917560.0,131761480.0,1843920.0,1843920.0,323864506.0,276.588,48579.6759,954471222.0515608,954422642.3756608,974212771.2967412,0.0177567062113397,0.95,0.05,0.1453245749613601,0.1380583462132921,0.136114695758718,0.1380535982172756,47769332.37566078,True
A4_RULE_LLM_BLEND,2024-01-31,2024-02-01,266410,ETF_007,KODEX 필수소비재,5831.0,5879.0,21176.0,10548.0,-10628.0,SELL,123477256.0,61505388.0,-61971868.0,61971868.0,323864506.0,9295.7802,48579.6759,954471222.0515608,954422642.3756608,974212771.2967412,0.0177567062113397,0.95,0.05,0.0678350629277986,0.0644433097814087,0.1293671858797328,0.0644425071967136,47769332.37566078,True
A4_RULE_LLM_BLEND,2024-01-31,2024-02-01,266420,ETF_008,KODEX 헬스케어,13130.0,13165.0,7310.0,9982.0,2672.0,BUY,95980300.0,131063660.0,35083360.0,35083360.0,323864506.0,5262.504,48579.6759,954471222.0515608,954422642.3756608,974212771.2967412,0.0177567062113397,0.95,0.05,0.1445517774343122,0.1373241885625966,0.10055861065533,0.1373224546242621,47769332.37566078,True
A4_RULE_LLM_BLEND,2024-01-31,2024-02-01,315270,ETF_009,TIGER 200 커뮤니케이션서비스,16825.0,16921.0,5746.0,9666.0,3920.0,BUY,96676450.0,162630450.0,65954000.0,65954000.0,323864506.0,9893.1,48579.6759,954471222.0515608,954422642.3756608,974212771.2967412,0.0177567062113397,0.95,0.05,0.1793773459924928,0.1704084786928681,0.1012879673754873,0.1703966804425294,47769332.37566078,True
A4_RULE_LLM_BLEND,2024-02-01,2024-02-02,117460,ETF_001,KODEX 에너지화학,14078.0,14426.0,4858.0,6721.0,1863.0,BUY,68390924.0,94618238.0,26227314.0,26227314.0,236470386.0,3934.0971,35470.5579,982498268.2967412,982462797.7388412,1003439889.28364,0.030000754299285,0.95,0.05,0.1013888888888888,0.0963194444444444,0.0696092056412094,0.0963071967892991,49193708.738841176,True
A4_RULE_LLM_BLEND,2024-02-01,2024-02-02,117680,ETF_002,KODEX 철강,8438.0,8583.0,11152.0,10984.0,-168.0,SELL,94100576.0,92682992.0,-1417584.0,1417584.0,236470386.0,212.6376,35470.5579,982498268.2967412,982462797.7388412,1003439889.28364,0.030000754299285,0.95,0.05,0.0993055555555555,0.0943402777777777,0.0957768364957352,0.0943374061728463,49193708.738841176,True
A4_RULE_LLM_BLEND,2024-02-01,2024-02-02,139260,ETF_003,TIGER 200 IT,29715.0,30542.0,3260.0,2944.0,-316.0,SELL,96870900.0,87480960.0,-9389940.0,9389940.0,236470386.0,1408.491,35470.5579,982498268.2967412,982462797.7388412,1003439889.28364,0.030000754299285,0.95,0.05,0.09375,0.0890625,0.0985965096589283,0.0890425166238755,49193708.738841176,True
A4_RULE_LLM_BLEND,2024-02-01,2024-02-02,139270,ETF_004,TIGER 200 금융,6628.0,6905.0,26653.0,25914.0,-739.0,SELL,176656084.0,171757992.0,-4898092.0,4898092.0,236470386.0,734.7138,35470.5579,982498268.2967412,982462797.7388412,1003439889.28364,0.030000754299285,0.95,0.05,0.1840277777777778,0.1748263888888889,0.1798029469367421,0.1748239143459728,49193708.738841176,True
A4_RULE_LLM_BLEND,2024-02-01,2024-02-02,227550,ETF_005,TIGER 200 산업재,5900.0,6019.0,0.0,5163.0,5163.0,BUY,0.0,30461700.0,30461700.0,30461700.0,236470386.0,4569.255,35470.5579,982498268.2967412,982462797.7388412,1003439889.28364,0.030000754299285,0.95,0.05,0.0326388888888888,0.0310069444444444,0.0,0.031005448827282,49193708.738841176,True
A4_RULE_LLM_BLEND,2024-02-01,2024-02-02,266390,ETF_006,KODEX 경기소비재,8075.0,8228.0,16721.0,18220.0,1499.0,BUY,135022075.0,147126500.0,12104425.0,12104425.0,236470386.0,1815.66375,35470.5579,982498268.2967412,982462797.7388412,1003439889.28364,0.030000754299285,0.95,0.05,0.1576388888888889,0.1497569444444444,0.1374272905682309,0.1497527441635599,49193708.738841176,True
A4_RULE_LLM_BLEND,2024-02-01,2024-02-02,266410,ETF_007,KODEX 필수소비재,6012.0,5998.0,10548.0,18651.0,8103.0,BUY,63414576.0,112129812.0,48715236.0,48715236.0,236470386.0,7307.2854,35470.5579,982498268.2967412,982462797.7388412,1003439889.28364,0.030000754299285,0.95,0.05,0.1201388888888888,0.1141319444444444,0.0645442114721845,0.1141313566865525,49193708.738841176,True
A4_RULE_LLM_BLEND,2024-02-01,2024-02-02,266420,ETF_008,KODEX 헬스케어,13130.0,13547.0,9982.0,7700.0,-2282.0,SELL,131063660.0,101101000.0,-29962660.0,29962660.0,236470386.0,4494.399,35470.5579,982498268.2967412,982462797.7388412,1003439889.28364,0.030000754299285,0.95,0.05,0.1083333333333333,0.1029166666666666,0.1333983623474593,0.1029056776833546,49193708.738841176,True
A4_RULE_LLM_BLEND,2024-02-01,2024-02-02,315270,ETF_009,TIGER 200 커뮤니케이션서비스,17505.0,17701.0,9666.0,5479.0,-4187.0,SELL,169203330.0,95909895.0,-73293435.0,73293435.0,236470386.0,10994.01525,35470.5579,982498268.2967412,982462797.7388412,1003439889.28364,0.030000754299285,0.95,0.05,0.1027777777777777,0.0976388888888889,0.1722174333124585,0.0976219101840178,49193708.738841176,True
A4_RULE_LLM_BLEND,2024-02-02,2024-02-05,117460,ETF_001,KODEX 에너지화학,14308.0,14396.0,6721.0,2575.0,-4146.0,SELL,96164068.0,36843100.0,-59320968.0,59320968.0,367866562.0,8898.145199999999,55179.9843,1000981359.28364,1000926179.29934,992906187.1402464,-0.0104975915905772,0.95,0.05,0.03875,0.0368125,0.0960697890206672,0.0368090082585217,50091913.29934013,True
A4_RULE_LLM_BLEND,2024-02-02,2024-02-05,117680,ETF_002,KODEX 철강,8546.0,8522.0,10984.0,18729.0,7745.0,BUY,93869264.0,160058034.0,66188770.0,66188770.0,367866562.0,9928.3155,55179.9843,1000981359.28364,1000926179.29934,992906187.1402464,-0.0104975915905772,0.95,0.05,0.1683333333333333,0.1599166666666666,0.0937772348399956,0.1599099287342474,50091913.29934013,True
A4_RULE_LLM_BLEND,2024-02-02,2024-02-05,139260,ETF_003,TIGER 200 IT,30420.0,30031.0,2944.0,5548.0,2604.0,BUY,89556480.0,168770160.0,79213680.0,79213680.0,367866562.0,11882.052,55179.9843,1000981359.28364,1000926179.29934,992906187.1402464,-0.0104975915905772,0.95,0.05,0.1775,0.168625,0.0894686790811886,0.1686139932099099,50091913.29934013,True
A4_RULE_LLM_BLEND,2024-02-02,2024-02-05,139270,ETF_004,TIGER 200 금융,6927.0,6732.0,25914.0,21162.0,-4752.0,SELL,179506278.0,146589174.0,-32917104.0,32917104.0,367866562.0,4937.5656,55179.9843,1000981359.28364,1000926179.29934,992906187.1402464,-0.0104975915905772,0.95,0.05,0.1541666666666666,0.1464583333333333,0.1793302905545264,0.1464535317705588,50091913.29934013,True
A4_RULE_LLM_BLEND,2024-02-02,2024-02-05,227550,ETF_005,TIGER 200 산업재,5923.0,5952.0,5163.0,7424.0,2261.0,BUY,30580449.0,43972352.0,13391903.0,13391903.0,367866562.0,2008.78545,55179.9843,1000981359.28364,1000926179.29934,992906187.1402464,-0.0104975915905772,0.95,0.05,0.04625,0.0439375,0.0305504680145943,0.0439316634027707,50091913.29934013,True
A4_RULE_LLM_BLEND,2024-02-02,2024-02-05,266390,ETF_006,KODEX 경기소비재,8214.0,8233.0,18220.0,17621.0,-599.0,SELL,149659080.0,144738894.0,-4920186.0,4920186.0,367866562.0,738.0278999999999,55179.9843,1000981359.28364,1000926179.29934,992906187.1402464,-0.0104975915905772,0.95,0.05,0.1522222222222222,0.144611111111111,0.1495123546627328,0.1446049638758763,50091913.29934013,True
A4_RULE_LLM_BLEND,2024-02-02,2024-02-05,266410,ETF_007,KODEX 필수소비재,6022.0,5955.0,18651.0,8245.0,-10406.0,SELL,112316322.0,49651390.0,-62664932.0,62664932.0,367866562.0,9399.7398,55179.9843,1000981359.28364,1000926179.29934,992906187.1402464,-0.0104975915905772,0.95,0.05,0.0522222222222222,0.0496111111111111,0.1122062073966892,0.049605446462352,50091913.29934013,True
A4_RULE_LLM_BLEND,2024-02-02,2024-02-05,266420,ETF_008,KODEX 헬스케어,13552.0,13423.0,7700.0,5886.0,-1814.0,SELL,104350400.0,79767072.0,-24583328.0,24583328.0,367866562.0,3687.4992,55179.9843,1000981359.28364,1000926179.29934,992906187.1402464,-0.0104975915905772,0.95,0.05,0.0838888888888888,0.0796944444444444,0.104248095164009,0.0796932617506696,50091913.29934013,True
A4_RULE_LLM_BLEND,2024-02-02,2024-02-05,315270,ETF_009,TIGER 200 커뮤니케이션서비스,17481.0,17371.0,5479.0,6890.0,1411.0,BUY,95778399.0,120444090.0,24665691.0,24665691.0,367866562.0,3699.85365,55179.9843,1000981359.28364,1000926179.29934,992906187.1402464,-0.0104975915905772,0.95,0.05,0.1266666666666666,0.1203333333333333,0.0956844981294602,0.1203326403994271,50091913.29934013,True
A4_RULE_LLM_BLEND,2024-02-05,2024-02-06,117460,ETF_001,KODEX 에너지화학,14220.0,14239.0,2575.0,1561.0,-1014.0,SELL,36616500.0,22197420.0,-14419080.0,14419080.0,199069923.0,2162.862,29860.48845,990070523.1402464,990040662.6517963,987640407.3471316,-0.0053034011282385,0.95,0.05,0.0236111111111111,0.0224305555555555,0.0369837290821081,0.0224207154689432,49575531.65179634,True
A4_RULE_LLM_BLEND,2024-02-05,2024-02-06,117680,ETF_002,KODEX 철강,8466.0,8377.0,18729.0,16510.0,-2219.0,SELL,158559714.0,139773660.0,-18786054.0,18786054.0,199069923.0,2817.9081,29860.48845,990070523.1402464,990040662.6517963,987640407.3471316,-0.0053034011282385,0.95,0.05,0.1486111111111111,0.1411805555555555,0.1601499189139474,0.1411797164225761,49575531.65179634,True
A4_RULE_LLM_BLEND,2024-02-05,2024-02-06,139260,ETF_003,TIGER 200 IT,30031.0,30197.0,5548.0,4784.0,-764.0,SELL,166611988.0,143668304.0,-22943684.0,22943684.0,199069923.0,3441.5525999999995,29860.48845,990070523.1402464,990040662.6517963,987640407.3471316,-0.0053034011282385,0.95,0.05,0.1527777777777778,0.1451388888888889,0.1682829496544853,0.1451135386855611,49575531.65179634,True
A4_RULE_LLM_BLEND,2024-02-05,2024-02-06,139270,ETF_004,TIGER 200 금융,6709.0,6632.0,21162.0,24435.0,3273.0,BUY,141975858.0,163934415.0,21958557.0,21958557.0,199069923.0,3293.78355,29860.48845,990070523.1402464,990040662.6517963,987640407.3471316,-0.0053034011282385,0.95,0.05,0.1743055555555555,0.1655902777777778,0.1433997424240946,0.1655835171061623,49575531.65179634,True
A4_RULE_LLM_BLEND,2024-02-05,2024-02-06,227550,ETF_005,TIGER 200 산업재,5876.0,5885.0,7424.0,3556.0,-3868.0,SELL,43623424.0,20895056.0,-22728368.0,22728368.0,199069923.0,3409.2552,29860.48845,990070523.1402464,990040662.6517963,987640407.3471316,-0.0053034011282385,0.95,0.05,0.0222222222222222,0.0211111111111111,0.044060925944586,0.0211052503076319,49575531.65179634,True
A4_RULE_LLM_BLEND,2024-02-05,2024-02-06,266390,ETF_006,KODEX 경기소비재,8238.0,8262.0,17621.0,19107.0,1486.0,BUY,145161798.0,157403466.0,12241668.0,12241668.0,199069923.0,1836.2502,29860.48845,990070523.1402464,990040662.6517963,987640407.3471316,-0.0053034011282385,0.95,0.05,0.1673611111111111,0.1589930555555555,0.1466176344080869,0.15898686987098,49575531.65179634,True
A4_RULE_LLM_BLEND,2024-02-05,2024-02-06,266410,ETF_007,KODEX 필수소비재,5960.0,5946.0,8245.0,16876.0,8631.0,BUY,49140200.0,100580960.0,51440760.0,51440760.0,199069923.0,7716.114,29860.48845,990070523.1402464,990040662.6517963,987640407.3471316,-0.0053034011282385,0.95,0.05,0.1069444444444444,0.1015972222222222,0.0496330300230937,0.1015927565344606,49575531.65179634,True
A4_RULE_LLM_BLEND,2024-02-05,2024-02-06,266420,ETF_008,KODEX 헬스케어,13353.0,13527.0,5886.0,6945.0,1059.0,BUY,78595758.0,92736585.0,14140827.0,14140827.0,199069923.0,2121.12405,29860.48845,990070523.1402464,990040662.6517963,987640407.3471316,-0.0053034011282385,0.95,0.05,0.0986111111111111,0.0936805555555555,0.0793839995869331,0.0936694708595176,49575531.65179634,True
A4_RULE_LLM_BLEND,2024-02-05,2024-02-06,315270,ETF_009,TIGER 200 커뮤니케이션서비스,17371.0,17136.0,6890.0,5715.0,-1175.0,SELL,119686190.0,99275265.0,-20410925.0,20410925.0,199069923.0,3061.63875,29860.48845,990070523.1402464,990040662.6517963,987640407.3471316,-0.0053034011282385,0.95,0.05,0.1055555555555555,0.1002777777777777,0.1208865300023138,0.1002739268648764,49575531.65179634,True
A4_RULE_LLM_BLEND,2024-02-06,2024-02-07,117460,ETF_001,KODEX 에너지화학,14514.0,14519.0,1561.0,6350.0,4789.0,BUY,22656354.0,92163900.0,69507546.0,69507546.0,392401227.0,10426.131899999998,58860.18405,994686425.3471316,994627565.1630818,1004130687.8801794,0.0166966442547056,0.95,0.05,0.0975470066998054,0.0926696563648152,0.0227773833267034,0.0926617190474593,49798692.163081765,True
A4_RULE_LLM_BLEND,2024-02-06,2024-02-07,117680,ETF_002,KODEX 철강,8466.0,8635.0,16510.0,17006.0,496.0,BUY,139773660.0,143972796.0,4199136.0,4199136.0,392401227.0,629.8703999999999,58860.18405,994686425.3471316,994627565.1630818,1004130687.8801794,0.0166966442547056,0.95,0.05,0.1523719472660471,0.1447533499027447,0.1405203252383995,0.144750458405397,49798692.163081765,True
A4_RULE_LLM_BLEND,2024-02-06,2024-02-07,139260,ETF_003,TIGER 200 IT,30357.0,30659.0,4784.0,5658.0,874.0,BUY,145227888.0,171759906.0,26532018.0,26532018.0,392401227.0,3979.8027,58860.18405,994686425.3471316,994627565.1630818,1004130687.8801794,0.0166966442547056,0.95,0.05,0.1818024637994381,0.1727123406094662,0.1460036895037725,0.1726876591961713,49798692.163081765,True
A4_RULE_LLM_BLEND,2024-02-06,2024-02-07,139270,ETF_004,TIGER 200 금융,6632.0,6778.0,24435.0,31973.0,7538.0,BUY,162052920.0,212044936.0,49992016.0,49992016.0,392401227.0,7498.802399999999,58860.18405,994686425.3471316,994627565.1630818,1004130687.8801794,0.0166966442547056,0.95,0.05,0.2244164685541387,0.2131956451264318,0.162918600144207,0.213190286924365,49798692.163081765,True
A4_RULE_LLM_BLEND,2024-02-06,2024-02-07,227550,ETF_005,TIGER 200 산업재,5923.0,5952.0,3556.0,0.0,-3556.0,SELL,21062188.0,0.0,-21062188.0,21062188.0,392401227.0,3159.3282,58860.18405,994686425.3471316,994627565.1630818,1004130687.8801794,0.0166966442547056,0.95,0.05,0.0,0.0,0.0211747013564094,0.0,49798692.163081765,True
A4_RULE_LLM_BLEND,2024-02-06,2024-02-07,266390,ETF_006,KODEX 경기소비재,8309.0,8362.0,19107.0,24623.0,5516.0,BUY,158760063.0,204592507.0,45832444.0,45832444.0,392401227.0,6874.866599999999,58860.18405,994686425.3471316,994627565.1630818,1004130687.8801794,0.0166966442547056,0.95,0.05,0.2165279878971255,0.2057015885022692,0.1596081528352967,0.2056976039734576,49798692.163081765,True
A4_RULE_LLM_BLEND,2024-02-06,2024-02-07,266410,ETF_007,KODEX 필수소비재,6012.0,5979.0,16876.0,3294.0,-13582.0,SELL,101458512.0,19803528.0,-81654984.0,81654984.0,392401227.0,12248.2476,58860.18405,994686425.3471316,994627565.1630818,1004130687.8801794,0.0166966442547056,0.95,0.05,0.0209639074994596,0.0199157121244867,0.1020004992674876,0.019910495841479,49798692.163081765,True
A4_RULE_LLM_BLEND,2024-02-06,2024-02-07,266420,ETF_008,KODEX 헬스케어,13597.0,13478.0,6945.0,1944.0,-5001.0,SELL,94431165.0,26432568.0,-67998597.0,67998597.0,392401227.0,10199.78955,58860.18405,994686425.3471316,994627565.1630818,1004130687.8801794,0.0166966442547056,0.95,0.05,0.0279878971255673,0.0265885022692889,0.0949356124640434,0.0265753422947473,49798692.163081765,True
A4_RULE_LLM_BLEND,2024-02-06,2024-02-07,315270,ETF_009,TIGER 200 커뮤니케이션서비스,17442.0,17265.0,5715.0,4246.0,-1469.0,SELL,99681030.0,74058732.0,-25622298.0,25622298.0,392401227.0,3843.3447,58860.18405,994686425.3471316,994627565.1630818,1004130687.8801794,0.0166966442547056,0.95,0.05,0.0783823211584179,0.074463205100497,0.1002135220305361,0.0744587568190482,49798692.163081765,True
A4_RULE_LLM_BLEND,2024-02-07,2024-02-08,117460,ETF_001,KODEX 에너지화학,14808.0,14808.0,6350.0,2427.0,-3923.0,SELL,94030800.0,35939016.0,-58091784.0,58091784.0,290614423.0,8713.767599999997,43592.16344999999,1010973170.8801794,1010929578.7167294,1012418099.9073272,0.0082533201376839,0.95,0.05,0.0374258329529895,0.03555454130534,0.0930101833643462,0.0355504644009139,50601424.7167294,True
A4_RULE_LLM_BLEND,2024-02-07,2024-02-08,117680,ETF_002,KODEX 철강,8649.0,8611.0,17006.0,20986.0,3980.0,BUY,147084894.0,181507914.0,34423020.0,34423020.0,290614423.0,5163.452999999999,43592.16344999999,1010973170.8801794,1010929578.7167294,1012418099.9073272,0.0082533201376839,0.95,0.05,0.189000456412597,0.1795504335919671,0.1454884246551707,0.1795455567047563,50601424.7167294,True
A4_RULE_LLM_BLEND,2024-02-07,2024-02-08,139260,ETF_003,TIGER 200 IT,30771.0,30795.0,5658.0,5816.0,158.0,BUY,174102318.0,178964136.0,4861818.0,4861818.0,290614423.0,729.2726999999999,43592.16344999999,1010973170.8801794,1010929578.7167294,1012418099.9073272,0.0082533201376839,0.95,0.05,0.1863760839799178,0.1770572797809219,0.1722125997156007,0.1770292805431378,50601424.7167294,True
A4_RULE_LLM_BLEND,2024-02-07,2024-02-08,139270,ETF_004,TIGER 200 금융,6832.0,6977.0,31973.0,31557.0,-416.0,SELL,218439536.0,215597424.0,-2842112.0,2842112.0,290614423.0,426.3167999999999,43592.16344999999,1010973170.8801794,1010929578.7167294,1012418099.9073272,0.0082533201376839,0.95,0.05,0.2244979461433136,0.2132730488361479,0.2160685785655626,0.2132665108816765,50601424.7167294,True
A4_RULE_LLM_BLEND,2024-02-07,2024-02-08,227550,ETF_005,TIGER 200 산업재,6000.0,6019.0,0.0,16349.0,16349.0,BUY,0.0,98094000.0,98094000.0,98094000.0,290614423.0,14714.1,43592.16344999999,1010973170.8801794,1010929578.7167294,1012418099.9073272,0.0082533201376839,0.95,0.05,0.102145139205842,0.0970378822455499,0.0,0.0970334651049781,50601424.7167294,True
A4_RULE_LLM_BLEND,2024-02-07,2024-02-08,266390,ETF_006,KODEX 경기소비재,8453.0,8362.0,24623.0,24456.0,-167.0,SELL,208138219.0,206726568.0,-1411651.0,1411651.0,290614423.0,211.74765,43592.16344999999,1010973170.8801794,1010929578.7167294,1012418099.9073272,0.0082533201376839,0.95,0.05,0.2152555910543131,0.2044928115015974,0.2058790727540173,0.204491561382958,50601424.7167294,True
A4_RULE_LLM_BLEND,2024-02-07,2024-02-08,266410,ETF_007,KODEX 필수소비재,6036.0,5950.0,3294.0,4538.0,1244.0,BUY,19882584.0,27391368.0,7508784.0,7508784.0,290614423.0,1126.3176,43592.16344999999,1010973170.8801794,1010929578.7167294,1012418099.9073272,0.0082533201376839,0.95,0.05,0.0285257873117298,0.0270994979461433,0.019666777094282,0.0270952285665342,50601424.7167294,True
A4_RULE_LLM_BLEND,2024-02-07,2024-02-08,266420,ETF_008,KODEX 헬스케어,13468.0,13358.0,1944.0,1196.0,-748.0,SELL,26181792.0,16107728.0,-10074064.0,10074064.0,290614423.0,1511.1095999999998,43592.16344999999,1010973170.8801794,1010929578.7167294,1012418099.9073272,0.0082533201376839,0.95,0.05,0.0167731629392971,0.0159345047923322,0.0258976130664332,0.0159335806757648,50601424.7167294,True
A4_RULE_LLM_BLEND,2024-02-07,2024-02-08,315270,ETF_009,TIGER 200 커뮤니케이션서비스,17265.0,17275.0,4246.0,0.0,-4246.0,SELL,73307190.0,0.0,-73307190.0,73307190.0,290614423.0,10996.078499999998,43592.16344999999,1010973170.8801794,1010929578.7167294,1012418099.9073272,0.0082533201376839,0.95,0.05,0.0,0.0,0.0725115088229066,0.0,50601424.7167294,True
A4_RULE_LLM_BLEND,2024-02-08,2024-02-13,117460,ETF_001,KODEX 에너지화학,14857.0,15033.0,2427.0,6990.0,4563.0,BUY,36057939.0,103850430.0,67792491.0,67792491.0,450505442.0,10168.873649999998,67575.81629999999,1015770015.9073272,1015702440.0910271,1021742512.6392322,0.0092100415162059,0.95,0.05,0.1076388888888889,0.1022569444444444,0.035498132879805,0.1022449350330328,50867128.09102726,True
A4_RULE_LLM_BLEND,2024-02-08,2024-02-13,117680,ETF_002,KODEX 철강,8677.0,8616.0,20986.0,5019.0,-15967.0,SELL,182095522.0,43549863.0,-138545659.0,138545659.0,450505442.0,20781.84885,67575.81629999999,1015770015.9073272,1015702440.0910271,1021742512.6392322,0.0092100415162059,0.95,0.05,0.0451388888888888,0.0428819444444444,0.1792684556034515,0.0428765958227855,50867128.09102726,True
A4_RULE_LLM_BLEND,2024-02-08,2024-02-13,139260,ETF_003,TIGER 200 IT,30795.0,31360.0,5816.0,6331.0,515.0,BUY,179103720.0,194963145.0,15859425.0,15859425.0,450505442.0,2378.91375,67575.81629999999,1015770015.9073272,1015702440.0910271,1021742512.6392322,0.0092100415162059,0.95,0.05,0.2020833333333333,0.1919791666666666,0.176323101878546,0.1919490761315168,50867128.09102726,True
A4_RULE_LLM_BLEND,2024-02-08,2024-02-13,139270,ETF_004,TIGER 200 금융,6986.0,6964.0,31557.0,27720.0,-3837.0,SELL,220457202.0,193651920.0,-26805282.0,26805282.0,450505442.0,4020.792299999999,67575.81629999999,1015770015.9073272,1015702440.0910271,1021742512.6392322,0.0092100415162059,0.95,0.05,0.2006944444444444,0.1906597222222222,0.2170345634814575,0.1906581222573856,50867128.09102726,True
A4_RULE_LLM_BLEND,2024-02-08,2024-02-13,227550,ETF_005,TIGER 200 산업재,6047.0,6080.0,16349.0,7313.0,-9036.0,SELL,98862403.0,44221711.0,-54640692.0,54640692.0,450505442.0,8196.103799999999,67575.81629999999,1015770015.9073272,1015702440.0910271,1021742512.6392322,0.0092100415162059,0.95,0.05,0.0458333333333333,0.0435416666666666,0.0973275460505615,0.0435380572641302,50867128.09102726,True
A4_RULE_LLM_BLEND,2024-02-08,2024-02-13,266390,ETF_006,KODEX 경기소비재,8395.0,8328.0,24456.0,23865.0,-591.0,SELL,205308120.0,200346675.0,-4961445.0,4961445.0,450505442.0,744.2167499999999,67575.81629999999,1015770015.9073272,1015702440.0910271,1021742512.6392322,0.0092100415162059,0.95,0.05,0.2076388888888889,0.1972569444444444,0.2021206737596112,0.1972493784518671,50867128.09102726,True
A4_RULE_LLM_BLEND,2024-02-08,2024-02-13,266410,ETF_007,KODEX 필수소비재,6008.0,5927.0,4538.0,4461.0,-77.0,SELL,27264304.0,26801688.0,-462616.0,462616.0,450505442.0,69.3924,67575.81629999999,1015770015.9073272,1015702440.0910271,1021742512.6392322,0.0092100415162059,0.95,0.05,0.0277777777777777,0.0263888888888888,0.0268410206769555,0.0263873423377795,50867128.09102726,True
A4_RULE_LLM_BLEND,2024-02-08,2024-02-13,266420,ETF_008,KODEX 헬스케어,13388.0,13801.0,1196.0,9259.0,8063.0,BUY,16012048.0,123959492.0,107947444.0,107947444.0,450505442.0,16192.116599999998,67575.81629999999,1015770015.9073272,1015702440.0910271,1021742512.6392322,0.0092100415162059,0.95,0.05,0.1284722222222222,0.1220486111111111,0.015763458016328,0.1220431172626608,50867128.09102726,True
A4_RULE_LLM_BLEND,2024-02-08,2024-02-13,315270,ETF_009,TIGER 200 커뮤니케이션서비스,17452.0,17471.0,0.0,1919.0,1919.0,BUY,0.0,33490388.0,33490388.0,33490388.0,450505442.0,5023.5582,67575.81629999999,1015770015.9073272,1015702440.0910271,1021742512.6392322,0.0092100415162059,0.95,0.05,0.0347222222222222,0.0329861111111111,0.0,0.0329726371406556,50867128.09102726,True
A4_RULE_LLM_BLEND,2024-02-13,2024-02-14,117460,ETF_001,KODEX 에너지화학,14636.0,14891.0,6990.0,1545.0,-5445.0,SELL,102305640.0,22612620.0,-79693020.0,79693020.0,387114369.0,11953.952999999998,58067.15534999999,1008392154.6392322,1008334087.4838822,1007277290.9384136,-0.0141574041618898,0.95,0.05,0.0236111111111111,0.0224305555555555,0.1014542204928214,0.0224257220703762,50485565.48388219,True
A4_RULE_LLM_BLEND,2024-02-13,2024-02-14,117680,ETF_002,KODEX 철강,8508.0,8541.0,5019.0,23065.0,18046.0,BUY,42701652.0,196237020.0,153535368.0,153535368.0,387114369.0,23030.3052,58067.15534999999,1008392154.6392322,1008334087.4838822,1007277290.9384136,-0.0141574041618898,0.95,0.05,0.204861111111111,0.1946180555555555,0.0423462755075451,0.1946150808901784,50485565.48388219,True
A4_RULE_LLM_BLEND,2024-02-13,2024-02-14,139260,ETF_003,TIGER 200 IT,30883.0,30922.0,6331.0,6569.0,238.0,BUY,195520273.0,202870427.0,7350154.0,7350154.0,387114369.0,1102.5231,58067.15534999999,1008392154.6392322,1008334087.4838822,1007277290.9384136,-0.0141574041618898,0.95,0.05,0.2118055555555555,0.2012152777777777,0.1938930921868887,0.2011936614244857,50485565.48388219,True
A4_RULE_LLM_BLEND,2024-02-13,2024-02-14,139270,ETF_004,TIGER 200 금융,6941.0,6827.0,27720.0,25684.0,-2036.0,SELL,192404520.0,178272644.0,-14131876.0,14131876.0,387114369.0,2119.7814,58067.15534999999,1008392154.6392322,1008334087.4838822,1007277290.9384136,-0.0141574041618898,0.95,0.05,0.1861111111111111,0.1768055555555555,0.1908032694570454,0.1767991841323619,50485565.48388219,True
A4_RULE_LLM_BLEND,2024-02-13,2024-02-14,227550,ETF_005,TIGER 200 산업재,5914.0,5962.0,7313.0,4161.0,-3152.0,SELL,43249082.0,24608154.0,-18640928.0,18640928.0,387114369.0,2796.1392,58067.15534999999,1008392154.6392322,1008334087.4838822,1007277290.9384136,-0.0141574041618898,0.95,0.05,0.0256944444444444,0.0244097222222222,0.0428891496240101,0.0244047625736875,50485565.48388219,True
A4_RULE_LLM_BLEND,2024-02-13,2024-02-14,266390,ETF_006,KODEX 경기소비재,8233.0,8214.0,23865.0,23593.0,-272.0,SELL,196480545.0,194241169.0,-2239376.0,2239376.0,387114369.0,335.9064,58067.15534999999,1008392154.6392322,1008334087.4838822,1007277290.9384136,-0.0141574041618898,0.95,0.05,0.2027777777777777,0.1926388888888888,0.1948453725032142,0.192635726006937,50485565.48388219,True
A4_RULE_LLM_BLEND,2024-02-13,2024-02-14,266410,ETF_007,KODEX 필수소비재,5898.0,5879.0,4461.0,7669.0,3208.0,BUY,26310978.0,45231762.0,18920784.0,18920784.0,387114369.0,2838.1176,58067.15534999999,1008392154.6392322,1008334087.4838822,1007277290.9384136,-0.0141574041618898,0.95,0.05,0.0472222222222222,0.044861111111111,0.0260920098187526,0.0448579122350884,50485565.48388219,True
A4_RULE_LLM_BLEND,2024-02-13,2024-02-14,266420,ETF_008,KODEX 헬스케어,13527.0,13607.0,9259.0,3442.0,-5817.0,SELL,125246493.0,46559934.0,-78686559.0,78686559.0,387114369.0,11802.98385,58067.15534999999,1008392154.6392322,1008334087.4838822,1007277290.9384136,-0.0141574041618898,0.95,0.05,0.0486111111111111,0.0461805555555555,0.1242041525450075,0.046175106621836,50485565.48388219,True
A4_RULE_LLM_BLEND,2024-02-13,2024-02-14,315270,ETF_009,TIGER 200 커뮤니케이션서비스,17352.0,17562.0,1919.0,2721.0,802.0,BUY,33298488.0,47214792.0,13916304.0,13916304.0,387114369.0,2087.4456,58067.15534999999,1008392154.6392322,1008334087.4838822,1007277290.9384136,-0.0141574041618898,0.95,0.05,0.0493055555555555,0.0468402777777777,0.0330213675768957,0.0468245520865173,50485565.48388219,True
A4_RULE_LLM_BLEND,2024-02-14,2024-02-15,117460,ETF_001,KODEX 에너지화학,14940.0,15156.0,1545.0,9192.0,7647.0,BUY,23082300.0,137328480.0,114246180.0,114246180.0,354463812.0,17136.927,53169.5718,1010921940.9384136,1010868771.3666136,1007742913.9716436,0.0004622590397089,0.95,0.05,0.1430068434559452,0.1358565012831479,0.0228329201941875,0.1358519363639485,50582882.36661375,True
A4_RULE_LLM_BLEND,2024-02-14,2024-02-15,117680,ETF_002,KODEX 철강,8602.0,8555.0,23065.0,7795.0,-15270.0,SELL,198405130.0,67052590.0,-131352540.0,131352540.0,354463812.0,19702.881,53169.5718,1010921940.9384136,1010868771.3666136,1007742913.9716436,0.0004622590397089,0.95,0.05,0.0698246364414029,0.0663334046193327,0.1962615726945499,0.0663316464998223,50582882.36661375,True
A4_RULE_LLM_BLEND,2024-02-14,2024-02-15,139260,ETF_003,TIGER 200 IT,31082.0,30785.0,6569.0,6683.0,114.0,BUY,204177658.0,207721006.0,3543348.0,3543348.0,354463812.0,531.5021999999999,53169.5718,1010921940.9384136,1010868771.3666136,1007742913.9716436,0.0004622590397089,0.95,0.05,0.216317365269461,0.205501497005988,0.2019717346430001,0.2054876081681481,50582882.36661375,True
A4_RULE_LLM_BLEND,2024-02-14,2024-02-15,139270,ETF_004,TIGER 200 금융,6791.0,6755.0,25684.0,26507.0,823.0,BUY,174420044.0,180009037.0,5588993.0,5588993.0,354463812.0,838.34895,53169.5718,1010921940.9384136,1010868771.3666136,1007742913.9716436,0.0004622590397089,0.95,0.05,0.1874465355004277,0.1780742087254063,0.172535620146982,0.1780735958008102,50582882.36661375,True
A4_RULE_LLM_BLEND,2024-02-14,2024-02-15,227550,ETF_005,TIGER 200 산업재,6104.0,6109.0,4161.0,0.0,-4161.0,SELL,25398744.0,0.0,-25398744.0,25398744.0,354463812.0,3809.8116,53169.5718,1010921940.9384136,1010868771.3666136,1007742913.9716436,0.0004622590397089,0.95,0.05,0.0,0.0,0.0251243374700354,0.0,50582882.36661375,True
A4_RULE_LLM_BLEND,2024-02-14,2024-02-15,266390,ETF_006,KODEX 경기소비재,8219.0,8157.0,23593.0,23188.0,-405.0,SELL,193910867.0,190582172.0,-3328695.0,3328695.0,354463812.0,499.30425,53169.5718,1010921940.9384136,1010868771.3666136,1007742913.9716436,0.0004622590397089,0.95,0.05,0.1984602224123182,0.1885372112917022,0.1918158654465421,0.1885330493911174,50582882.36661375,True
A4_RULE_LLM_BLEND,2024-02-14,2024-02-15,266410,ETF_007,KODEX 필수소비재,5912.0,5898.0,7669.0,5314.0,-2355.0,SELL,45339128.0,31416368.0,-13922760.0,13922760.0,354463812.0,2088.414,53169.5718,1010921940.9384136,1010868771.3666136,1007742913.9716436,0.0004622590397089,0.95,0.05,0.0327202737382378,0.0310842600513259,0.0448492867391055,0.0310785819978666,50582882.36661375,True
A4_RULE_LLM_BLEND,2024-02-14,2024-02-15,266420,ETF_008,KODEX 헬스케어,13696.0,13498.0,3442.0,3201.0,-241.0,SELL,47141632.0,43840896.0,-3300736.0,3300736.0,354463812.0,495.1104,53169.5718,1010921940.9384136,1010868771.3666136,1007742913.9716436,0.0004622590397089,0.95,0.05,0.0456586826347305,0.043375748502994,0.0466323165923568,0.0433695225748547,50582882.36661375,True
A4_RULE_LLM_BLEND,2024-02-14,2024-02-15,315270,ETF_009,TIGER 200 커뮤니케이션서비스,17844.0,17902.0,2721.0,5735.0,3014.0,BUY,48553524.0,102335340.0,53781816.0,53781816.0,354463812.0,8067.2724,53169.5718,1010921940.9384136,1010868771.3666136,1007742913.9716436,0.0004622590397089,0.95,0.05,0.1065654405474764,0.1012371685201026,0.0480289545945841,0.1012350395013695,50582882.36661375,True
A4_RULE_LLM_BLEND,2024-02-15,2024-02-16,117460,ETF_001,KODEX 에너지화학,15249.0,15425.0,9192.0,1803.0,-7389.0,SELL,140168808.0,27493947.0,-112674861.0,112674861.0,397245076.0,16901.22915,59586.7614,1017025036.9716436,1016965450.2102436,1023972219.9716822,0.0161046093949464,0.95,0.05,0.0284722222222222,0.0270486111111111,0.1378223769371256,0.0270352812814987,50914190.2102437,True
A4_RULE_LLM_BLEND,2024-02-15,2024-02-16,117680,ETF_002,KODEX 철강,8649.0,8794.0,7795.0,18229.0,10434.0,BUY,67418955.0,157662621.0,90243666.0,90243666.0,397245076.0,13536.549899999998,59586.7614,1017025036.9716436,1016965450.2102436,1023972219.9716822,0.0161046093949464,0.95,0.05,0.1631944444444444,0.1550347222222222,0.0662903591840283,0.1550324260941268,50914190.2102437,True
A4_RULE_LLM_BLEND,2024-02-15,2024-02-16,139260,ETF_003,TIGER 200 IT,31131.0,31238.0,6683.0,6874.0,191.0,BUY,208048473.0,213994494.0,5946021.0,5946021.0,397245076.0,891.90315,59586.7614,1017025036.9716436,1016965450.2102436,1023972219.9716822,0.0161046093949464,0.95,0.05,0.2215277777777777,0.2104513888888888,0.2045657338186068,0.2104245468277802,50914190.2102437,True
A4_RULE_LLM_BLEND,2024-02-15,2024-02-16,139270,ETF_004,TIGER 200 금융,6877.0,6977.0,26507.0,25853.0,-654.0,SELL,182288639.0,177791081.0,-4497558.0,4497558.0,397245076.0,674.6337,59586.7614,1017025036.9716436,1016965450.2102436,1023972219.9716822,0.0161046093949464,0.95,0.05,0.1840277777777777,0.1748263888888888,0.1792371203985241,0.1748250945626954,50914190.2102437,True
A4_RULE_LLM_BLEND,2024-02-15,2024-02-16,227550,ETF_005,TIGER 200 산업재,6123.0,6166.0,0.0,15121.0,15121.0,BUY,0.0,92585883.0,92585883.0,92585883.0,397245076.0,13887.882449999996,59586.7614,1017025036.9716436,1016965450.2102436,1023972219.9716822,0.0161046093949464,0.95,0.05,0.0958333333333333,0.0910416666666666,0.0,0.0910413259180625,50914190.2102437,True
A4_RULE_LLM_BLEND,2024-02-15,2024-02-16,266390,ETF_006,KODEX 경기소비재,8223.0,8223.0,23188.0,21458.0,-1730.0,SELL,190674924.0,176449134.0,-14225790.0,14225790.0,397245076.0,2133.8685,59586.7614,1017025036.9716436,1016965450.2102436,1023972219.9716822,0.0161046093949464,0.95,0.05,0.1826388888888888,0.1735069444444444,0.1874830186754943,0.1735055344933513,50914190.2102437,True
A4_RULE_LLM_BLEND,2024-02-15,2024-02-16,266410,ETF_007,KODEX 필수소비재,5960.0,5955.0,5314.0,6934.0,1620.0,BUY,31671440.0,41326640.0,9655200.0,9655200.0,397245076.0,1448.2799999999995,59586.7614,1017025036.9716436,1016965450.2102436,1023972219.9716822,0.0161046093949464,0.95,0.05,0.0427777777777777,0.0406388888888888,0.031141258915618,0.0406372114130881,50914190.2102437,True
A4_RULE_LLM_BLEND,2024-02-15,2024-02-16,266420,ETF_008,KODEX 헬스케어,13572.0,13612.0,3201.0,2788.0,-413.0,SELL,43443972.0,37838736.0,-5605236.0,5605236.0,397245076.0,840.7853999999999,59586.7614,1017025036.9716436,1016965450.2102436,1023972219.9716822,0.0161046093949464,0.95,0.05,0.0391666666666666,0.0372083333333333,0.0427167182917752,0.0372074941112083,50914190.2102437,True
A4_RULE_LLM_BLEND,2024-02-15,2024-02-16,315270,ETF_009,TIGER 200 커뮤니케이션서비스,17911.0,17907.0,5735.0,2284.0,-3451.0,SELL,102719585.0,40908724.0,-61810861.0,61810861.0,397245076.0,9271.62915,59586.7614,1017025036.9716436,1016965450.2102436,1023972219.9716822,0.0161046093949464,0.95,0.05,0.0423611111111111,0.0402430555555555,0.1010000553239713,0.0402262672655621,50914190.2102437,True
A4_RULE_LLM_BLEND,2024-02-16,2024-02-19,117460,ETF_001,KODEX 에너지화학,15425.0,15533.0,1803.0,4919.0,3116.0,BUY,27811275.0,75875575.0,48064300.0,48064300.0,314216209.0,7209.645,47132.43135,1026964770.9716822,1026917638.5403322,1039127114.473822,0.0148001031732665,0.95,0.05,0.0777777777777777,0.0738888888888889,0.027081040933552,0.0738867190048951,51392048.5403322,True
A4_RULE_LLM_BLEND,2024-02-16,2024-02-19,117680,ETF_002,KODEX 철강,8794.0,8915.0,18229.0,16486.0,-1743.0,SELL,160305826.0,144977884.0,-15327942.0,15327942.0,314216209.0,2299.1913,47132.43135,1026964770.9716822,1026917638.5403322,1039127114.473822,0.0148001031732665,0.95,0.05,0.1486111111111111,0.1411805555555555,0.1560967138612979,0.1411777133423013,51392048.5403322,True
A4_RULE_LLM_BLEND,2024-02-16,2024-02-19,139260,ETF_003,TIGER 200 IT,31233.0,31720.0,6874.0,4620.0,-2254.0,SELL,214695642.0,144296460.0,-70399182.0,70399182.0,314216209.0,10559.8773,47132.43135,1026964770.9716822,1026917638.5403322,1039127114.473822,0.0148001031732665,0.95,0.05,0.1479166666666666,0.1405208333333333,0.2090584293333272,0.140514150876894,51392048.5403322,True
A4_RULE_LLM_BLEND,2024-02-16,2024-02-19,139270,ETF_004,TIGER 200 금융,6977.0,7154.0,25853.0,28353.0,2500.0,BUY,180376381.0,197818881.0,17442500.0,17442500.0,314216209.0,2616.375,47132.43135,1026964770.9716822,1026917638.5403322,1039127114.473822,0.0148001031732665,0.95,0.05,0.2027777777777778,0.1926388888888889,0.1756402810481351,0.1926336383521283,51392048.5403322,True
A4_RULE_LLM_BLEND,2024-02-16,2024-02-19,227550,ETF_005,TIGER 200 산업재,6209.0,6185.0,15121.0,11129.0,-3992.0,SELL,93886289.0,69099961.0,-24786328.0,24786328.0,314216209.0,3717.9492,47132.43135,1026964770.9716822,1026917638.5403322,1039127114.473822,0.0148001031732665,0.95,0.05,0.0708333333333333,0.0672916666666666,0.0914211389268667,0.0672887078833499,51392048.5403322,True
A4_RULE_LLM_BLEND,2024-02-16,2024-02-19,266390,ETF_006,KODEX 경기소비재,8319.0,8362.0,21458.0,18079.0,-3379.0,SELL,178509102.0,150399201.0,-28109901.0,28109901.0,314216209.0,4216.48515,47132.43135,1026964770.9716822,1026917638.5403322,1039127114.473822,0.0148001031732665,0.95,0.05,0.1541666666666667,0.1464583333333333,0.1738220307509674,0.1464569263936088,51392048.5403322,True
A4_RULE_LLM_BLEND,2024-02-16,2024-02-19,266410,ETF_007,KODEX 필수소비재,5974.0,6008.0,6934.0,10886.0,3952.0,BUY,41423716.0,65032964.0,23609248.0,23609248.0,314216209.0,3541.3872,47132.43135,1026964770.9716822,1026917638.5403322,1039127114.473822,0.0148001031732665,0.95,0.05,0.0666666666666666,0.0633333333333333,0.0403360632914468,0.0633283152994025,51392048.5403322,True
A4_RULE_LLM_BLEND,2024-02-16,2024-02-19,266420,ETF_008,KODEX 헬스케어,13612.0,13801.0,2788.0,7764.0,4976.0,BUY,37950256.0,105683568.0,67733312.0,67733312.0,314216209.0,10159.9968,47132.43135,1026964770.9716822,1026917638.5403322,1039127114.473822,0.0148001031732665,0.95,0.05,0.1083333333333333,0.1029166666666666,0.0369538051087114,0.1029133827618535,51392048.5403322,True
A4_RULE_LLM_BLEND,2024-02-16,2024-02-19,315270,ETF_009,TIGER 200 커뮤니케이션서비스,17988.0,18036.0,2284.0,1242.0,-1042.0,SELL,41084592.0,22341096.0,-18743496.0,18743496.0,314216209.0,2811.5244,47132.43135,1026964770.9716822,1026917638.5403322,1039127114.473822,0.0148001031732665,0.95,0.05,0.0229166666666666,0.0217708333333333,0.0400058435900649,0.0217554895948187,51392048.5403322,True
A4_RULE_LLM_BLEND,2024-02-19,2024-02-20,117460,ETF_001,KODEX 에너지화학,15533.0,15504.0,4919.0,7172.0,2253.0,BUY,76406827.0,111402676.0,34995849.0,34995849.0,328439156.0,5249.37735,49265.8734,1041182468.473822,1041133202.600422,1029123054.1194552,-0.00962736917844,0.95,0.05,0.1126388888888888,0.1070069444444444,0.0733846653334435,0.1070013670890058,52119716.60042191,True
A4_RULE_LLM_BLEND,2024-02-19,2024-02-20,117680,ETF_002,KODEX 철강,8906.0,8892.0,16486.0,14298.0,-2188.0,SELL,146824316.0,127337988.0,-19486328.0,19486328.0,328439156.0,2922.9492,49265.8734,1041182468.473822,1041133202.600422,1029123054.1194552,-0.00962736917844,0.95,0.05,0.1287499999999999,0.1223124999999999,0.1410168922794261,0.122307105067776,52119716.60042191,True
A4_RULE_LLM_BLEND,2024-02-19,2024-02-20,139260,ETF_003,TIGER 200 IT,31686.0,31394.0,4620.0,3368.0,-1252.0,SELL,146389320.0,106718448.0,-39670872.0,39670872.0,328439156.0,5950.6308,49265.8734,1041182468.473822,1041133202.600422,1029123054.1194552,-0.00962736917844,0.95,0.05,0.1079166666666666,0.1025208333333333,0.1405991019178216,0.1025022040728804,52119716.60042191,True
A4_RULE_LLM_BLEND,2024-02-19,2024-02-20,139270,ETF_004,TIGER 200 금융,7254.0,6973.0,28353.0,30299.0,1946.0,BUY,205672662.0,219788946.0,14116284.0,14116284.0,328439156.0,2117.4426,49265.8734,1041182468.473822,1041133202.600422,1029123054.1194552,-0.00962736917844,0.95,0.05,0.2222222222222222,0.211111111111111,0.1975375769642736,0.2111055006708427,52119716.60042191,True
A4_RULE_LLM_BLEND,2024-02-19,2024-02-20,227550,ETF_005,TIGER 200 산업재,6175.0,6237.0,11129.0,2780.0,-8349.0,SELL,68721575.0,17166500.0,-51555075.0,51555075.0,328439156.0,7733.26125,49265.8734,1041182468.473822,1041133202.600422,1029123054.1194552,-0.00962736917844,0.95,0.05,0.0173611111111111,0.0164930555555555,0.0660033923743769,0.0164882840707831,52119716.60042191,True
A4_RULE_LLM_BLEND,2024-02-19,2024-02-20,266390,ETF_006,KODEX 경기소비재,8324.0,8266.0,18079.0,18318.0,239.0,BUY,150489596.0,152479032.0,1989436.0,1989436.0,328439156.0,298.4154,49265.8734,1041182468.473822,1041133202.600422,1029123054.1194552,-0.00962736917844,0.95,0.05,0.1541666666666666,0.1464583333333333,0.1445371974237998,0.1464548739960992,52119716.60042191,True
A4_RULE_LLM_BLEND,2024-02-19,2024-02-20,266410,ETF_007,KODEX 필수소비재,6022.0,5989.0,10886.0,4334.0,-6552.0,SELL,65555492.0,26099348.0,-39456144.0,39456144.0,328439156.0,5918.4216,49265.8734,1041182468.473822,1041133202.600422,1029123054.1194552,-0.00962736917844,0.95,0.05,0.0263888888888888,0.0250694444444444,0.062962539213796,0.0250682121507719,52119716.60042191,True
A4_RULE_LLM_BLEND,2024-02-19,2024-02-20,266420,ETF_008,KODEX 헬스케어,13801.0,13831.0,7764.0,6718.0,-1046.0,SELL,107150964.0,92715118.0,-14435846.0,14435846.0,328439156.0,2165.3769,49265.8734,1041182468.473822,1041133202.600422,1029123054.1194552,-0.00962736917844,0.95,0.05,0.09375,0.0890624999999999,0.1029127624066348,0.0890521191413614,52119716.60042191,True
A4_RULE_LLM_BLEND,2024-02-19,2024-02-20,315270,ETF_009,TIGER 200 커뮤니케이션서비스,18174.0,18002.0,1242.0,7445.0,6203.0,BUY,22572108.0,135305430.0,112733322.0,112733322.0,328439156.0,16909.9983,49265.8734,1041182468.473822,1041133202.600422,1029123054.1194552,-0.00962736917844,0.95,0.05,0.1368055555555555,0.1299652777777777,0.0216793008751736,0.1299597685118962,52119716.60042191,True
A4_RULE_LLM_BLEND,2024-02-20,2024-02-21,117460,ETF_001,KODEX 에너지화학,15278.0,15489.0,7172.0,10666.0,3494.0,BUY,109573816.0,162955148.0,53381332.0,53381332.0,339577389.0,8007.1997999999985,50936.60835,1028789264.1194552,1028738327.5111052,1030621950.3645957,0.0014564791247659,0.95,0.05,0.1667421064252594,0.1584050011039964,0.1065075422358578,0.1584029132016964,51496441.51110518,True
A4_RULE_LLM_BLEND,2024-02-20,2024-02-21,117680,ETF_002,KODEX 철강,8892.0,8948.0,14298.0,18799.0,4501.0,BUY,127137816.0,167160708.0,40022892.0,40022892.0,339577389.0,6003.433799999999,50936.60835,1028789264.1194552,1028738327.5111052,1030621950.3645957,0.0014564791247659,0.95,0.05,0.1710476926473835,0.1624953080150143,0.1235800376560283,0.1624909887477634,51496441.51110518,True
A4_RULE_LLM_BLEND,2024-02-20,2024-02-21,139260,ETF_003,TIGER 200 IT,31477.0,31442.0,3368.0,3423.0,55.0,BUY,106014536.0,107745771.0,1731235.0,1731235.0,339577389.0,259.68525,50936.60835,1028789264.1194552,1028738327.5111052,1030621950.3645957,0.0014564791247659,0.95,0.05,0.1102782071097372,0.1047642967542503,0.1030478638312174,0.1047358381802265,51496441.51110518,True
