PJH-02/HYFE38_ML/pilot/out_20260506_01/latest_orders.csv
strategy,decision_date,execution_date,ticker,name,regime_date,regime_key,regime_name,cash_weight,stock_weight,current_qty,current_close,current_portfolio_weight_at_close,target_sleeve_weight,target_portfolio_weight,delta_portfolio_weight,target_value_at_close,delta_value_at_close,indicative_qty_change_at_close,target_qty_at_close_floor,executable_qty_change_at_close,side
A0,2026-05-04,2026-05-06,117460,KODEX 에너지화학,2025-12-12,DRAI_RISK_ON,DRAI Risk-On,0.05,0.95,566.0,18975.0,0.0936858911337411,0.1,0.095,0.0013141088662588,10890495.224553002,150645.22455300204,7.939142268932914,573,7,BUY
A0,2026-05-04,2026-05-06,117680,KODEX 철강,2025-12-12,DRAI_RISK_ON,DRAI Risk-On,0.05,0.95,613.0,17765.0,0.0949952002795596,0.1,0.095,4.799720440387678e-06,10890495.224553002,550.2245530020446,0.030972392513484,613,0,HOLD
A0,2026-05-04,2026-05-06,139260,TIGER 200 IT,2025-12-12,DRAI_RISK_ON,DRAI Risk-On,0.05,0.95,92.0,124335.0,0.0997831482952239,0.1,0.095,-0.0047831482952239,10890495.224553002,-548324.775446998,-4.410059721293264,87,-5,SELL
A0,2026-05-04,2026-05-06,139270,TIGER 200 금융,2025-12-12,DRAI_RISK_ON,DRAI Risk-On,0.05,0.95,642.0,16910.0,0.0947010102602869,0.1,0.095,0.000298989739713,10890495.224553002,34275.224553002045,2.026920434831581,644,2,BUY
A0,2026-05-04,2026-05-06,227550,TIGER 200 산업재,2025-12-12,DRAI_RISK_ON,DRAI Risk-On,0.05,0.95,665.0,16605.0,0.0963244419441042,0.1,0.095,-0.0013244419441042,10890495.224553002,-151829.77544699796,-9.14361791309834,655,-10,SELL
A0,2026-05-04,2026-05-06,266390,KODEX 경기소비재,2025-12-12,DRAI_RISK_ON,DRAI Risk-On,0.05,0.95,871.0,12330.0,0.0936822273885048,0.1,0.095,0.0013177726114951,10890495.224553002,151065.22455300204,12.251843029440556,883,12,BUY
A0,2026-05-04,2026-05-06,266410,KODEX 필수소비재,2025-12-12,DRAI_RISK_ON,DRAI Risk-On,0.05,0.95,1056.0,10225.0,0.0941896561037335,0.1,0.095,0.0008103438962664,10890495.224553002,92895.22455300204,9.08510753574592,1065,9,BUY
A0,2026-05-04,2026-05-06,266420,KODEX 헬스케어,2025-12-12,DRAI_RISK_ON,DRAI Risk-On,0.05,0.95,508.0,21135.0,0.0936573662601155,0.1,0.095,0.0013426337398844,10890495.224553002,153915.22455300204,7.282480461462127,515,7,BUY
A0,2026-05-04,2026-05-06,315270,TIGER 200 커뮤니케이션서비스,2025-12-12,DRAI_RISK_ON,DRAI Risk-On,0.05,0.95,474.0,22610.0,0.0934877871948921,0.1,0.095,0.0015122128051078,10890495.224553002,173355.22455300204,7.667192594117737,481,7,BUY
A0,2026-05-04,2026-05-06,476800,KODEX 한국부동산리츠인프라,2025-12-12,DRAI_RISK_ON,DRAI Risk-On,0.05,0.95,2246.0,4805.0,0.0941410678633377,0.1,0.095,0.0008589321366622,10890495.224553002,98465.22455300204,20.492242362747564,2266,20,BUY
A1,2026-05-04,2026-05-06,117460,KODEX 에너지화학,2025-12-12,DRAI_RISK_ON,DRAI Risk-On,0.05,0.95,250.0,18975.0,0.040323377884631,0.1155555555555555,0.1097777777777777,0.0694543998931466,12914551.32611338,8170801.326113379,430.608765539572,680,430,BUY
A1,2026-05-04,2026-05-06,117680,KODEX 철강,2025-12-12,DRAI_RISK_ON,DRAI Risk-On,0.05,0.95,585.0,17765.0,0.0883397549935126,0.0988888888888888,0.0939444444444444,0.0056046894509317,11051875.654077796,659350.6540777963,37.11515080651822,622,37,BUY
A1,2026-05-04,2026-05-06,139260,TIGER 200 IT,2025-12-12,DRAI_RISK_ON,DRAI Risk-On,0.05,0.95,159.0,124335.0,0.1680450156724977,0.1466666666666666,0.1393333333333333,-0.0287116823391644,16391545.913913136,-3377719.086086864,-27.166277283844963,131,-28,SELL
A1,2026-05-04,2026-05-06,139270,TIGER 200 금융,2025-12-12,DRAI_RISK_ON,DRAI Risk-On,0.05,0.95,962.0,16910.0,0.138278223740291,0.09,0.0854999999999999,-0.052778223740291,10058448.628992151,-6208971.3710078485,-367.17749089342686,594,-368,SELL
A1,2026-05-04,2026-05-06,227550,TIGER 200 산업재,2025-12-12,DRAI_RISK_ON,DRAI Risk-On,0.05,0.95,567.0,16605.0,0.0800307803113628,0.1011111111111111,0.0960555555555555,0.0160247752441926,11300232.410349209,1885197.410349207,113.5319126979348,680,113,BUY
A1,2026-05-04,2026-05-06,266390,KODEX 경기소비재,2025-12-12,DRAI_RISK_ON,DRAI Risk-On,0.05,0.95,1532.0,12330.0,0.1605672444699682,0.1277777777777777,0.1213888888888888,-0.0391783555810793,14280513.48560614,-4609046.5143938605,-373.8075031949603,1158,-374,SELL
A1,2026-05-04,2026-05-06,266410,KODEX 필수소비재,2025-12-12,DRAI_RISK_ON,DRAI Risk-On,0.05,0.95,503.0,10225.0,0.043718616927913,0.0855555555555555,0.0812777777777777,0.0375591608498647,9561735.116449328,4418560.116449328,432.13301872365065,935,432,BUY
A1,2026-05-04,2026-05-06,266420,KODEX 헬스케어,2025-12-12,DRAI_RISK_ON,DRAI Risk-On,0.05,0.95,502.0,21135.0,0.0901864063196885,0.0555555555555555,0.0527777777777777,-0.0374086285419107,6208918.906785279,-4400851.093214721,-208.2257437054517,293,-209,SELL
A1,2026-05-04,2026-05-06,315270,TIGER 200 커뮤니케이션서비스,2025-12-12,DRAI_RISK_ON,DRAI Risk-On,0.05,0.95,274.0,22610.0,0.0526606527047575,0.1188888888888888,0.1129444444444444,0.0602837917396869,13287086.460520497,7091946.460520497,313.66415128352486,587,313,BUY
A1,2026-05-04,2026-05-06,476800,KODEX 한국부동산리츠인프라,2025-12-12,DRAI_RISK_ON,DRAI Risk-On,0.05,0.95,2116.0,4805.0,0.0864259511645091,0.06,0.0569999999999999,-0.0294259511645091,6705632.419328101,-3461747.580671899,-720.4469470701142,1395,-721,SELL
A2,2026-05-04,2026-05-06,117680,KODEX 철강,2025-12-12,DRAI_RISK_ON,DRAI Risk-On,0.05,0.95,2111.0,17765.0,0.3121929068029593,0.3285289234797093,0.3121024773057238,-9.042949723553352e-05,37491052.231356256,-10862.76864374429,-0.6114702304387442,2110,-1,SELL
A2,2026-05-04,2026-05-06,139260,TIGER 200 IT,2025-12-12,DRAI_RISK_ON,DRAI Risk-On,0.05,0.95,319.0,124335.0,0.3301822084681104,0.3474595454811051,0.3300865682070498,-9.564026106062552e-05,39651376.29265683,-11488.707343168557,-0.0924012333065392,318,-1,SELL
A2,2026-05-04,2026-05-06,266420,KODEX 헬스케어,2025-12-12,DRAI_RISK_ON,DRAI Risk-On,0.05,0.95,1750.0,21135.0,0.3079001405459149,0.3240115310391855,0.3078109544872263,-8.918605868862839e-05,36975536.59838439,-10713.401615612209,-0.5069033175118149,1749,-1,SELL
A3,2026-05-04,2026-05-06,139260,TIGER 200 IT,2025-12-12,DRAI_RISK_ON,DRAI Risk-On,0.05,0.95,347.0,124335.0,0.3506479286019632,0.3691626287594314,0.3507044973214598,5.656871949660802e-05,43151205.299760014,6960.299760013819,0.0559802128122718,347,0,HOLD
A3,2026-05-04,2026-05-06,266390,KODEX 경기소비재,2025-12-12,DRAI_RISK_ON,DRAI Risk-On,0.05,0.95,3134.0,12330.0,0.3140584427791321,0.3306411670038559,0.3141091086536631,5.066587453100846e-05,38648454.00489665,6234.004896648228,0.5055965041888263,3134,0,HOLD
A3,2026-05-04,2026-05-06,266420,KODEX 헬스케어,2025-12-12,DRAI_RISK_ON,DRAI Risk-On,0.05,0.95,1660.0,21135.0,0.2851403933911496,0.3001962042367126,0.285186394024877,4.600063372739438e-05,35089759.98669835,5659.9866983518,0.2678015944334895,1660,0,HOLD
A4,2026-05-04,2026-05-06,117460,KODEX 에너지화학,2025-12-12,DRAI_RISK_ON,DRAI Risk-On,0.05,0.95,127.0,18975.0,0.0200698437047035,0.0683474295162345,0.0649300580404228,0.0448602143357192,7796277.809607046,5386452.809607046,283.8710308093305,410,283,BUY
A4,2026-05-04,2026-05-06,117680,KODEX 철강,2025-12-12,DRAI_RISK_ON,DRAI Risk-On,0.05,0.95,822.0,17765.0,0.121617343892754,0.1134934220655948,0.1078187509623151,-0.0137985929304389,12946006.22509426,-1656823.7749057394,-93.26337038591272,728,-94,SELL
A4,2026-05-04,2026-05-06,139260,TIGER 200 IT,2025-12-12,DRAI_RISK_ON,DRAI Risk-On,0.05,0.95,242.0,124335.0,0.2505920272716418,0.2053059832286774,0.1950406840672435,-0.0555513432043983,23418912.64316091,-6670157.356839091,-53.64665908102377,188,-54,SELL
A4,2026-05-04,2026-05-06,139270,TIGER 200 금융,2025-12-12,DRAI_RISK_ON,DRAI Risk-On,0.05,0.95,1039.0,16910.0,0.1463246992090097,0.1220609444761752,0.1159578972523664,-0.0303668019566432,13923289.28205331,-3646200.7179466896,-215.623933645576,823,-216,SELL
A4,2026-05-04,2026-05-06,227550,TIGER 200 산업재,2025-12-12,DRAI_RISK_ON,DRAI Risk-On,0.05,0.95,287.0,16605.0,0.0396898320847633,0.0714579456720994,0.0678850483884945,0.0281952163037311,8151089.223204302,3385454.2232043017,203.88161536912384,490,203,BUY
A4,2026-05-04,2026-05-06,266390,KODEX 경기소비재,2025-12-12,DRAI_RISK_ON,DRAI Risk-On,0.05,0.95,2292.0,12330.0,0.2353619072914655,0.1878406958472424,0.1784486610548802,-0.0569132462365852,21426676.308684733,-6833683.691315267,-554.2322539590647,1737,-555,SELL
A4,2026-05-04,2026-05-06,266410,KODEX 필수소비재,2025-12-12,DRAI_RISK_ON,DRAI Risk-On,0.05,0.95,255.0,10225.0,0.0217151074163274,0.0542138968742095,0.051503202030499,0.0297880946141715,6184089.206636936,3576714.2066369355,349.80090040459027,604,349,BUY
A4,2026-05-04,2026-05-06,266420,KODEX 헬스케어,2025-12-12,DRAI_RISK_ON,DRAI Risk-On,0.05,0.95,255.0,21135.0,0.0448849677500324,0.0514161520665881,0.0488453444632587,0.0039603767132262,5864955.101448366,475530.1014483664,22.499649938413363,277,22,BUY
A4,2026-05-04,2026-05-06,315270,TIGER 200 커뮤니케이션서비스,2025-12-12,DRAI_RISK_ON,DRAI Risk-On,0.05,0.95,139.0,22610.0,0.0261742259693983,0.0732289291215909,0.0695674826655114,0.043393256696113,8353102.364973914,5210312.364973914,230.44282905678523,369,230,BUY
A4,2026-05-04,2026-05-06,476800,KODEX 한국부동산리츠인프라,2025-12-12,DRAI_RISK_ON,DRAI Risk-On,0.05,0.95,1074.0,4805.0,0.0429789853317904,0.0526346011315875,0.0500028710750081,0.0070238857432176,6003941.563336223,843371.5633362234,175.51957613657095,1249,175,BUY
A5,2026-05-04,2026-05-06,117460,KODEX 에너지화학,2025-12-12,DRAI_RISK_ON,DRAI Risk-On,0.05,0.95,592.0,18975.0,0.0978447121718511,0.1187200913071618,0.1127840867418037,0.0149393745699525,12948335.940350492,1715135.9403504916,90.3892458682736,682,90,BUY
A5,2026-05-04,2026-05-06,117680,KODEX 철강,2025-12-12,DRAI_RISK_ON,DRAI Risk-On,0.05,0.95,752.0,17765.0,0.1163635390114275,0.0955631007245477,0.0907849456883203,-0.0255785933231072,10422693.564828394,-2936586.435171606,-165.3017976454605,586,-166,SELL
A5,2026-05-04,2026-05-06,139260,TIGER 200 IT,2025-12-12,DRAI_RISK_ON,DRAI Risk-On,0.05,0.95,88.0,124335.0,0.0953037390355434,0.107949108593696,0.1025516531640112,0.0072479141284678,11773586.990563843,832106.9905638434,6.692459810703691,94,6,BUY
A5,2026-05-04,2026-05-06,139270,TIGER 200 금융,2025-12-12,DRAI_RISK_ON,DRAI Risk-On,0.05,0.95,623.0,16910.0,0.091762560410266,0.0929432544518066,0.0882960917292162,-0.0034664686810497,10136957.180379704,-397972.8196202964,-23.53476165702521,599,-24,SELL
A5,2026-05-04,2026-05-06,227550,TIGER 200 산업재,2025-12-12,DRAI_RISK_ON,DRAI Risk-On,0.05,0.95,601.0,16605.0,0.086925504648165,0.0955631007245477,0.0907849456883203,0.0038594410401553,10422693.564828394,443088.564828394,26.68404485566961,627,26,BUY
A5,2026-05-04,2026-05-06,266390,KODEX 경기소비재,2025-12-12,DRAI_RISK_ON,DRAI Risk-On,0.05,0.95,864.0,12330.0,0.0927920325581482,0.0968234078586487,0.0919822374657163,-0.0008097950924319,10560150.33377696,-92969.66622303984,-7.5401189150883905,856,-8,SELL
A5,2026-05-04,2026-05-06,266410,KODEX 필수소비재,2025-12-12,DRAI_RISK_ON,DRAI Risk-On,0.05,0.95,1021.0,10225.0,0.0909332948561655,0.1018271029648155,0.0967357478165747,0.0058024529604091,11105883.78516141,666158.7851614095,65.15000343876866,1086,65,BUY
A5,2026-05-04,2026-05-06,266420,KODEX 헬스케어,2025-12-12,DRAI_RISK_ON,DRAI Risk-On,0.05,0.95,541.0,21135.0,0.0995940483155176,0.0880962288253863,0.0836914173841169,-0.0159026309314006,9608311.056279292,-1825723.943720708,-86.38391027777183,454,-87,SELL
A5,2026-05-04,2026-05-06,315270,TIGER 200 커뮤니케이션서비스,2025-12-12,DRAI_RISK_ON,DRAI Risk-On,0.05,0.95,430.0,22610.0,0.0846842970078329,0.0968234078586487,0.0919822374657163,0.0072979404578834,10560150.33377696,837850.3337769601,37.05662688089165,467,37,BUY
A5,2026-05-04,2026-05-06,476800,KODEX 한국부동산리츠인프라,2025-12-12,DRAI_RISK_ON,DRAI Risk-On,0.05,0.95,2212.0,4805.0,0.0925789782495164,0.1056911966907407,0.1004066368562037,0.0078276586066873,11527325.371984571,898665.3719845712,187.0271325670284,2399,187,BUY
