PJH-02/HYFE38_ML/testing/backtest_state/out_2024_kofr_a0_a6_k10/A4_k10/trade_history.csv
strategy,decision_date,execution_date,ticker,ETF_id,name,open,close,prev_qty,target_qty,delta_qty,side,prev_value_open,target_value_open,delta_value_open,trade_turnover_value,day_turnover_value,commission_allocated,day_commission,nav_open_pre,nav_open_post,nav_close,daily_return,stock_ratio,cash_weight,target_sleeve_weight,target_portfolio_weight,prev_portfolio_weight_open,actual_portfolio_weight_open,cash_after_rebalance,rebalanced
A4_RULE_LLM_BLEND,2024-01-05,2024-01-08,117460,ETF_001,KODEX 에너지화학,15298.0,15175.0,0.0,2217.0,2217.0,BUY,0.0,33915666.0,33915666.0,33915666.0,949814351.0,5087.349899999999,142472.15264999997,1000000000.0,999857527.84735,995179790.5629472,-0.0048202094370528,0.95,0.05,0.0357142857142857,0.0339285714285714,0.0,0.0339204987264725,50043176.84735,True
A4_RULE_LLM_BLEND,2024-01-05,2024-01-08,117680,ETF_002,KODEX 철강,8836.0,8724.0,0.0,4319.0,4319.0,BUY,0.0,38162684.0,38162684.0,38162684.0,949814351.0,5724.402599999999,142472.15264999997,1000000000.0,999857527.84735,995179790.5629472,-0.0048202094370528,0.95,0.05,0.0401785714285714,0.0381696428571428,0.0,0.0381681218944889,50043176.84735,True
A4_RULE_LLM_BLEND,2024-01-05,2024-01-08,139260,ETF_003,TIGER 200 IT,31194.0,31155.0,0.0,8754.0,8754.0,BUY,0.0,273072276.0,273072276.0,273072276.0,949814351.0,40960.84139999999,142472.15264999997,1000000000.0,999857527.84735,995179790.5629472,-0.0048202094370528,0.95,0.05,0.2875,0.2731249999999999,0.0,0.2731111867386874,50043176.84735,True
A4_RULE_LLM_BLEND,2024-01-05,2024-01-08,139270,ETF_004,TIGER 200 금융,5704.0,5695.0,0.0,17842.0,17842.0,BUY,0.0,101770768.0,101770768.0,101770768.0,949814351.0,15265.615199999997,142472.15264999997,1000000000.0,999857527.84735,995179790.5629472,-0.0048202094370528,0.95,0.05,0.1071428571428571,0.1017857142857142,0.0,0.1017852695664632,50043176.84735,True
A4_RULE_LLM_BLEND,2024-01-05,2024-01-08,266390,ETF_006,KODEX 경기소비재,7956.0,7985.0,0.0,23558.0,23558.0,BUY,0.0,187427448.0,187427448.0,187427448.0,949814351.0,28114.1172,142472.15264999997,1000000000.0,999857527.84735,995179790.5629472,-0.0048202094370528,0.95,0.05,0.1973214285714285,0.1874553571428571,0.0,0.1874541549969856,50043176.84735,True
A4_RULE_LLM_BLEND,2024-01-05,2024-01-08,266410,ETF_007,KODEX 필수소비재,6217.0,6165.0,0.0,18416.0,18416.0,BUY,0.0,114492272.0,114492272.0,114492272.0,949814351.0,17173.840799999998,142472.15264999997,1000000000.0,999857527.84735,995179790.5629472,-0.0048202094370528,0.95,0.05,0.1205357142857142,0.1145089285714285,0.0,0.1145085862847849,50043176.84735,True
A4_RULE_LLM_BLEND,2024-01-05,2024-01-08,266420,ETF_008,KODEX 헬스케어,13995.0,13701.0,0.0,10180.0,10180.0,BUY,0.0,142469100.0,142469100.0,142469100.0,949814351.0,21370.365,142472.15264999997,1000000000.0,999857527.84735,995179790.5629472,-0.0048202094370528,0.95,0.05,0.15,0.1425,0.0,0.1424894007716577,50043176.84735,True
A4_RULE_LLM_BLEND,2024-01-05,2024-01-08,315270,ETF_009,TIGER 200 커뮤니케이션서비스,17691.0,17643.0,0.0,3307.0,3307.0,BUY,0.0,58504137.0,58504137.0,58504137.0,949814351.0,8775.620549999998,142472.15264999997,1000000000.0,999857527.84735,995179790.5629472,-0.0048202094370528,0.95,0.05,0.0616071428571428,0.0585267857142857,0.0,0.0585124733980418,50043176.84735,True
A4_RULE_LLM_BLEND,2024-01-08,2024-01-09,117460,ETF_001,KODEX 에너지화학,15244.0,15170.0,2217.0,3034.0,817.0,BUY,33795948.0,46250296.0,12454348.0,12454348.0,126912133.0,1868.1522,19036.81995,1004144080.5629472,1004125043.7429972,998374876.5551012,0.0032105615713384,0.95,0.05,0.0484896661367249,0.0460651828298887,0.0336564728649828,0.0460602952672074,50255800.74299717,True
A4_RULE_LLM_BLEND,2024-01-08,2024-01-09,117680,ETF_002,KODEX 철강,8780.0,8672.0,4319.0,4145.0,-174.0,SELL,37920820.0,36393100.0,-1527720.0,1527720.0,126912133.0,229.158,19036.81995,1004144080.5629472,1004125043.7429972,998374876.5551012,0.0032105615713384,0.95,0.05,0.0381558028616852,0.0362480127186009,0.0377643216088478,0.0362435935910335,50255800.74299717,True
A4_RULE_LLM_BLEND,2024-01-08,2024-01-09,139260,ETF_003,TIGER 200 IT,31511.0,31004.0,8754.0,8786.0,32.0,BUY,275847294.0,276855646.0,1008352.0,1008352.0,126912133.0,151.25279999999998,19036.81995,1004144080.5629472,1004125043.7429972,998374876.5551012,0.0032105615713384,0.95,0.05,0.2902623211446741,0.2757492050874404,0.274708878277063,0.2757182959683857,50255800.74299717,True
A4_RULE_LLM_BLEND,2024-01-08,2024-01-09,139270,ETF_004,TIGER 200 금융,5744.0,5731.0,17842.0,16752.0,-1090.0,SELL,102484448.0,96223488.0,-6260960.0,6260960.0,126912133.0,939.1439999999998,19036.81995,1004144080.5629472,1004125043.7429972,998374876.5551012,0.0032105615713384,0.95,0.05,0.1008744038155803,0.0958306836248012,0.1020614969343291,0.0958281925140671,50255800.74299717,True
A4_RULE_LLM_BLEND,2024-01-08,2024-01-09,266390,ETF_006,KODEX 경기소비재,8042.0,8009.0,23558.0,19782.0,-3776.0,SELL,189453436.0,159086844.0,-30366592.0,30366592.0,126912133.0,4554.988799999999,19036.81995,1004144080.5629472,1004125043.7429972,998374876.5551012,0.0032105615713384,0.95,0.05,0.1667726550079491,0.1584340222575516,0.1886715658312578,0.1584332997083556,50255800.74299717,True
A4_RULE_LLM_BLEND,2024-01-08,2024-01-09,266410,ETF_007,KODEX 필수소비재,6232.0,6194.0,18416.0,17874.0,-542.0,SELL,114768512.0,111390768.0,-3377744.0,3377744.0,126912133.0,506.6616,19036.81995,1004144080.5629472,1004125043.7429972,998374876.5551012,0.0032105615713384,0.95,0.05,0.1167726550079491,0.1109340222575516,0.1142948648720391,0.1109331638465837,50255800.74299717,True
A4_RULE_LLM_BLEND,2024-01-08,2024-01-09,266420,ETF_008,KODEX 헬스케어,13885.0,13890.0,10180.0,8593.0,-1587.0,SELL,141349300.0,119313805.0,-22035495.0,22035495.0,126912133.0,3305.32425,19036.81995,1004144080.5629472,1004125043.7429972,998374876.5551012,0.0032105615713384,0.95,0.05,0.1250794912559618,0.1188255166931637,0.1407659545438501,0.1188236522368204,50255800.74299717,True
A4_RULE_LLM_BLEND,2024-01-08,2024-01-09,315270,ETF_009,TIGER 200 커뮤니케이션서비스,17682.0,17825.0,3307.0,6128.0,2821.0,BUY,58474374.0,108355296.0,49880922.0,49880922.0,126912133.0,7482.138299999999,19036.81995,1004144080.5629472,1004125043.7429972,998374876.5551012,0.0032105615713384,0.95,0.05,0.1135930047694753,0.1079133545310015,0.0582330515429796,0.1079101618620053,50255800.74299717,True
A4_RULE_LLM_BLEND,2024-01-09,2024-01-10,117460,ETF_001,KODEX 에너지화학,15264.0,15038.0,3034.0,1712.0,-1322.0,SELL,46310976.0,26131968.0,-20179008.0,20179008.0,248696252.0,3026.8512,37304.4378,1002374518.5551012,1002337214.1173012,990754569.0316776,-0.0076327116220288,0.95,0.05,0.0274542429284525,0.0260815307820299,0.0462012702265777,0.0260710344103235,50163674.11730111,True
A4_RULE_LLM_BLEND,2024-01-09,2024-01-10,117680,ETF_002,KODEX 철강,8658.0,8579.0,4145.0,12361.0,8216.0,BUY,35887410.0,107021538.0,71134128.0,71134128.0,248696252.0,10670.1192,37304.4378,1002374518.5551012,1002337214.1173012,990754569.0316776,-0.0076327116220288,0.95,0.05,0.112396006655574,0.1067762063227953,0.0358023965450866,0.1067719889999769,50163674.11730111,True
A4_RULE_LLM_BLEND,2024-01-09,2024-01-10,139260,ETF_003,TIGER 200 IT,31185.0,30425.0,8786.0,8849.0,63.0,BUY,273991410.0,275956065.0,1964655.0,1964655.0,248696252.0,294.69825,37304.4378,1002374518.5551012,1002337214.1173012,990754569.0316776,-0.0076327116220288,0.95,0.05,0.2898086522462562,0.2753182196339434,0.2733423535096962,0.2753126005034325,50163674.11730111,True
A4_RULE_LLM_BLEND,2024-01-09,2024-01-10,139270,ETF_004,TIGER 200 금융,5790.0,5695.0,16752.0,7114.0,-9638.0,SELL,96994080.0,41190060.0,-55804020.0,55804020.0,248696252.0,8370.603000000001,37304.4378,1002374518.5551012,1002337214.1173012,990754569.0316776,-0.0076327116220288,0.95,0.05,0.043261231281198,0.041098169717138,0.0967643113472344,0.0410940144891992,50163674.11730111,True
A4_RULE_LLM_BLEND,2024-01-09,2024-01-10,266390,ETF_006,KODEX 경기소비재,8013.0,7942.0,19782.0,17217.0,-2565.0,SELL,158513166.0,137959821.0,-20553345.0,20553345.0,248696252.0,3083.0017500000004,37304.4378,1002374518.5551012,1002337214.1173012,990754569.0316776,-0.0076327116220288,0.95,0.05,0.1448835274542429,0.1376393510815307,0.1581376651797702,0.1376381312166415,50163674.11730111,True
A4_RULE_LLM_BLEND,2024-01-09,2024-01-10,266410,ETF_007,KODEX 필수소비재,6232.0,6175.0,17874.0,19080.0,1206.0,BUY,111390768.0,118906560.0,7515792.0,7515792.0,248696252.0,1127.3688,37304.4378,1002374518.5551012,1002337214.1173012,990754569.0316776,-0.0076327116220288,0.95,0.05,0.1248752079866888,0.1186314475873544,0.1111268951255536,0.1186292979301521,50163674.11730111,True
A4_RULE_LLM_BLEND,2024-01-09,2024-01-10,266420,ETF_008,KODEX 헬스케어,13920.0,13880.0,8593.0,11737.0,3144.0,BUY,119614560.0,163379040.0,43764480.0,43764480.0,248696252.0,6564.672,37304.4378,1002374518.5551012,1002337214.1173012,990754569.0316776,-0.0076327116220288,0.95,0.05,0.1715890183028286,0.1630095673876871,0.1193312058375361,0.1629980785896273,50163674.11730111,True
A4_RULE_LLM_BLEND,2024-01-09,2024-01-10,315270,ETF_009,TIGER 200 커뮤니케이션서비스,17854.0,17844.0,6128.0,4572.0,-1556.0,SELL,109409312.0,81628488.0,-27780824.0,27780824.0,248696252.0,4167.1236,37304.4378,1002374518.5551012,1002337214.1173012,990754569.0316776,-0.0076327116220288,0.95,0.05,0.0857321131447587,0.0814455074875207,0.1091501329839378,0.0814381496070515,50163674.11730111,True
A4_RULE_LLM_BLEND,2024-01-10,2024-01-11,117460,ETF_001,KODEX 에너지화학,14994.0,14974.0,1712.0,2779.0,1067.0,BUY,25669728.0,41668326.0,15998598.0,15998598.0,237511066.0,2399.7897,35626.6599,992206038.0316776,992170411.3717777,992126436.3711166,0.001384669202969,0.95,0.05,0.0442122186495176,0.0420016077170418,0.0258713684618601,0.0419971463797123,49632188.371777534,True
A4_RULE_LLM_BLEND,2024-01-10,2024-01-11,117680,ETF_002,KODEX 철강,8579.0,8560.0,12361.0,11499.0,-862.0,SELL,106045019.0,98649921.0,-7395098.0,7395098.0,237511066.0,1109.2647,35626.6599,992206038.0316776,992170411.3717777,992126436.3711166,0.001384669202969,0.95,0.05,0.1046623794212218,0.0994292604501607,0.1068780222405927,0.0994284045052365,49632188.371777534,True
A4_RULE_LLM_BLEND,2024-01-10,2024-01-11,139260,ETF_003,TIGER 200 IT,30469.0,30727.0,8849.0,6428.0,-2421.0,SELL,269620181.0,195854732.0,-73765449.0,73765449.0,237511066.0,11064.81735,35626.6599,992206038.0316776,992170411.3717777,992126436.3711166,0.001384669202969,0.95,0.05,0.2077974276527331,0.1974075562700964,0.2717380973964522,0.1974002951057678,49632188.371777534,True
A4_RULE_LLM_BLEND,2024-01-10,2024-01-11,139270,ETF_004,TIGER 200 금융,5771.0,5785.0,7114.0,17750.0,10636.0,BUY,41054894.0,102435250.0,61380356.0,61380356.0,237511066.0,9207.0534,35626.6599,992206038.0316776,992170411.3717777,992126436.3711166,0.001384669202969,0.95,0.05,0.1086816720257234,0.1032475884244372,0.0413773877867585,0.1032436049552946,49632188.371777534,True
A4_RULE_LLM_BLEND,2024-01-10,2024-01-11,266390,ETF_006,KODEX 경기소비재,7942.0,7932.0,17217.0,17487.0,270.0,BUY,136737414.0,138881754.0,2144340.0,2144340.0,237511066.0,321.651,35626.6599,992206038.0316776,992170411.3717777,992126436.3711166,0.001384669202969,0.95,0.05,0.1473472668810289,0.1399799035369775,0.1378115116808375,0.1399777219802208,49632188.371777534,True
A4_RULE_LLM_BLEND,2024-01-10,2024-01-11,266410,ETF_007,KODEX 필수소비재,6179.0,6127.0,19080.0,20760.0,1680.0,BUY,117895320.0,128276040.0,10380720.0,10380720.0,237511066.0,1557.108,35626.6599,992206038.0316776,992170411.3717777,992126436.3711166,0.001384669202969,0.95,0.05,0.1360932475884244,0.1292885852090032,0.118821409547032,0.1292883143155269,49632188.371777534,True
A4_RULE_LLM_BLEND,2024-01-10,2024-01-11,266420,ETF_008,KODEX 헬스케어,13885.0,13841.0,11737.0,13833.0,2096.0,BUY,162968245.0,192071205.0,29102960.0,29102960.0,237511066.0,4365.444,35626.6599,992206038.0316776,992170411.3717777,992126436.3711166,0.001384669202969,0.95,0.05,0.2037781350482315,0.1935892282958199,0.1642483907105562,0.1935869108759672,49632188.371777534,True
A4_RULE_LLM_BLEND,2024-01-10,2024-01-11,315270,ETF_009,TIGER 200 커뮤니케이션서비스,17945.0,18017.0,4572.0,2491.0,-2081.0,SELL,82044540.0,44700995.0,-37343545.0,37343545.0,237511066.0,5601.53175,35626.6599,992206038.0316776,992170411.3717777,992126436.3711166,0.001384669202969,0.95,0.05,0.0474276527331189,0.045056270096463,0.0826890150384073,0.0450537473075782,49632188.371777534,True
A4_RULE_LLM_BLEND,2024-01-11,2024-01-12,117460,ETF_001,KODEX 에너지화학,15028.0,14783.0,2779.0,2261.0,-518.0,SELL,41762812.0,33978308.0,-7784504.0,7784504.0,312236070.0,1167.6755999999998,46835.4105,989486374.3711166,989439538.9606166,979815419.5372716,-0.0124087176619087,0.95,0.05,0.0361538461538461,0.0343461538461538,0.0422065559281127,0.0343409644167782,49521658.96061659,True
A4_RULE_LLM_BLEND,2024-01-11,2024-01-12,117680,ETF_002,KODEX 철강,8560.0,8443.0,11499.0,15753.0,4254.0,BUY,98431440.0,134845680.0,36414240.0,36414240.0,312236070.0,5462.136,46835.4105,989486374.3711166,989439538.9606166,979815419.5372716,-0.0124087176619087,0.95,0.05,0.1434615384615384,0.1362884615384615,0.0994773071661139,0.1362849114981318,49521658.96061659,True
A4_RULE_LLM_BLEND,2024-01-11,2024-01-12,139260,ETF_003,TIGER 200 IT,30557.0,30090.0,6428.0,7441.0,1013.0,BUY,196420396.0,227374637.0,30954241.0,30954241.0,312236070.0,4643.136149999999,46835.4105,989486374.3711166,989439538.9606166,979815419.5372716,-0.0124087176619087,0.95,0.05,0.2419230769230769,0.229826923076923,0.1985074287908593,0.229801446219596,49521658.96061659,True
A4_RULE_LLM_BLEND,2024-01-11,2024-01-12,139270,ETF_004,TIGER 200 금융,5830.0,5762.0,17750.0,2356.0,-15394.0,SELL,103482500.0,13735480.0,-89747020.0,89747020.0,312236070.0,13462.053,46835.4105,989486374.3711166,989439538.9606166,979815419.5372716,-0.0124087176619087,0.95,0.05,0.0146153846153846,0.0138846153846153,0.1045820363779843,0.0138820811774196,49521658.96061659,True
A4_RULE_LLM_BLEND,2024-01-11,2024-01-12,266390,ETF_006,KODEX 경기소비재,7942.0,7894.0,17487.0,13383.0,-4104.0,SELL,138881754.0,106287786.0,-32593968.0,32593968.0,312236070.0,4889.0952,46835.4105,989486374.3711166,989439538.9606166,979815419.5372716,-0.0124087176619087,0.95,0.05,0.113076923076923,0.1074230769230769,0.1403574193614019,0.1074222141068395,49521658.96061659,True
A4_RULE_LLM_BLEND,2024-01-11,2024-01-12,266410,ETF_007,KODEX 필수소비재,6127.0,6079.0,20760.0,19943.0,-817.0,SELL,127196520.0,122190761.0,-5005759.0,5005759.0,312236070.0,750.86385,46835.4105,989486374.3711166,989439538.9606166,979815419.5372716,-0.0124087176619087,0.95,0.05,0.13,0.1235,0.1285480258187908,0.1234949243370227,49521658.96061659,True
A4_RULE_LLM_BLEND,2024-01-11,2024-01-12,266420,ETF_008,KODEX 헬스케어,13667.0,13562.0,13833.0,12300.0,-1533.0,SELL,189055611.0,168104100.0,-20951511.0,20951511.0,312236070.0,3142.72665,46835.4105,989486374.3711166,989439538.9606166,979815419.5372716,-0.0124087176619087,0.95,0.05,0.1788461538461538,0.1699038461538461,0.191064390472438,0.1698983044245325,49521658.96061659,True
A4_RULE_LLM_BLEND,2024-01-11,2024-01-12,315270,ETF_009,TIGER 200 커뮤니케이션서비스,17911.0,17816.0,2491.0,7448.0,4957.0,BUY,44616301.0,133401128.0,88784827.0,88784827.0,312236070.0,13317.72405,46835.4105,989486374.3711166,989439538.9606166,979815419.5372716,-0.0124087176619087,0.95,0.05,0.1419230769230769,0.134826923076923,0.0450903642087609,0.1348249415422945,49521658.96061659,True
A4_RULE_LLM_BLEND,2024-01-12,2024-01-15,117460,ETF_001,KODEX 에너지화학,14876.0,14636.0,2261.0,2306.0,45.0,BUY,33634636.0,34304056.0,669420.0,669420.0,613960205.0,100.41299999999998,92094.03075,981506518.5372716,981414424.5065216,976604538.9482608,-0.0032770259836565,0.95,0.05,0.0368055555555555,0.0349652777777777,0.0342683776060146,0.034953690452684,49118775.5065217,True
A4_RULE_LLM_BLEND,2024-01-12,2024-01-15,117680,ETF_002,KODEX 철강,8424.0,8373.0,15753.0,6686.0,-9067.0,SELL,132703272.0,56322864.0,-76380408.0,76380408.0,613960205.0,11457.061199999998,92094.03075,981506518.5372716,981414424.5065216,976604538.9482608,-0.0032770259836565,0.95,0.05,0.0604166666666666,0.0573958333333333,0.1352036583493772,0.0573894805227877,49118775.5065217,True
A4_RULE_LLM_BLEND,2024-01-12,2024-01-15,139260,ETF_003,TIGER 200 IT,30187.0,30177.0,7441.0,3174.0,-4267.0,SELL,224621467.0,95813538.0,-128807929.0,128807929.0,613960205.0,19321.18935,92094.03075,981506518.5372716,981414424.5065216,976604538.9482608,-0.0032770259836565,0.95,0.05,0.1027777777777777,0.0976388888888889,0.2288537699522881,0.0976280107643387,49118775.5065217,True
A4_RULE_LLM_BLEND,2024-01-12,2024-01-15,139270,ETF_004,TIGER 200 금융,5848.0,5871.0,2356.0,21035.0,18679.0,BUY,13777888.0,123012680.0,109234792.0,109234792.0,613960205.0,16385.2188,92094.03075,981506518.5372716,981414424.5065216,976604538.9482608,-0.0032770259836565,0.95,0.05,0.1319444444444444,0.1253472222222222,0.0140374900622494,0.1253422376198043,49118775.5065217,True
A4_RULE_LLM_BLEND,2024-01-12,2024-01-15,227550,ETF_005,TIGER 200 산업재,6209.0,6209.0,0.0,28155.0,28155.0,BUY,0.0,174814395.0,174814395.0,174814395.0,613960205.0,26222.15925,92094.03075,981506518.5372716,981414424.5065216,976604538.9482608,-0.0032770259836565,0.95,0.05,0.1875,0.1781249999999999,0.0,0.1781249496999198,49118775.5065217,True
A4_RULE_LLM_BLEND,2024-01-12,2024-01-15,266390,ETF_006,KODEX 경기소비재,7889.0,7870.0,13383.0,4842.0,-8541.0,SELL,105578487.0,38198538.0,-67379949.0,67379949.0,613960205.0,10106.99235,92094.03075,981506518.5372716,981414424.5065216,976604538.9482608,-0.0032770259836565,0.95,0.05,0.0409722222222222,0.0389236111111111,0.1075677899290393,0.0389219243636113,49118775.5065217,True
A4_RULE_LLM_BLEND,2024-01-12,2024-01-15,266410,ETF_007,KODEX 필수소비재,6108.0,6051.0,19943.0,15158.0,-4785.0,SELL,121811844.0,92585064.0,-29226780.0,29226780.0,613960205.0,4384.017,92094.03075,981506518.5372716,981414424.5065216,976604538.9482608,-0.0032770259836565,0.95,0.05,0.0993055555555555,0.0943402777777777,0.1241070147771762,0.0943383974069404,49118775.5065217,True
A4_RULE_LLM_BLEND,2024-01-12,2024-01-15,266420,ETF_008,KODEX 헬스케어,13547.0,13319.0,12300.0,13955.0,1655.0,BUY,166628100.0,189048385.0,22420285.0,22420285.0,613960205.0,3363.04275,92094.03075,981506518.5372716,981414424.5065216,976604538.9482608,-0.0032770259836565,0.95,0.05,0.2027777777777777,0.1926388888888889,0.1697676957340273,0.1926284964632122,49118775.5065217,True
A4_RULE_LLM_BLEND,2024-01-12,2024-01-15,315270,ETF_009,TIGER 200 커뮤니케이션서비스,17887.0,17854.0,7448.0,7167.0,-281.0,SELL,133222376.0,128196129.0,-5026247.0,5026247.0,613960205.0,753.93705,92094.03075,981506518.5372716,981414424.5065216,976604538.9482608,-0.0032770259836565,0.95,0.05,0.1375,0.130625,0.1357325432729064,0.1306238483956051,49118775.5065217,True
A4_RULE_LLM_BLEND,2024-01-15,2024-01-16,117460,ETF_001,KODEX 에너지화학,14720.0,14519.0,2306.0,7354.0,5048.0,BUY,33944320.0,108250880.0,74306560.0,74306560.0,416857974.0,11145.984,62528.6961,976594434.9482608,976531906.2521608,965193316.0259312,-0.0116845892756333,0.95,0.05,0.1166974382644818,0.1108625663512577,0.0347578470501916,0.1108523739029243,48880907.25216079,True
A4_RULE_LLM_BLEND,2024-01-15,2024-01-16,117680,ETF_002,KODEX 철강,8368.0,8340.0,6686.0,5846.0,-840.0,SELL,55948448.0,48919328.0,-7029120.0,7029120.0,416857974.0,1054.368,62528.6961,976594434.9482608,976531906.2521608,965193316.0259312,-0.0116845892756333,0.95,0.05,0.0527348257558273,0.0500980844680359,0.0572893373112085,0.0500949612468351,48880907.25216079,True
A4_RULE_LLM_BLEND,2024-01-15,2024-01-16,139260,ETF_003,TIGER 200 IT,30075.0,29686.0,3174.0,3908.0,734.0,BUY,95458050.0,117533100.0,22075050.0,22075050.0,416857974.0,3311.2575,62528.6961,976594434.9482608,976531906.2521608,965193316.0259312,-0.0116845892756333,0.95,0.05,0.1266962843295638,0.1203614701130856,0.0977458467752351,0.1203576649646617,48880907.25216079,True
A4_RULE_LLM_BLEND,2024-01-15,2024-01-16,139270,ETF_004,TIGER 200 금융,5907.0,5794.0,21035.0,17330.0,-3705.0,SELL,124253745.0,102368310.0,-21885435.0,21885435.0,416857974.0,3282.81525,62528.6961,976594434.9482608,976531906.2521608,965193316.0259312,-0.0116845892756333,0.95,0.05,0.1103507962150934,0.1048332564043387,0.12723167422778,0.1048284335049329,48880907.25216079,True
A4_RULE_LLM_BLEND,2024-01-15,2024-01-16,227550,ETF_005,TIGER 200 산업재,6185.0,6175.0,28155.0,0.0,-28155.0,SELL,174138675.0,0.0,-174138675.0,174138675.0,416857974.0,26120.80125,62528.6961,976594434.9482608,976531906.2521608,965193316.0259312,-0.0116845892756333,0.95,0.05,0.0,0.0,0.1783121721446484,0.0,48880907.25216079,True
A4_RULE_LLM_BLEND,2024-01-15,2024-01-16,266390,ETF_006,KODEX 경기소비재,7832.0,7775.0,4842.0,5303.0,461.0,BUY,37922544.0,41533096.0,3610552.0,3610552.0,416857974.0,541.5828,62528.6961,976594434.9482608,976531906.2521608,965193316.0259312,-0.0116845892756333,0.95,0.05,0.04477267482114,0.042534041080083,0.0388314152148625,0.0425312227220513,48880907.25216079,True
A4_RULE_LLM_BLEND,2024-01-15,2024-01-16,266410,ETF_007,KODEX 필수소비재,6022.0,5922.0,15158.0,22024.0,6866.0,BUY,91281476.0,132628528.0,41347052.0,41347052.0,416857974.0,6202.0578,62528.6961,976594434.9482608,976531906.2521608,965193316.0259312,-0.0116845892756333,0.95,0.05,0.1429667666743595,0.1358184283406416,0.0934691748523388,0.1358158675111968,48880907.25216079,True
A4_RULE_LLM_BLEND,2024-01-15,2024-01-16,266420,ETF_008,KODEX 헬스케어,13413.0,13309.0,13955.0,13561.0,-394.0,SELL,187178415.0,181893693.0,-5284722.0,5284722.0,416857974.0,792.7083,62528.6961,976594434.9482608,976531906.2521608,965193316.0259312,-0.0116845892756333,0.95,0.05,0.1960823909531502,0.1862782714054926,0.1916644292673207,0.1862649769407854,48880907.25216079,True
A4_RULE_LLM_BLEND,2024-01-15,2024-01-16,315270,ETF_009,TIGER 200 커뮤니케이션서비스,17768.0,17557.0,7167.0,10948.0,3781.0,BUY,127343256.0,194524064.0,67180808.0,67180808.0,416857974.0,10077.121199999998,62528.6961,976594434.9482608,976531906.2521608,965193316.0259312,-0.0116845892756333,0.95,0.05,0.2096988229863835,0.1992138818370643,0.130395230039117,0.1991988820381357,48880907.25216079,True
A4_RULE_LLM_BLEND,2024-01-16,2024-01-17,117460,ETF_001,KODEX 에너지화학,14519.0,14014.0,7354.0,4514.0,-2840.0,SELL,106772726.0,65538766.0,-41233960.0,41233960.0,453237050.0,6185.093999999999,67985.5575,964760737.0259312,964692751.4684312,945566913.0475088,-0.0203341679356336,0.95,0.05,0.0715277777777777,0.0679513888888888,0.1106727522195279,0.0679374504475529,48296372.46843112,True
A4_RULE_LLM_BLEND,2024-01-16,2024-01-17,117680,ETF_002,KODEX 철강,8363.0,8134.0,5846.0,3576.0,-2270.0,SELL,48890098.0,29906088.0,-18984010.0,18984010.0,453237050.0,2847.6015,67985.5575,964760737.0259312,964692751.4684312,945566913.0475088,-0.0203341679356336,0.95,0.05,0.0326388888888888,0.0310069444444444,0.0506758786128813,0.031000635129141,48296372.46843112,True
A4_RULE_LLM_BLEND,2024-01-16,2024-01-17,139260,ETF_003,TIGER 200 IT,29978.0,29038.0,3908.0,2844.0,-1064.0,SELL,117154024.0,85257432.0,-31896592.0,31896592.0,453237050.0,4784.488799999999,67985.5575,964760737.0259312,964692751.4684312,945566913.0475088,-0.0203341679356336,0.95,0.05,0.0930555555555555,0.0884027777777777,0.1214332419467554,0.0883778092768119,48296372.46843112,True
A4_RULE_LLM_BLEND,2024-01-16,2024-01-17,139270,ETF_004,TIGER 200 금융,5880.0,5717.0,17330.0,22621.0,5291.0,BUY,101900400.0,133011480.0,31111080.0,31111080.0,453237050.0,4666.661999999999,67985.5575,964760737.0259312,964692751.4684312,945566913.0475088,-0.0203341679356336,0.95,0.05,0.1451388888888888,0.1378819444444444,0.1056224575578484,0.1378796303771675,48296372.46843112,True
A4_RULE_LLM_BLEND,2024-01-16,2024-01-17,227550,ETF_005,TIGER 200 산업재,6052.0,6019.0,0.0,32284.0,32284.0,BUY,0.0,195382768.0,195382768.0,195382768.0,453237050.0,29307.4152,67985.5575,964760737.0259312,964692751.4684312,945566913.0475088,-0.0203341679356336,0.95,0.05,0.2131944444444444,0.2025347222222222,0.0,0.2025336747918892,48296372.46843112,True
A4_RULE_LLM_BLEND,2024-01-16,2024-01-17,266390,ETF_006,KODEX 경기소비재,7727.0,7622.0,5303.0,5353.0,50.0,BUY,40976281.0,41362631.0,386350.0,386350.0,453237050.0,57.9525,67985.5575,964760737.0259312,964692751.4684312,945566913.0475088,-0.0203341679356336,0.95,0.05,0.0451388888888888,0.0428819444444444,0.0424729981511453,0.042876481591718,48296372.46843112,True
A4_RULE_LLM_BLEND,2024-01-16,2024-01-17,266410,ETF_007,KODEX 필수소비재,5927.0,5793.0,22024.0,15999.0,-6025.0,SELL,130536248.0,94826073.0,-35710175.0,35710175.0,453237050.0,5356.52625,67985.5575,964760737.0259312,964692751.4684312,945566913.0475088,-0.0203341679356336,0.95,0.05,0.1034722222222222,0.0982986111111111,0.1353042707795139,0.098296657516767,48296372.46843112,True
A4_RULE_LLM_BLEND,2024-01-16,2024-01-17,266420,ETF_008,KODEX 헬스케어,13284.0,12901.0,13561.0,8863.0,-4698.0,SELL,180144324.0,117736092.0,-62408232.0,62408232.0,453237050.0,9361.2348,67985.5575,964760737.0259312,964692751.4684312,945566913.0475088,-0.0203341679356336,0.95,0.05,0.1284722222222222,0.1220486111111111,0.1867243525636533,0.1220451711913301,48296372.46843112,True
A4_RULE_LLM_BLEND,2024-01-16,2024-01-17,315270,ETF_009,TIGER 200 커뮤니케이션서비스,17309.0,17026.0,10948.0,8861.0,-2087.0,SELL,189498932.0,153375049.0,-36123883.0,36123883.0,453237050.0,5418.58245,67985.5575,964760737.0259312,964692751.4684312,945566913.0475088,-0.0203341679356336,0.95,0.05,0.1673611111111111,0.1589930555555555,0.1964206509731817,0.1589884953178474,48296372.46843112,True
A4_RULE_LLM_BLEND,2024-01-17,2024-01-18,117460,ETF_001,KODEX 에너지화학,14048.0,13980.0,4514.0,2969.0,-1545.0,SELL,63412672.0,41708512.0,-21704160.0,21704160.0,672413867.0,3255.624,100862.08005,946587513.0475088,946486650.9674588,944951861.304688,-0.0006504581900379,0.95,0.05,0.0463881837064389,0.044068774521117,0.066990818203216,0.0440666669280198,47368358.967458725,True
A4_RULE_LLM_BLEND,2024-01-17,2024-01-18,117680,ETF_002,KODEX 철강,8111.0,8106.0,3576.0,3185.0,-391.0,SELL,29004936.0,25833535.0,-3171401.0,3171401.0,672413867.0,475.71015,100862.08005,946587513.0475088,946486650.9674588,944951861.304688,-0.0006504581900379,0.95,0.05,0.0287329794599584,0.0272963304869605,0.0306415789350733,0.0272941356051815,47368358.967458725,True
A4_RULE_LLM_BLEND,2024-01-17,2024-01-18,139260,ETF_003,TIGER 200 IT,29092.0,29262.0,2844.0,1198.0,-1646.0,SELL,82737648.0,34852216.0,-47885432.0,47885432.0,672413867.0,7182.814799999999,100862.08005,946587513.0475088,946486650.9674588,944951861.304688,-0.0006504581900379,0.95,0.05,0.0387722132471728,0.0368336025848142,0.0874062322390338,0.0368227232411313,47368358.967458725,True
A4_RULE_LLM_BLEND,2024-01-17,2024-01-18,139270,ETF_004,TIGER 200 금융,5717.0,5631.0,22621.0,10653.0,-11968.0,SELL,129324257.0,60903201.0,-68421056.0,68421056.0,672413867.0,10263.158399999998,100862.08005,946587513.0475088,946486650.9674588,944951861.304688,-0.0006504581900379,0.95,0.05,0.0677359796907454,0.0643491807062081,0.1366215539687869,0.064346603238141,47368358.967458725,True
A4_RULE_LLM_BLEND,2024-01-17,2024-01-18,227550,ETF_005,TIGER 200 산업재,6028.0,6009.0,32284.0,0.0,-32284.0,SELL,194607952.0,0.0,-194607952.0,194607952.0,672413867.0,29191.1928,100862.08005,946587513.0475088,946486650.9674588,944951861.304688,-0.0006504581900379,0.95,0.05,0.0,0.0,0.2055889701877281,0.0,47368358.967458725,True
A4_RULE_LLM_BLEND,2024-01-17,2024-01-18,266390,ETF_006,KODEX 경기소비재,7660.0,7607.0,5353.0,24371.0,19018.0,BUY,41003980.0,186681860.0,145677880.0,145677880.0,672413867.0,21851.682,100862.08005,946587513.0475088,946486650.9674588,944951861.304688,-0.0006504581900379,0.95,0.05,0.2076217401338564,0.1972406531271636,0.043317685300949,0.1972366539022834,47368358.967458725,True
A4_RULE_LLM_BLEND,2024-01-17,2024-01-18,266410,ETF_007,KODEX 필수소비재,5803.0,5865.0,15999.0,31902.0,15903.0,BUY,92842197.0,185127306.0,92285109.0,92285109.0,672413867.0,13842.766349999998,100862.08005,946587513.0475088,946486650.9674588,944951861.304688,-0.0006504581900379,0.95,0.05,0.2058908377567505,0.195596295868913,0.0980809441496829,0.195594207071775,47368358.967458725,True
A4_RULE_LLM_BLEND,2024-01-17,2024-01-18,266420,ETF_008,KODEX 헬스케어,12931.0,12797.0,8863.0,13634.0,4771.0,BUY,114607453.0,176301254.0,61693801.0,61693801.0,672413867.0,9254.07015,100862.08005,946587513.0475088,946486650.9674588,944951861.304688,-0.0006504581900379,0.95,0.05,0.1960823909531502,0.1862782714054927,0.1210743343011412,0.1862691394747007,47368358.967458725,True
A4_RULE_LLM_BLEND,2024-01-17,2024-01-18,315270,ETF_009,TIGER 200 커뮤니케이션서비스,17012.0,17060.0,8861.0,11034.0,2173.0,BUY,150743332.0,187710408.0,36967076.0,36967076.0,672413867.0,5545.0614,100862.08005,946587513.0475088,946486650.9674588,944951861.304688,-0.0006504581900379,0.95,0.05,0.208775675051927,0.1983368912993307,0.1592492293868176,0.1983233549127505,47368358.967458725,True
A4_RULE_LLM_BLEND,2024-01-18,2024-01-19,117460,ETF_001,KODEX 에너지화학,14014.0,13720.0,2969.0,4481.0,1512.0,BUY,41607566.0,62796734.0,21189168.0,21189168.0,724356465.0,3178.3752,108653.46975,952145735.304688,952037081.834938,946687668.7548,0.001836926854364,0.95,0.05,0.0694444444444444,0.0659722222222222,0.0436987369235923,0.0659603866258725,47638660.83493805,True
A4_RULE_LLM_BLEND,2024-01-18,2024-01-19,117680,ETF_002,KODEX 철강,8115.0,8106.0,3185.0,6888.0,3703.0,BUY,25846275.0,55896120.0,30049845.0,30049845.0,724356465.0,4507.47675,108653.46975,952145735.304688,952037081.834938,946687668.7548,0.001836926854364,0.95,0.05,0.0618055555555555,0.0587152777777777,0.0271452930382859,0.0587121248389473,47638660.83493805,True
A4_RULE_LLM_BLEND,2024-01-18,2024-01-19,139260,ETF_003,TIGER 200 IT,29729.0,29905.0,1198.0,4035.0,2837.0,BUY,35615342.0,119956515.0,84341173.0,84341173.0,724356465.0,12651.17595,108653.46975,952145735.304688,952037081.834938,946687668.7548,0.001836926854364,0.95,0.05,0.1326388888888889,0.1260069444444444,0.0374053473952735,0.1259998347635767,47638660.83493805,True
A4_RULE_LLM_BLEND,2024-01-18,2024-01-19,139270,ETF_004,TIGER 200 금융,5631.0,5663.0,10653.0,15727.0,5074.0,BUY,59987043.0,88558737.0,28571694.0,28571694.0,724356465.0,4285.7541,108653.46975,952145735.304688,952037081.834938,946687668.7548,0.001836926854364,0.95,0.05,0.0979166666666666,0.0930208333333333,0.0630019552424966,0.0930202601240212,47638660.83493805,True
A4_RULE_LLM_BLEND,2024-01-18,2024-01-19,227550,ETF_005,TIGER 200 산업재,6033.0,5971.0,0.0,32793.0,32793.0,BUY,0.0,197840169.0,197840169.0,197840169.0,724356465.0,29676.02535,108653.46975,952145735.304688,952037081.834938,946687668.7548,0.001836926854364,0.95,0.05,0.21875,0.2078124999999999,0.0,0.2078072091674062,47638660.83493805,True
A4_RULE_LLM_BLEND,2024-01-18,2024-01-19,266390,ETF_006,KODEX 경기소비재,7684.0,7650.0,24371.0,7193.0,-17178.0,SELL,187266764.0,55271012.0,-131995752.0,131995752.0,724356465.0,19799.3628,108653.46975,952145735.304688,952037081.834938,946687668.7548,0.001836926854364,0.95,0.05,0.0611111111111111,0.0580555555555555,0.1966786774926575,0.0580555243641053,47638660.83493805,True
A4_RULE_LLM_BLEND,2024-01-18,2024-01-19,266410,ETF_007,KODEX 필수소비재,5898.0,5869.0,31902.0,21937.0,-9965.0,SELL,188157996.0,129384426.0,-58773570.0,58773570.0,724356465.0,8816.0355,108653.46975,952145735.304688,952037081.834938,946687668.7548,0.001836926854364,0.95,0.05,0.1430555555555555,0.1359027777777777,0.1976147022701195,0.1359027168885343,47638660.83493805,True
A4_RULE_LLM_BLEND,2024-01-18,2024-01-19,266420,ETF_008,KODEX 헬스케어,12916.0,12737.0,13634.0,3063.0,-10571.0,SELL,176096744.0,39561708.0,-136535036.0,136535036.0,724356465.0,20480.2554,108653.46975,952145735.304688,952037081.834938,946687668.7548,0.001836926854364,0.95,0.05,0.04375,0.0415624999999999,0.1849472590912238,0.0415547973443949,47638660.83493805,True
A4_RULE_LLM_BLEND,2024-01-18,2024-01-19,315270,ETF_009,TIGER 200 커뮤니케이션서비스,17237.0,17045.0,11034.0,9000.0,-2034.0,SELL,190193058.0,155133000.0,-35060058.0,35060058.0,724356465.0,5259.008699999999,108653.46975,952145735.304688,952037081.834938,946687668.7548,0.001836926854364,0.95,0.05,0.1715277777777777,0.1629513888888888,0.1997520452466637,0.1629484848436782,47638660.83493805,True
A4_RULE_LLM_BLEND,2024-01-19,2024-01-22,117460,ETF_001,KODEX 에너지화학,13818.0,13240.0,4481.0,1453.0,-3028.0,SELL,61918458.0,20077554.0,-41840904.0,41840904.0,341893541.0,6276.1356,51284.03115,951295595.7548,951244311.72365,946284106.707176,-0.0004262884802914,0.95,0.05,0.0222222222222222,0.0211111111111111,0.0650885574119274,0.0211066218767916,47631888.72364998,True
A4_RULE_LLM_BLEND,2024-01-19,2024-01-22,117680,ETF_002,KODEX 철강,8144.0,7999.0,6888.0,2388.0,-4500.0,SELL,56095872.0,19447872.0,-36648000.0,36648000.0,341893541.0,5497.199999999999,51284.03115,951295595.7548,951244311.72365,946284106.707176,-0.0004262884802914,0.95,0.05,0.0215277777777777,0.0204513888888888,0.058967866823236,0.0204446657502325,47631888.72364998,True
A4_RULE_LLM_BLEND,2024-01-19,2024-01-22,139260,ETF_003,TIGER 200 IT,30260.0,29856.0,4035.0,4686.0,651.0,BUY,122099100.0,141798360.0,19699260.0,19699260.0,341893541.0,2954.889,51284.03115,951295595.7548,951244311.72365,946284106.707176,-0.0004262884802914,0.95,0.05,0.1569444444444444,0.1490972222222222,0.1283503261708272,0.1490661844201329,47631888.72364998,True
A4_RULE_LLM_BLEND,2024-01-19,2024-01-22,139270,ETF_004,TIGER 200 금융,5717.0,5663.0,15727.0,15477.0,-250.0,SELL,89911259.0,88482009.0,-1429250.0,1429250.0,341893541.0,214.3875,51284.03115,951295595.7548,951244311.72365,946284106.707176,-0.0004262884802914,0.95,0.05,0.0979166666666666,0.0930208333333333,0.0945145330234189,0.0930171228458344,47631888.72364998,True
A4_RULE_LLM_BLEND,2024-01-19,2024-01-22,227550,ETF_005,TIGER 200 산업재,5909.0,5933.0,32793.0,21346.0,-11447.0,SELL,193773837.0,126133514.0,-67640323.0,67640323.0,341893541.0,10146.048449999998,51284.03115,951295595.7548,951244311.72365,946284106.707176,-0.0004262884802914,0.95,0.05,0.1395833333333333,0.1326041666666666,0.2036946642712576,0.1325984423196672,47631888.72364998,True
A4_RULE_LLM_BLEND,2024-01-19,2024-01-22,266390,ETF_006,KODEX 경기소비재,7650.0,7679.0,7193.0,17555.0,10362.0,BUY,55026450.0,134295750.0,79269300.0,79269300.0,341893541.0,11890.395,51284.03115,951295595.7548,951244311.72365,946284106.707176,-0.0004262884802914,0.95,0.05,0.1486111111111111,0.1411805555555555,0.0578436925867816,0.1411790308177052,47631888.72364998,True
A4_RULE_LLM_BLEND,2024-01-19,2024-01-22,266410,ETF_007,KODEX 필수소비재,5912.0,5888.0,21937.0,27174.0,5237.0,BUY,129691544.0,160652688.0,30961144.0,30961144.0,341893541.0,4644.1716,51284.03115,951295595.7548,951244311.72365,946284106.707176,-0.0004262884802914,0.95,0.05,0.1777777777777777,0.1688888888888889,0.1363314878979304,0.1688868842841205,47631888.72364998,True
A4_RULE_LLM_BLEND,2024-01-19,2024-01-22,266420,ETF_008,KODEX 헬스케어,12836.0,13000.0,3063.0,6257.0,3194.0,BUY,39316668.0,80314852.0,40998184.0,40998184.0,341893541.0,6149.727599999999,51284.03115,951295595.7548,951244311.72365,946284106.707176,-0.0004262884802914,0.95,0.05,0.0888888888888888,0.0844444444444444,0.0413296016248287,0.0844313611236948,47631888.72364998,True
A4_RULE_LLM_BLEND,2024-01-19,2024-01-22,315270,ETF_009,TIGER 200 커뮤니케이션서비스,17313.0,16993.0,9000.0,7648.0,-1352.0,SELL,155817000.0,132409824.0,-23407176.0,23407176.0,341893541.0,3511.0763999999995,51284.03115,951295595.7548,951244311.72365,946284106.707176,-0.0004262884802914,0.95,0.05,0.1465277777777777,0.1392013888888889,0.1637945142344193,0.1391964423525162,47631888.72364998,True
A4_RULE_LLM_BLEND,2024-01-22,2024-01-23,117460,ETF_001,KODEX 에너지화학,13264.0,13343.0,1453.0,1965.0,512.0,BUY,19272592.0,26063760.0,6791168.0,6791168.0,271984728.0,1018.6752,40797.7092,949908581.707176,949867783.9979758,953885419.9031328,0.0080328023498223,0.95,0.05,0.0288888888888888,0.0274444444444444,0.0202888913429577,0.0274393557072734,47532940.99797583,True
A4_RULE_LLM_BLEND,2024-01-22,2024-01-23,117680,ETF_002,KODEX 철강,7999.0,8055.0,2388.0,11892.0,9504.0,BUY,19101612.0,95124108.0,76022496.0,76022496.0,271984728.0,11403.3744,40797.7092,949908581.707176,949867783.9979758,953885419.9031328,0.0080328023498223,0.95,0.05,0.1054166666666666,0.1001458333333333,0.0201088950745876,0.1001445775954463,47532940.99797583,True
A4_RULE_LLM_BLEND,2024-01-22,2024-01-23,139260,ETF_003,TIGER 200 IT,29953.0,29885.0,4686.0,5029.0,343.0,BUY,140359758.0,150633637.0,10273879.0,10273879.0,271984728.0,1541.0818499999998,40797.7092,949908581.707176,949867783.9979758,953885419.9031328,0.0080328023498223,0.95,0.05,0.1669444444444444,0.1585972222222222,0.1477613327250349,0.1585837940160322,47532940.99797583,True
A4_RULE_LLM_BLEND,2024-01-22,2024-01-23,139270,ETF_004,TIGER 200 금융,5762.0,5839.0,15477.0,19075.0,3598.0,BUY,89178474.0,109910150.0,20731676.0,20731676.0,271984728.0,3109.7514,40797.7092,949908581.707176,949867783.9979758,953885419.9031328,0.0080328023498223,0.95,0.05,0.1218055555555555,0.1157152777777777,0.0938811120536761,0.1157109987848942,47532940.99797583,True
A4_RULE_LLM_BLEND,2024-01-22,2024-01-23,227550,ETF_005,TIGER 200 산업재,5933.0,5881.0,21346.0,16181.0,-5165.0,SELL,126645818.0,96001873.0,-30643945.0,30643945.0,271984728.0,4596.59175,40797.7092,949908581.707176,949867783.9979758,953885419.9031328,0.0080328023498223,0.95,0.05,0.1063888888888889,0.1010694444444444,0.13332421712876,0.1010686693635717,47532940.99797583,True
A4_RULE_LLM_BLEND,2024-01-22,2024-01-23,266390,ETF_006,KODEX 경기소비재,7650.0,7755.0,17555.0,10567.0,-6988.0,SELL,134295750.0,80837550.0,-53458200.0,53458200.0,271984728.0,8018.73,40797.7092,949908581.707176,949867783.9979758,953885419.9031328,0.0080328023498223,0.95,0.05,0.0895833333333333,0.0851041666666666,0.1413775520994279,0.0851040022220316,47532940.99797583,True
A4_RULE_LLM_BLEND,2024-01-22,2024-01-23,266410,ETF_007,KODEX 필수소비재,5931.0,5931.0,27174.0,23265.0,-3909.0,SELL,161168994.0,137984715.0,-23184279.0,23184279.0,271984728.0,3477.64185,40797.7092,949908581.707176,949867783.9979758,953885419.9031328,0.0080328023498223,0.95,0.05,0.1529166666666666,0.1452708333333333,0.1696678997365694,0.1452672859576571,47532940.99797583,True
A4_RULE_LLM_BLEND,2024-01-22,2024-01-23,266420,ETF_008,KODEX 헬스케어,13075.0,13085.0,6257.0,4064.0,-2193.0,SELL,81810275.0,53136800.0,-28673475.0,28673475.0,271984728.0,4301.02125,40797.7092,949908581.707176,949867783.9979758,953885419.9031328,0.0080328023498223,0.95,0.05,0.0588888888888888,0.0559444444444444,0.0861243666763917,0.0559412592943706,47532940.99797583,True
A4_RULE_LLM_BLEND,2024-01-22,2024-01-23,315270,ETF_009,TIGER 200 커뮤니케이션서비스,17055.0,17251.0,7648.0,8950.0,1302.0,BUY,130436640.0,152642250.0,22205610.0,22205610.0,271984728.0,3330.8415,40797.7092,949908581.707176,949867783.9979758,953885419.9031328,0.0080328023498223,0.95,0.05,0.1691666666666666,0.1607083333333333,0.1373149401025299,0.1606984177919284,47532940.99797583,True
A4_RULE_LLM_BLEND,2024-01-23,2024-01-24,117460,ETF_001,KODEX 에너지화학,13470.0,13504.0,1965.0,1254.0,-711.0,SELL,26468550.0,16891380.0,-9577170.0,9577170.0,434697289.0,1436.5755,65204.59335,952818725.9031328,952753521.3097827,949133370.2650818,-0.0049817824435701,0.95,0.05,0.0186741363211951,0.0177404295051353,0.027779208447978,0.0177290134564696,47697340.30978274,True
A4_RULE_LLM_BLEND,2024-01-23,2024-01-24,117680,ETF_002,KODEX 철강,8055.0,8017.0,11892.0,18803.0,6911.0,BUY,95790060.0,151458165.0,55668105.0,55668105.0,434697289.0,8350.21575,65204.59335,952818725.9031328,952753521.3097827,949133370.2650818,-0.0049817824435701,0.95,0.05,0.16734360410831,0.1589764239028945,0.1005333516185935,0.1589688850394227,47697340.30978274,True
A4_RULE_LLM_BLEND,2024-01-23,2024-01-24,139260,ETF_003,TIGER 200 IT,29905.0,29710.0,5029.0,6651.0,1622.0,BUY,150392245.0,198898155.0,48505910.0,48505910.0,434697289.0,7275.8865,65204.59335,952818725.9031328,952753521.3097827,949133370.2650818,-0.0049817824435701,0.95,0.05,0.2197712418300653,0.2087826797385621,0.1578393044883224,0.2087613958398893,47697340.30978274,True
A4_RULE_LLM_BLEND,2024-01-23,2024-01-24,139270,ETF_004,TIGER 200 금융,5839.0,5902.0,19075.0,14806.0,-4269.0,SELL,111378925.0,86452234.0,-24926691.0,24926691.0,434697289.0,3739.00365,65204.59335,952818725.9031328,952753521.3097827,949133370.2650818,-0.0049817824435701,0.95,0.05,0.0955182072829131,0.0907422969187674,0.1168941394329011,0.0907393487049527,47697340.30978274,True
A4_RULE_LLM_BLEND,2024-01-23,2024-01-24,227550,ETF_005,TIGER 200 산업재,5838.0,5885.0,16181.0,14968.0,-1213.0,SELL,94464678.0,87383184.0,-7081494.0,7081494.0,434697289.0,1062.2241,65204.59335,952818725.9031328,952753521.3097827,949133370.2650818,-0.0049817824435701,0.95,0.05,0.0965452847805788,0.0917180205415499,0.0991423399140915,0.0917164639600296,47697340.30978274,True
A4_RULE_LLM_BLEND,2024-01-23,2024-01-24,266390,ETF_006,KODEX 경기소비재,7722.0,7765.0,10567.0,7592.0,-2975.0,SELL,81598374.0,58625424.0,-22972950.0,22972950.0,434697289.0,3445.9425,65204.59335,952818725.9031328,952753521.3097827,949133370.2650818,-0.0049817824435701,0.95,0.05,0.0647759103641456,0.0615371148459383,0.085638927722224,0.0615326237990762,47697340.30978274,True
A4_RULE_LLM_BLEND,2024-01-23,2024-01-24,266410,ETF_007,KODEX 필수소비재,5974.0,5931.0,23265.0,32696.0,9431.0,BUY,138985110.0,195325904.0,56340794.0,56340794.0,434697289.0,8451.1191,65204.59335,952818725.9031328,952753521.3097827,949133370.2650818,-0.0049817824435701,0.95,0.05,0.2158029878618114,0.2050128384687208,0.1458673158089566,0.2050119990440747,47697340.30978274,True
A4_RULE_LLM_BLEND,2024-01-23,2024-01-24,266420,ETF_008,KODEX 헬스케어,13115.0,12851.0,4064.0,8389.0,4325.0,BUY,53299360.0,110021735.0,56722375.0,56722375.0,434697289.0,8508.356249999999,65204.59335,952818725.9031328,952753521.3097827,949133370.2650818,-0.0049817824435701,0.95,0.05,0.1215686274509803,0.1154901960784313,0.0559386151331986,0.1154776471975137,47697340.30978274,True
A4_RULE_LLM_BLEND,2024-01-23,2024-01-24,315270,ETF_009,TIGER 200 커뮤니케이션서비스,17084.0,17213.0,8950.0,0.0,-8950.0,SELL,152901800.0,0.0,-152901800.0,152901800.0,434697289.0,22935.27,65204.59335,952818725.9031328,952753521.3097827,949133370.2650818,-0.0049817824435701,0.95,0.05,0.0,0.0,0.1604731265698745,0.0,47697340.30978274,True
A4_RULE_LLM_BLEND,2024-01-24,2024-01-25,117460,ETF_001,KODEX 에너지화학,13549.0,13553.0,1254.0,277.0,-977.0,SELL,16990446.0,3753073.0,-13237373.0,13237373.0,497903295.0,1985.60595,74685.49424999999,948669664.2650818,948594978.7708316,949304982.9588616,0.0001808098831588,0.95,0.05,0.0041666666666666,0.0039583333333333,0.0179097599933926,0.0039564546344775,47485301.7708317,True
A4_RULE_LLM_BLEND,2024-01-24,2024-01-25,117680,ETF_002,KODEX 철강,8003.0,8050.0,18803.0,4613.0,-14190.0,SELL,150480409.0,36917839.0,-113562570.0,113562570.0,497903295.0,17034.385499999997,74685.49424999999,948669664.2650818,948594978.7708316,949304982.9588616,0.0001808098831588,0.95,0.05,0.0409722222222222,0.0389236111111111,0.1586225581657811,0.0389184423554901,47485301.7708317,True
A4_RULE_LLM_BLEND,2024-01-24,2024-01-25,139260,ETF_003,TIGER 200 IT,29764.0,29355.0,6651.0,6118.0,-533.0,SELL,197960364.0,182096152.0,-15864212.0,15864212.0,497903295.0,2379.6318,74685.49424999999,948669664.2650818,948594978.7708316,949304982.9588616,0.0001808098831588,0.95,0.05,0.2020833333333333,0.1919791666666666,0.2086715444341277,0.1919640690444684,47485301.7708317,True
A4_RULE_LLM_BLEND,2024-01-24,2024-01-25,139270,ETF_004,TIGER 200 금융,5920.0,5907.0,14806.0,7188.0,-7618.0,SELL,87651520.0,42552960.0,-45098560.0,45098560.0,497903295.0,6764.783999999999,74685.49424999999,948669664.2650818,948594978.7708316,949304982.9588616,0.0001808098831588,0.95,0.05,0.0472222222222222,0.0448611111111111,0.0923941423465903,0.0448589344792222,47485301.7708317,True
A4_RULE_LLM_BLEND,2024-01-24,2024-01-25,227550,ETF_005,TIGER 200 산업재,5781.0,5852.0,14968.0,6495.0,-8473.0,SELL,86530008.0,37547595.0,-48982413.0,48982413.0,497903295.0,7347.361949999999,74685.49424999999,948669664.2650818,948594978.7708316,949304982.9588616,0.0001808098831588,0.95,0.05,0.0416666666666666,0.0395833333333333,0.0912119479092159,0.0395823252708477,47485301.7708317,True
A4_RULE_LLM_BLEND,2024-01-24,2024-01-25,266390,ETF_006,KODEX 경기소비재,7751.0,7765.0,7592.0,13321.0,5729.0,BUY,58845592.0,103251071.0,44405479.0,44405479.0,497903295.0,6660.821849999998,74685.49424999999,948669664.2650818,948594978.7708316,949304982.9588616,0.0001808098831588,0.95,0.05,0.1145833333333333,0.1088541666666666,0.062029591771111,0.108846318303087,47485301.7708317,True
A4_RULE_LLM_BLEND,2024-01-24,2024-01-25,266410,ETF_007,KODEX 필수소비재,5960.0,5970.0,32696.0,30660.0,-2036.0,SELL,194868160.0,182733600.0,-12134560.0,12134560.0,497903295.0,1820.184,74685.49424999999,948669664.2650818,948594978.7708316,949304982.9588616,0.0001808098831588,0.95,0.05,0.2027777777777777,0.1926388888888889,0.2054120283807757,0.1926360607946524,47485301.7708317,True
A4_RULE_LLM_BLEND,2024-01-24,2024-01-25,266420,ETF_008,KODEX 헬스케어,12831.0,12966.0,8389.0,8681.0,292.0,BUY,107639259.0,111385911.0,3746652.0,3746652.0,497903295.0,561.9978,74685.49424999999,948669664.2650818,948594978.7708316,949304982.9588616,0.0001808098831588,0.95,0.05,0.1236111111111111,0.1174305555555555,0.1134633719772058,0.1174219909368816,47485301.7708317,True
A4_RULE_LLM_BLEND,2024-01-24,2024-01-25,315270,ETF_009,TIGER 200 커뮤니케이션서비스,17036.0,17117.0,0.0,11791.0,11791.0,BUY,0.0,200871476.0,200871476.0,200871476.0,497903295.0,30130.7214,74685.49424999999,948669664.2650818,948594978.7708316,949304982.9588616,0.0001808098831588,0.95,0.05,0.2229166666666666,0.2117708333333333,0.0,0.2117568409019883,47485301.7708317,True
A4_RULE_LLM_BLEND,2024-01-25,2024-01-26,117460,ETF_001,KODEX 에너지화학,13460.0,13823.0,277.0,1902.0,1625.0,BUY,3728420.0,25600920.0,21872500.0,21872500.0,121252985.0,3280.875,18187.94775,946772210.9588616,946754023.0111116,955663318.7905464,0.0066978852379631,0.95,0.05,0.0284722222222222,0.0270486111111111,0.0039380327779413,0.0270407300922549,47385989.01111162,True
A4_RULE_LLM_BLEND,2024-01-25,2024-01-26,117680,ETF_002,KODEX 철강,7984.0,8148.0,4613.0,2972.0,-1641.0,SELL,36830192.0,23728448.0,-13101744.0,13101744.0,121252985.0,1965.2616,18187.94775,946772210.9588616,946754023.0111116,955663318.7905464,0.0066978852379631,0.95,0.05,0.0263888888888888,0.0250694444444444,0.0389007953272091,0.0250629492172979,47385989.01111162,True
A4_RULE_LLM_BLEND,2024-01-25,2024-01-26,139260,ETF_003,TIGER 200 IT,29160.0,29306.0,6118.0,6383.0,265.0,BUY,178400880.0,186128280.0,7727400.0,7727400.0,121252985.0,1159.11,18187.94775,946772210.9588616,946754023.0111116,955663318.7905464,0.0066978852379631,0.95,0.05,0.2069444444444444,0.1965972222222222,0.1884306255876702,0.1965962388076543,47385989.01111162,True
A4_RULE_LLM_BLEND,2024-01-25,2024-01-26,139270,ETF_004,TIGER 200 금융,5979.0,5988.0,7188.0,5641.0,-1547.0,SELL,42977052.0,33727539.0,-9249513.0,9249513.0,121252985.0,1387.4269499999998,18187.94775,946772210.9588616,946754023.0111116,955663318.7905464,0.0066978852379631,0.95,0.05,0.0375,0.035625,0.045393233454195,0.0356243947004639,47385989.01111162,True
A4_RULE_LLM_BLEND,2024-01-25,2024-01-26,227550,ETF_005,TIGER 200 산업재,5833.0,5885.0,6495.0,7174.0,679.0,BUY,37885335.0,41845942.0,3960607.0,3960607.0,121252985.0,594.0910499999999,18187.94775,946772210.9588616,946754023.0111116,955663318.7905464,0.0066978852379631,0.95,0.05,0.0465277777777777,0.0442013888888888,0.0400152587512374,0.0441993812362272,47385989.01111162,True
A4_RULE_LLM_BLEND,2024-01-25,2024-01-26,266390,ETF_006,KODEX 경기소비재,7717.0,7798.0,13321.0,16834.0,3513.0,BUY,102798157.0,129907978.0,27109821.0,27109821.0,121252985.0,4066.47315,18187.94775,946772210.9588616,946754023.0111116,955663318.7905464,0.0066978852379631,0.95,0.05,0.1444444444444444,0.1372222222222222,0.10857749711083,0.1372140755069971,47385989.01111162,True
A4_RULE_LLM_BLEND,2024-01-25,2024-01-26,266410,ETF_007,KODEX 필수소비재,5950.0,5965.0,30660.0,30652.0,-8.0,SELL,182427000.0,182379400.0,-47600.0,47600.0,121252985.0,7.14,18187.94775,946772210.9588616,946754023.0111116,955663318.7905464,0.0066978852379631,0.95,0.05,0.2027777777777777,0.1926388888888889,0.1926830951399002,0.1926365196948938,47385989.01111162,True
A4_RULE_LLM_BLEND,2024-01-25,2024-01-26,266420,ETF_008,KODEX 헬스케어,12916.0,13274.0,8681.0,6866.0,-1815.0,SELL,112123796.0,88681256.0,-23442540.0,23442540.0,121252985.0,3516.381,18187.94775,946772210.9588616,946754023.0111116,955663318.7905464,0.0066978852379631,0.95,0.05,0.0986111111111111,0.0936805555555555,0.118427426050501,0.0936687395506944,47385989.01111162,True
A4_RULE_LLM_BLEND,2024-01-25,2024-01-26,315270,ETF_009,TIGER 200 커뮤니케이션서비스,17141.0,17332.0,11791.0,10931.0,-860.0,SELL,202109531.0,187368271.0,-14741260.0,14741260.0,121252985.0,2211.189,18187.94775,946772210.9588616,946754023.0111116,955663318.7905464,0.0066978852379631,0.95,0.05,0.2083333333333333,0.1979166666666666,0.2134721833410274,0.1979059675966129,47385989.01111162,True
A4_RULE_LLM_BLEND,2024-01-26,2024-01-29,117460,ETF_001,KODEX 에너지화학,13798.0,13990.0,1902.0,6158.0,4256.0,BUY,26243796.0,84968084.0,58724288.0,58724288.0,319612806.0,8808.643199999999,47941.9209,961218939.7905464,961170997.8696464,960483244.206669,0.0050435392060692,0.95,0.05,0.0930555555555555,0.0884027777777777,0.0273026205722898,0.0884005907256091,48124164.86964655,True
A4_RULE_LLM_BLEND,2024-01-26,2024-01-29,117680,ETF_002,KODEX 철강,8195.0,8363.0,2972.0,3481.0,509.0,BUY,24355540.0,28526795.0,4171255.0,4171255.0,319612806.0,625.6882499999999,47941.9209,961218939.7905464,961170997.8696464,960483244.206669,0.0050435392060692,0.95,0.05,0.03125,0.0296875,0.0253381815440581,0.0296792090722953,48124164.86964655,True
A4_RULE_LLM_BLEND,2024-01-26,2024-01-29,139260,ETF_003,TIGER 200 IT,29311.0,29569.0,6383.0,6143.0,-240.0,SELL,187092113.0,180057473.0,-7034640.0,7034640.0,319612806.0,1055.196,47941.9209,961218939.7905464,961170997.8696464,960483244.206669,0.0050435392060692,0.95,0.05,0.1972222222222222,0.1873611111111111,0.194640477060063,0.1873313628886868,48124164.86964655,True
A4_RULE_LLM_BLEND,2024-01-26,2024-01-29,139270,ETF_004,TIGER 200 금융,6024.0,6065.0,5641.0,20736.0,15095.0,BUY,33981384.0,124913664.0,90932280.0,90932280.0,319612806.0,13639.842,47941.9209,961218939.7905464,961170997.8696464,960483244.206669,0.0050435392060692,0.95,0.05,0.1368055555555555,0.1299652777777777,0.0353523870507635,0.1299598763142671,48124164.86964655,True
A4_RULE_LLM_BLEND,2024-01-26,2024-01-29,227550,ETF_005,TIGER 200 산업재,5885.0,5828.0,7174.0,4956.0,-2218.0,SELL,42218990.0,29166060.0,-13052930.0,13052930.0,319612806.0,1957.9395,47941.9209,961218939.7905464,961170997.8696464,960483244.206669,0.0050435392060692,0.95,0.05,0.0319444444444444,0.0303472222222222,0.0439223451102614,0.0303442988444762,48124164.86964655,True
A4_RULE_LLM_BLEND,2024-01-26,2024-01-29,266390,ETF_006,KODEX 경기소비재,7846.0,7918.0,16834.0,8001.0,-8833.0,SELL,132079564.0,62775846.0,-69303718.0,69303718.0,319612806.0,10395.5577,47941.9209,961218939.7905464,961170997.8696464,960483244.206669,0.0050435392060692,0.95,0.05,0.06875,0.0653125,0.1374084077336019,0.065311839557308,48124164.86964655,True
A4_RULE_LLM_BLEND,2024-01-26,2024-01-29,266410,ETF_007,KODEX 필수소비재,6003.0,5979.0,30652.0,31583.0,931.0,BUY,184003956.0,189592749.0,5588793.0,5588793.0,319612806.0,838.31895,47941.9209,961218939.7905464,961170997.8696464,960483244.206669,0.0050435392060692,0.95,0.05,0.2076388888888889,0.1972569444444444,0.1914277261745333,0.1972518411606427,48124164.86964655,True
A4_RULE_LLM_BLEND,2024-01-26,2024-01-29,266420,ETF_008,KODEX 헬스케어,13503.0,13299.0,6866.0,1972.0,-4894.0,SELL,92711598.0,26627916.0,-66083682.0,66083682.0,319612806.0,9912.5523,47941.9209,961218939.7905464,961170997.8696464,960483244.206669,0.0050435392060692,0.95,0.05,0.0291666666666666,0.0277083333333333,0.0964521132097149,0.0277036199167666,48124164.86964655,True
A4_RULE_LLM_BLEND,2024-01-26,2024-01-29,315270,ETF_009,TIGER 200 커뮤니케이션서비스,17486.0,17108.0,10931.0,10661.0,-270.0,SELL,191139466.0,186418246.0,-4721220.0,4721220.0,319612806.0,708.183,47941.9209,961218939.7905464,961170997.8696464,960483244.206669,0.0050435392060692,0.95,0.05,0.2041666666666666,0.1939583333333333,0.1988511233888608,0.1939490958561797,48124164.86964655,True
A4_RULE_LLM_BLEND,2024-01-29,2024-01-30,117460,ETF_001,KODEX 에너지화학,13994.0,13911.0,6158.0,346.0,-5812.0,SELL,86175052.0,4841924.0,-81333128.0,81333128.0,724910340.0,12199.9692,108736.551,964285703.206669,964176966.655669,963102508.0654546,0.0027270271236736,0.95,0.05,0.0052991830426142,0.0050342238904835,0.0893667216193608,0.0050218208559727,48254004.655668974,True
A4_RULE_LLM_BLEND,2024-01-29,2024-01-30,117680,ETF_002,KODEX 철강,8448.0,8331.0,3481.0,3555.0,74.0,BUY,29407488.0,30032640.0,625152.0,625152.0,724910340.0,93.7728,108736.551,964285703.206669,964176966.655669,963102508.0654546,0.0027270271236736,0.95,0.05,0.0327886950761757,0.0311492603223669,0.0304966545726098,0.0311484727789866,48254004.655668974,True
A4_RULE_LLM_BLEND,2024-01-29,2024-01-30,139260,ETF_003,TIGER 200 IT,29729.0,29613.0,6143.0,5899.0,-244.0,SELL,182625247.0,175371371.0,-7253876.0,7253876.0,724910340.0,1088.0813999999998,108736.551,964285703.206669,964176966.655669,963102508.0654546,0.0027270271236736,0.95,0.05,0.1914605873261205,0.1818875579598145,0.1893891472130009,0.181887119341059,48254004.655668974,True
A4_RULE_LLM_BLEND,2024-01-29,2024-01-30,139270,ETF_004,TIGER 200 금융,6106.0,6115.0,20736.0,32397.0,11661.0,BUY,126614016.0,197816082.0,71202066.0,71202066.0,724910340.0,10680.309899999998,108736.551,964285703.206669,964176966.655669,963102508.0654546,0.0027270271236736,0.95,0.05,0.2159693088982115,0.2051708434533009,0.131303425508595,0.2051657411876806,48254004.655668974,True
A4_RULE_LLM_BLEND,2024-01-29,2024-01-30,227550,ETF_005,TIGER 200 산업재,5824.0,5762.0,4956.0,0.0,-4956.0,SELL,28863744.0,0.0,-28863744.0,28863744.0,724910340.0,4329.5616,108736.551,964285703.206669,964176966.655669,963102508.0654546,0.0027270271236736,0.95,0.05,0.0,0.0,0.0299327718994645,0.0,48254004.655668974,True
A4_RULE_LLM_BLEND,2024-01-29,2024-01-30,266390,ETF_006,KODEX 경기소비재,7946.0,7932.0,8001.0,24755.0,16754.0,BUY,63575946.0,196703230.0,133127284.0,133127284.0,724910340.0,19969.0926,108736.551,964285703.206669,964176966.655669,963102508.0654546,0.0027270271236736,0.95,0.05,0.2147549127842791,0.2040171671450651,0.0659306114241685,0.2040115422817889,48254004.655668974,True
A4_RULE_LLM_BLEND,2024-01-29,2024-01-30,266410,ETF_007,KODEX 필수소비재,6017.0,5974.0,31583.0,11092.0,-20491.0,SELL,190034911.0,66740564.0,-123294347.0,123294347.0,724910340.0,18494.15205,108736.551,964285703.206669,964176966.655669,963102508.0654546,0.0027270271236736,0.95,0.05,0.0728637668359461,0.0692205784941488,0.1970732433012864,0.0692202430758073,48254004.655668974,True
A4_RULE_LLM_BLEND,2024-01-29,2024-01-30,266420,ETF_008,KODEX 헬스케어,13423.0,13448.0,1972.0,13697.0,11725.0,BUY,26470156.0,183854831.0,157384675.0,157384675.0,724910340.0,23607.70125,108736.551,964285703.206669,964176966.655669,963102508.0654546,0.0027270271236736,0.95,0.05,0.2007341576506955,0.1906974497681607,0.0274505324635377,0.1906857738343577,48254004.655668974,True
A4_RULE_LLM_BLEND,2024-01-29,2024-01-30,315270,ETF_009,TIGER 200 커뮤니케이션서비스,17108.0,17175.0,10661.0,3540.0,-7121.0,SELL,182388388.0,60562320.0,-121826068.0,121826068.0,724910340.0,18273.9102,108736.551,964285703.206669,964176966.655669,963102508.0654546,0.0027270271236736,0.95,0.05,0.0661293883859571,0.0628229189666593,0.1891435156546232,0.0628124525833319,48254004.655668974,True
A4_RULE_LLM_BLEND,2024-01-30,2024-01-31,117460,ETF_001,KODEX 에너지화학,13784.0,13798.0,346.0,551.0,205.0,BUY,4769264.0,7594984.0,2825720.0,2825720.0,348610594.0,423.858,52291.5891,960118365.0654546,960066073.4763546,959927181.5786536,-0.0032969766563885,0.95,0.05,0.0083333333333333,0.0079166666666666,0.0049673708716892,0.0079108971870018,48050201.4763546,True
A4_RULE_LLM_BLEND,2024-01-30,2024-01-31,117680,ETF_002,KODEX 철강,8260.0,8246.0,3555.0,15412.0,11857.0,BUY,29364300.0,127303120.0,97938820.0,97938820.0,348610594.0,14690.823,52291.5891,960118365.0654546,960066073.4763546,959927181.5786536,-0.0032969766563885,0.95,0.05,0.1395833333333333,0.1326041666666666,0.0305840415811628,0.132598290385412,48050201.4763546,True
A4_RULE_LLM_BLEND,2024-01-30,2024-01-31,139260,ETF_003,TIGER 200 IT,29364.0,29321.0,5899.0,5198.0,-701.0,SELL,173218236.0,152634072.0,-20584164.0,20584164.0,348610594.0,3087.6246,52291.5891,960118365.0654546,960066073.4763546,959927181.5786536,-0.0032969766563885,0.95,0.05,0.1673611111111111,0.1589930555555555,0.1804134180770421,0.1589828827585992,48050201.4763546,True
A4_RULE_LLM_BLEND,2024-01-30,2024-01-31,139270,ETF_004,TIGER 200 금융,6115.0,6247.0,32397.0,32005.0,-392.0,SELL,198107655.0,195710575.0,-2397080.0,2397080.0,348610594.0,359.56199999999995,52291.5891,960118365.0654546,960066073.4763546,959927181.5786536,-0.0032969766563885,0.95,0.05,0.2145833333333333,0.2038541666666666,0.206336699940631,0.2038511519226391,48050201.4763546,True
A4_RULE_LLM_BLEND,2024-01-30,2024-01-31,227550,ETF_005,TIGER 200 산업재,5762.0,5762.0,0.0,3737.0,3737.0,BUY,0.0,21532594.0,21532594.0,21532594.0,348610594.0,3229.8890999999994,52291.5891,960118365.0654546,960066073.4763546,959927181.5786536,-0.0032969766563885,0.95,0.05,0.0236111111111111,0.0224305555555555,0.0,0.0224282417584359,48050201.4763546,True
A4_RULE_LLM_BLEND,2024-01-30,2024-01-31,266390,ETF_006,KODEX 경기소비재,7903.0,7880.0,24755.0,16509.0,-8246.0,SELL,195638765.0,130470627.0,-65168138.0,65168138.0,348610594.0,9775.2207,52291.5891,960118365.0654546,960066073.4763546,959927181.5786536,-0.0032969766563885,0.95,0.05,0.1430555555555555,0.1359027777777777,0.2037652565750709,0.1358975497671446,48050201.4763546,True
A4_RULE_LLM_BLEND,2024-01-30,2024-01-31,266410,ETF_007,KODEX 필수소비재,5974.0,5846.0,11092.0,13570.0,2478.0,BUY,66263608.0,81067180.0,14803572.0,14803572.0,348610594.0,2220.5358,52291.5891,960118365.0654546,960066073.4763546,959927181.5786536,-0.0032969766563885,0.95,0.05,0.0888888888888888,0.0844444444444444,0.0690160821947016,0.0844391675111063,48050201.4763546,True
A4_RULE_LLM_BLEND,2024-01-30,2024-01-31,266420,ETF_008,KODEX 헬스케어,13498.0,13264.0,13697.0,7320.0,-6377.0,SELL,184882106.0,98805360.0,-86076746.0,86076746.0,348610594.0,12911.5119,52291.5891,960118365.0654546,960066073.4763546,959927181.5786536,-0.0032969766563885,0.95,0.05,0.1083333333333333,0.1029166666666666,0.1925617848038933,0.1029151667053814,48050201.4763546,True
A4_RULE_LLM_BLEND,2024-01-30,2024-01-31,315270,ETF_009,TIGER 200 커뮤니케이션서비스,16840.0,16821.0,3540.0,5754.0,2214.0,BUY,59613600.0,96897360.0,37283760.0,37283760.0,348610594.0,5592.563999999999,52291.5891,960118365.0654546,960066073.4763546,959927181.5786536,-0.0032969766563885,0.95,0.05,0.10625,0.1009375,0.062089844511969,0.1009278034887111,48050201.4763546,True
A4_RULE_LLM_BLEND,2024-01-31,2024-02-01,117460,ETF_001,KODEX 에너지화학,13730.0,14146.0,551.0,3217.0,2666.0,BUY,7565230.0,44169410.0,36604180.0,36604180.0,325911619.0,5490.627,48886.74285,957228338.5786536,957179451.8358036,976609425.9761294,0.0173786561289377,0.95,0.05,0.0485758445572974,0.0461470523294325,0.0079032658093191,0.04614538048773,47911142.83580363,True
A4_RULE_LLM_BLEND,2024-01-31,2024-02-01,117680,ETF_002,KODEX 철강,8167.0,8410.0,15412.0,11184.0,-4228.0,SELL,125869804.0,91339728.0,-34530076.0,34530076.0,325911619.0,5179.511399999999,48886.74285,957228338.5786536,957179451.8358036,976609425.9761294,0.0173786561289377,0.95,0.05,0.1004526385515566,0.0954300066239788,0.1314940217784385,0.0954259181231029,47911142.83580363,True
A4_RULE_LLM_BLEND,2024-01-31,2024-02-01,139260,ETF_003,TIGER 200 IT,29194.0,29705.0,5198.0,4048.0,-1150.0,SELL,151750412.0,118177312.0,-33573100.0,33573100.0,325911619.0,5035.964999999999,48886.74285,957228338.5786536,957179451.8358036,976609425.9761294,0.0173786561289377,0.95,0.05,0.1299790240671229,0.1234800728637668,0.1585310483236711,0.123464112997144,47911142.83580363,True
A4_RULE_LLM_BLEND,2024-01-31,2024-02-01,139270,ETF_004,TIGER 200 금융,6256.0,6569.0,32005.0,26730.0,-5275.0,SELL,200223280.0,167222880.0,-33000400.0,33000400.0,325911619.0,4950.06,48886.74285,957228338.5786536,957179451.8358036,976609425.9761294,0.0173786561289377,0.95,0.05,0.1839037315080592,0.1747085449326562,0.2091698207528026,0.174703792146058,47911142.83580363,True
A4_RULE_LLM_BLEND,2024-01-31,2024-02-01,227550,ETF_005,TIGER 200 산업재,5786.0,5866.0,3737.0,0.0,-3737.0,SELL,21622282.0,0.0,-21622282.0,21622282.0,325911619.0,3243.3423,48886.74285,957228338.5786536,957179451.8358036,976609425.9761294,0.0173786561289377,0.95,0.05,0.0,0.0,0.0225884265316528,0.0,47911142.83580363,True
A4_RULE_LLM_BLEND,2024-01-31,2024-02-01,266390,ETF_006,KODEX 경기소비재,7880.0,8075.0,16509.0,16769.0,260.0,BUY,130090920.0,132139720.0,2048800.0,2048800.0,325911619.0,307.31999999999994,48886.74285,957228338.5786536,957179451.8358036,976609425.9761294,0.0173786561289377,0.95,0.05,0.1453245749613601,0.1380583462132921,0.1359037491442912,0.1380511457350711,47911142.83580363,True
A4_RULE_LLM_BLEND,2024-01-31,2024-02-01,266410,ETF_007,KODEX 필수소비재,5831.0,5879.0,13570.0,6679.0,-6891.0,SELL,79126670.0,38945249.0,-40181421.0,40181421.0,325911619.0,6027.21315,48886.74285,957228338.5786536,957179451.8358036,976609425.9761294,0.0173786561289377,0.95,0.05,0.0428350629277986,0.0406933097814087,0.0826622727420416,0.0406875105031827,47911142.83580363,True
A4_RULE_LLM_BLEND,2024-01-31,2024-02-01,266420,ETF_008,KODEX 헬스케어,13130.0,13165.0,7320.0,11742.0,4422.0,BUY,96111600.0,154172460.0,58060860.0,58060860.0,325911619.0,8709.128999999999,48886.74285,957228338.5786536,957179451.8358036,976609425.9761294,0.0173786561289377,0.95,0.05,0.1695517774343122,0.1610741885625966,0.1004061373096328,0.1610695462635642,47911142.83580363,True
A4_RULE_LLM_BLEND,2024-01-31,2024-02-01,315270,ETF_009,TIGER 200 커뮤니케이션서비스,16825.0,16921.0,5754.0,9694.0,3940.0,BUY,96811050.0,163101550.0,66290500.0,66290500.0,325911619.0,9943.575,48886.74285,957228338.5786536,957179451.8358036,976609425.9761294,0.0173786561289377,0.95,0.05,0.1793773459924928,0.1704084786928681,0.1011368407079866,0.1703980896029293,47911142.83580363,True
A4_RULE_LLM_BLEND,2024-02-01,2024-02-02,117460,ETF_001,KODEX 에너지화학,14078.0,14426.0,3217.0,8395.0,5178.0,BUY,45288926.0,118184810.0,72895884.0,72895884.0,352636146.0,10934.3826,52895.4219,984460004.9761294,984407109.5542294,1005561116.0746882,0.0296451061483675,0.95,0.05,0.1263888888888888,0.1200694444444444,0.0460038252149188,0.1200568432033346,49271840.55422938,True
A4_RULE_LLM_BLEND,2024-02-01,2024-02-02,117680,ETF_002,KODEX 철강,8438.0,8583.0,11184.0,11006.0,-178.0,SELL,94370592.0,92868628.0,-1501964.0,1501964.0,352636146.0,225.2946,52895.4219,984460004.9761294,984407109.5542294,1005561116.0746882,0.0296451061483675,0.95,0.05,0.0993055555555555,0.0943402777777777,0.0958602599628089,0.0943396559194435,49271840.55422938,True
A4_RULE_LLM_BLEND,2024-02-01,2024-02-02,139260,ETF_003,TIGER 200 IT,29715.0,30542.0,4048.0,2950.0,-1098.0,SELL,120286320.0,87659250.0,-32627070.0,32627070.0,352636146.0,4894.0605,52895.4219,984460004.9761294,984407109.5542294,1005561116.0746882,0.0296451061483675,0.95,0.05,0.09375,0.0890625,0.1221850754647129,0.0890477619972644,49271840.55422938,True
A4_RULE_LLM_BLEND,2024-02-01,2024-02-02,139270,ETF_004,TIGER 200 금융,6628.0,6905.0,26730.0,25965.0,-765.0,SELL,177166440.0,172096020.0,-5070420.0,5070420.0,352636146.0,760.5629999999999,52895.4219,984460004.9761294,984407109.5542294,1005561116.0746882,0.0296451061483675,0.95,0.05,0.1840277777777778,0.1748263888888889,0.1799630651367049,0.1748220002981597,49271840.55422938,True
A4_RULE_LLM_BLEND,2024-02-01,2024-02-02,227550,ETF_005,TIGER 200 산업재,5900.0,6019.0,0.0,5173.0,5173.0,BUY,0.0,30520700.0,30520700.0,30520700.0,352636146.0,4578.105,52895.4219,984460004.9761294,984407109.5542294,1005561116.0746882,0.0296451061483675,0.95,0.05,0.0326388888888888,0.0310069444444444,0.0,0.0310041442242536,49271840.55422938,True
A4_RULE_LLM_BLEND,2024-02-01,2024-02-02,266390,ETF_006,KODEX 경기소비재,8075.0,8228.0,16769.0,15361.0,-1408.0,SELL,135409675.0,124040075.0,-11369600.0,11369600.0,352636146.0,1705.44,52895.4219,984460004.9761294,984407109.5542294,1005561116.0746882,0.0296451061483675,0.95,0.05,0.1326388888888889,0.1260069444444444,0.1375471571374637,0.1260048548980606,49271840.55422938,True
A4_RULE_LLM_BLEND,2024-02-01,2024-02-02,266410,ETF_007,KODEX 필수소비재,6012.0,5998.0,6679.0,18688.0,12009.0,BUY,40154148.0,112352256.0,72198108.0,72198108.0,352636146.0,10829.7162,52895.4219,984460004.9761294,984407109.5542294,1005561116.0746882,0.0296451061483675,0.95,0.05,0.1201388888888888,0.1141319444444444,0.040787993211541,0.1141319022481223,49271840.55422938,True
A4_RULE_LLM_BLEND,2024-02-01,2024-02-02,266420,ETF_008,KODEX 헬스케어,13130.0,13547.0,11742.0,7716.0,-4026.0,SELL,154172460.0,101311080.0,-52861380.0,52861380.0,352636146.0,7929.206999999999,52895.4219,984460004.9761294,984407109.5542294,1005561116.0746882,0.0296451061483675,0.95,0.05,0.1083333333333333,0.1029166666666666,0.1566061182990753,0.1029158353456801,49271840.55422938,True
A4_RULE_LLM_BLEND,2024-02-01,2024-02-02,315270,ETF_009,TIGER 200 커뮤니케이션서비스,17505.0,17701.0,9694.0,5490.0,-4204.0,SELL,169693470.0,96102450.0,-73591020.0,73591020.0,352636146.0,11038.652999999998,52895.4219,984460004.9761294,984407109.5542294,1005561116.0746882,0.0296451061483675,0.95,0.05,0.1027777777777777,0.0976388888888888,0.1723721320746947,0.0976247012717311,49271840.55422938,True
A4_RULE_LLM_BLEND,2024-02-02,2024-02-05,117460,ETF_001,KODEX 에너지화학,14308.0,14396.0,8395.0,3579.0,-4816.0,SELL,120115660.0,51208332.0,-68907328.0,68907328.0,396754078.0,10336.0992,59513.1117,1002942244.0746882,1002882730.962988,994900162.4405062,-0.010601994710971,0.95,0.05,0.05375,0.0510625,0.1197632871779355,0.0510611364808612,50173098.96298814,True
A4_RULE_LLM_BLEND,2024-02-02,2024-02-05,117680,ETF_002,KODEX 철강,8546.0,8522.0,11006.0,18766.0,7760.0,BUY,94057276.0,160374236.0,66316960.0,66316960.0,396754078.0,9947.544,59513.1117,1002942244.0746882,1002882730.962988,994900162.4405062,-0.010601994710971,0.95,0.05,0.1683333333333333,0.1599166666666666,0.0937813483834026,0.1599132491253543,50173098.96298814,True
A4_RULE_LLM_BLEND,2024-02-02,2024-02-05,139260,ETF_003,TIGER 200 IT,30420.0,30031.0,2950.0,5559.0,2609.0,BUY,89739000.0,169104780.0,79365780.0,79365780.0,396754078.0,11904.867,59513.1117,1002942244.0746882,1002882730.962988,994900162.4405062,-0.010601994710971,0.95,0.05,0.1775,0.168625,0.0894757405325896,0.1686186976593187,50173098.96298814,True
A4_RULE_LLM_BLEND,2024-02-02,2024-02-05,139270,ETF_004,TIGER 200 금융,6927.0,6732.0,25965.0,21891.0,-4074.0,SELL,179859555.0,151638957.0,-28220598.0,28220598.0,396754078.0,4233.0897,59513.1117,1002942244.0746882,1002882730.962988,994900162.4405062,-0.010601994710971,0.95,0.05,0.1591666666666666,0.1512083333333333,0.1793319167305969,0.1512030792018855,50173098.96298814,True
A4_RULE_LLM_BLEND,2024-02-02,2024-02-05,227550,ETF_005,TIGER 200 산업재,5923.0,5952.0,5173.0,7439.0,2266.0,BUY,30639679.0,44061197.0,13421518.0,13421518.0,396754078.0,2013.2277,59513.1117,1002942244.0746882,1002882730.962988,994900162.4405062,-0.010601994710971,0.95,0.05,0.04625,0.0439375,0.0305497940494749,0.0439345455252694,50173098.96298814,True
A4_RULE_LLM_BLEND,2024-02-02,2024-02-05,266390,ETF_006,KODEX 경기소비재,8214.0,8233.0,15361.0,16496.0,1135.0,BUY,126175254.0,135498144.0,9322890.0,9322890.0,396754078.0,1398.4335,59513.1117,1002942244.0746882,1002882730.962988,994900162.4405062,-0.010601994710971,0.95,0.05,0.1422222222222222,0.1351111111111111,0.1258051046762009,0.1351086620764642,50173098.96298814,True
A4_RULE_LLM_BLEND,2024-02-02,2024-02-05,266410,ETF_007,KODEX 필수소비재,6022.0,5955.0,18688.0,6679.0,-12009.0,SELL,112539136.0,40220938.0,-72318198.0,72318198.0,396754078.0,10847.7297,59513.1117,1002942244.0746882,1002882730.962988,994900162.4405062,-0.010601994710971,0.95,0.05,0.0422222222222222,0.0401111111111111,0.1122089897647379,0.0401053251374455,50173098.96298814,True
A4_RULE_LLM_BLEND,2024-02-02,2024-02-05,266420,ETF_008,KODEX 헬스케어,13552.0,13423.0,7716.0,5546.0,-2170.0,SELL,104567232.0,75159392.0,-29407840.0,29407840.0,396754078.0,4411.176,59513.1117,1002942244.0746882,1002882730.962988,994900162.4405062,-0.010601994710971,0.95,0.05,0.0788888888888889,0.0749444444444444,0.1042604722433179,0.0749433504830923,50173098.96298814,True
A4_RULE_LLM_BLEND,2024-02-02,2024-02-05,315270,ETF_009,TIGER 200 커뮤니케이션서비스,17481.0,17371.0,5490.0,7176.0,1686.0,BUY,95970690.0,125443656.0,29472966.0,29472966.0,396754078.0,4420.9449,59513.1117,1002942244.0746882,1002882730.962988,994900162.4405062,-0.010601994710971,0.95,0.05,0.1316666666666666,0.1250833333333333,0.0956891491678489,0.1250830751463299,50173098.96298814,True
A4_RULE_LLM_BLEND,2024-02-05,2024-02-06,117460,ETF_001,KODEX 에너지화학,14220.0,14239.0,3579.0,1564.0,-2015.0,SELL,50893380.0,22240080.0,-28653300.0,28653300.0,213223133.0,4297.995,31983.46995,991878160.4405062,991846176.9705564,989603925.1705571,-0.0053233856721435,0.95,0.05,0.0236111111111111,0.0224305555555555,0.0513101125015168,0.0224229124600035,49655707.97055626,True
A4_RULE_LLM_BLEND,2024-02-05,2024-02-06,117680,ETF_002,KODEX 철강,8466.0,8377.0,18766.0,16540.0,-2226.0,SELL,158872956.0,140027640.0,-18845316.0,18845316.0,213223133.0,2826.7974,31983.46995,991878160.4405062,991846176.9705564,989603925.1705571,-0.0053233856721435,0.95,0.05,0.1486111111111111,0.1411805555555555,0.1601738624121358,0.1411787868434329,49655707.97055626,True
A4_RULE_LLM_BLEND,2024-02-05,2024-02-06,139260,ETF_003,TIGER 200 IT,30031.0,30197.0,5559.0,5577.0,18.0,BUY,166942329.0,167482887.0,540558.0,540558.0,213223133.0,81.0837,31983.46995,991878160.4405062,991846176.9705564,989603925.1705571,-0.0053233856721435,0.95,0.05,0.1777777777777778,0.1688888888888889,0.1683093102139266,0.1688597394321275,49655707.97055626,True
A4_RULE_LLM_BLEND,2024-02-05,2024-02-06,139270,ETF_004,TIGER 200 금융,6709.0,6632.0,21891.0,20969.0,-922.0,SELL,146866719.0,140681021.0,-6185698.0,6185698.0,213223133.0,927.8547,31983.46995,991878160.4405062,991846176.9705564,989603925.1705571,-0.0053233856721435,0.95,0.05,0.1493055555555555,0.1418402777777778,0.1480693142137281,0.1418375391935157,49655707.97055626,True
A4_RULE_LLM_BLEND,2024-02-05,2024-02-06,227550,ETF_005,TIGER 200 산업재,5876.0,5885.0,7439.0,3563.0,-3876.0,SELL,43711564.0,20936188.0,-22775376.0,22775376.0,213223133.0,3416.3064,31983.46995,991878160.4405062,991846176.9705564,989603925.1705571,-0.0053233856721435,0.95,0.05,0.0222222222222222,0.0211111111111111,0.04406948932174,0.0211083013536901,49655707.97055626,True
A4_RULE_LLM_BLEND,2024-02-05,2024-02-06,266390,ETF_006,KODEX 경기소비재,8238.0,8262.0,16496.0,22002.0,5506.0,BUY,135894048.0,181252476.0,45358428.0,45358428.0,213223133.0,6803.7642,31983.46995,991878160.4405062,991846176.9705564,989603925.1705571,-0.0053233856721435,0.95,0.05,0.1923611111111111,0.1827430555555555,0.1370067952092499,0.1827425262187411,49655707.97055626,True
A4_RULE_LLM_BLEND,2024-02-05,2024-02-06,266410,ETF_007,KODEX 필수소비재,5960.0,5946.0,6679.0,16907.0,10228.0,BUY,39806840.0,100765720.0,60958880.0,60958880.0,213223133.0,9143.832,31983.46995,991878160.4405062,991846176.9705564,989603925.1705571,-0.0053233856721435,0.95,0.05,0.1069444444444444,0.1015972222222222,0.0401327920984985,0.1015941003148024,49655707.97055626,True
A4_RULE_LLM_BLEND,2024-02-05,2024-02-06,266420,ETF_008,KODEX 헬스케어,13353.0,13527.0,5546.0,5194.0,-352.0,SELL,74055738.0,69355482.0,-4700256.0,4700256.0,213223133.0,705.0383999999999,31983.46995,991878160.4405062,991846176.9705564,989603925.1705571,-0.0053233856721435,0.95,0.05,0.0736111111111111,0.0699305555555555,0.074662131856105,0.0699256433208582,49655707.97055626,True
A4_RULE_LLM_BLEND,2024-02-05,2024-02-06,315270,ETF_009,TIGER 200 커뮤니케이션서비스,17371.0,17136.0,7176.0,5725.0,-1451.0,SELL,124654296.0,99448975.0,-25205321.0,25205321.0,213223133.0,3780.79815,31983.46995,991878160.4405062,991846176.9705564,989603925.1705571,-0.0053233856721435,0.95,0.05,0.1055555555555555,0.1002777777777777,0.1256750082536744,0.1002665305458471,49655707.97055626,True
A4_RULE_LLM_BLEND,2024-02-06,2024-02-07,117460,ETF_001,KODEX 에너지화학,14514.0,14519.0,1564.0,4733.0,3169.0,BUY,22699896.0,68694762.0,45994866.0,45994866.0,297718533.0,6899.229899999999,44657.77995,996799185.1705571,996754527.3906072,1006029561.4832066,0.0165981923624833,0.95,0.05,0.0725470066998054,0.0689196563648152,0.0227727874758604,0.0689184348927265,49891906.39060712,True
A4_RULE_LLM_BLEND,2024-02-06,2024-02-07,117680,ETF_002,KODEX 철강,8466.0,8635.0,16540.0,17042.0,502.0,BUY,140027640.0,144277572.0,4249932.0,4249932.0,297718533.0,637.4898,44657.77995,996799185.1705571,996754527.3906072,1006029561.4832066,0.0165981923624833,0.95,0.05,0.1523719472660471,0.1447533499027447,0.1404772817666786,0.1447473455452494,49891906.39060712,True
A4_RULE_LLM_BLEND,2024-02-06,2024-02-07,139260,ETF_003,TIGER 200 IT,30357.0,30659.0,5577.0,5670.0,93.0,BUY,169300989.0,172124190.0,2823201.0,2823201.0,297718533.0,423.4801499999999,44657.77995,996799185.1705571,996754527.3906072,1006029561.4832066,0.0165981923624833,0.95,0.05,0.1818024637994381,0.1727123406094662,0.1698446302110808,0.172684633247267,49891906.39060712,True
A4_RULE_LLM_BLEND,2024-02-06,2024-02-07,139270,ETF_004,TIGER 200 금융,6632.0,6778.0,20969.0,32042.0,11073.0,BUY,139066408.0,212502544.0,73436136.0,73436136.0,297718533.0,11015.4204,44657.77995,996799185.1705571,996754527.3906072,1006029561.4832066,0.0165981923624833,0.95,0.05,0.2244164685541387,0.2131956451264318,0.1395129631613864,0.2131944607829453,49891906.39060712,True
A4_RULE_LLM_BLEND,2024-02-06,2024-02-07,227550,ETF_005,TIGER 200 산업재,5923.0,5952.0,3563.0,0.0,-3563.0,SELL,21103649.0,0.0,-21103649.0,21103649.0,297718533.0,3165.54735,44657.77995,996799185.1705571,996754527.3906072,1006029561.4832066,0.0165981923624833,0.95,0.05,0.0,0.0,0.0211714147783829,0.0,49891906.39060712,True
A4_RULE_LLM_BLEND,2024-02-06,2024-02-07,266390,ETF_006,KODEX 경기소비재,8309.0,8362.0,22002.0,24676.0,2674.0,BUY,182814618.0,205032884.0,22218266.0,22218266.0,297718533.0,3332.7399,44657.77995,996799185.1705571,996754527.3906072,1006029561.4832066,0.0165981923624833,0.95,0.05,0.2165279878971255,0.2057015885022692,0.1834016527298018,0.2057004792712137,49891906.39060712,True
A4_RULE_LLM_BLEND,2024-02-06,2024-02-07,266410,ETF_007,KODEX 필수소비재,6012.0,5979.0,16907.0,3301.0,-13606.0,SELL,101644884.0,19845612.0,-81799272.0,81799272.0,297718533.0,12269.8908,44657.77995,996799185.1705571,996754527.3906072,1006029561.4832066,0.0165981923624833,0.95,0.05,0.0209639074994596,0.0199157121244867,0.1019712751697405,0.0199102301064572,49891906.39060712,True
A4_RULE_LLM_BLEND,2024-02-06,2024-02-07,266420,ETF_008,KODEX 헬스케어,13597.0,13478.0,5194.0,1949.0,-3245.0,SELL,70622818.0,26500553.0,-44122265.0,44122265.0,297718533.0,6618.33975,44657.77995,996799185.1705571,996754527.3906072,1006029561.4832066,0.0165981923624833,0.95,0.05,0.0279878971255673,0.0265885022692889,0.0708495944325196,0.0265868398605376,49891906.39060712,True
A4_RULE_LLM_BLEND,2024-02-06,2024-02-07,315270,ETF_009,TIGER 200 커뮤니케이션서비스,17442.0,17265.0,5725.0,5612.0,-113.0,SELL,99855450.0,97884504.0,-1970946.0,1970946.0,297718533.0,295.6419,44657.77995,996799185.1705571,996754527.3906072,1006029561.4832066,0.0165981923624833,0.95,0.05,0.1033823211584179,0.098213205100497,0.1001760951308505,0.0982032198602105,49891906.39060712,True
A4_RULE_LLM_BLEND,2024-02-07,2024-02-08,117460,ETF_001,KODEX 에너지화학,14808.0,14808.0,4733.0,2430.0,-2303.0,SELL,70086264.0,35983440.0,-34102824.0,34102824.0,290579240.0,5115.4236,43586.886,1012415477.4832066,1012371890.5972066,1013862580.2604272,0.0077860721763207,0.95,0.05,0.0374258329529895,0.03555454130534,0.0692267804658908,0.0355436972660047,50659888.59720659,True
A4_RULE_LLM_BLEND,2024-02-07,2024-02-08,117680,ETF_002,KODEX 철강,8649.0,8611.0,17042.0,21016.0,3974.0,BUY,147396258.0,181767384.0,34371126.0,34371126.0,290579240.0,5155.6689,43586.886,1012415477.4832066,1012371890.5972066,1013862580.2604272,0.0077860721763207,0.95,0.05,0.189000456412597,0.1795504335919671,0.1455887047148041,0.1795460597911049,50659888.59720659,True
A4_RULE_LLM_BLEND,2024-02-07,2024-02-08,139260,ETF_003,TIGER 200 IT,30771.0,30795.0,5670.0,5825.0,155.0,BUY,174471570.0,179241075.0,4769505.0,4769505.0,290579240.0,715.42575,43586.886,1012415477.4832066,1012371890.5972066,1013862580.2604272,0.0077860721763207,0.95,0.05,0.1863760839799178,0.1770572797809219,0.172331986106854,0.1770506240490974,50659888.59720659,True
A4_RULE_LLM_BLEND,2024-02-07,2024-02-08,139270,ETF_004,TIGER 200 금융,6832.0,6977.0,32042.0,31602.0,-440.0,SELL,218910944.0,215904864.0,-3006080.0,3006080.0,290579240.0,450.912,43586.886,1012415477.4832066,1012371890.5972066,1013862580.2604272,0.0077860721763207,0.95,0.05,0.2244979461433136,0.2132730488361479,0.2162263901221632,0.2132663559758024,50659888.59720659,True
A4_RULE_LLM_BLEND,2024-02-07,2024-02-08,227550,ETF_005,TIGER 200 산업재,6000.0,6019.0,0.0,16373.0,16373.0,BUY,0.0,98238000.0,98238000.0,98238000.0,290579240.0,14735.7,43586.886,1012415477.4832066,1012371890.5972066,1013862580.2604272,0.0077860721763207,0.95,0.05,0.102145139205842,0.0970378822455499,0.0,0.0970374631224189,50659888.59720659,True
A4_RULE_LLM_BLEND,2024-02-07,2024-02-08,266390,ETF_006,KODEX 경기소비재,8453.0,8362.0,24676.0,24491.0,-185.0,SELL,208586228.0,207022423.0,-1563805.0,1563805.0,290579240.0,234.57075,43586.886,1012415477.4832066,1012371890.5972066,1013862580.2604272,0.0077860721763207,0.95,0.05,0.2152555910543131,0.2044928115015974,0.2060282884241661,0.2044924646000154,50659888.59720659,True
A4_RULE_LLM_BLEND,2024-02-07,2024-02-08,266410,ETF_007,KODEX 필수소비재,6036.0,5950.0,3301.0,4545.0,1244.0,BUY,19924836.0,27433620.0,7508784.0,7508784.0,290579240.0,1126.3176,43586.886,1012415477.4832066,1012371890.5972066,1013862580.2604272,0.0077860721763207,0.95,0.05,0.0285257873117298,0.0270994979461433,0.0196804932788381,0.0270983620296062,50659888.59720659,True
A4_RULE_LLM_BLEND,2024-02-07,2024-02-08,266420,ETF_008,KODEX 헬스케어,13468.0,13358.0,1949.0,1197.0,-752.0,SELL,26249132.0,16121196.0,-10127936.0,10127936.0,290579240.0,1519.1904,43586.886,1012415477.4832066,1012371890.5972066,1013862580.2604272,0.0077860721763207,0.95,0.05,0.0167731629392971,0.0159345047923322,0.0259272330222108,0.0159241837409076,50659888.59720659,True
A4_RULE_LLM_BLEND,2024-02-07,2024-02-08,315270,ETF_009,TIGER 200 커뮤니케이션서비스,17265.0,17275.0,5612.0,0.0,-5612.0,SELL,96891180.0,0.0,-96891180.0,96891180.0,290579240.0,14533.677,43586.886,1012415477.4832066,1012371890.5972066,1013862580.2604272,0.0077860721763207,0.95,0.05,0.0,0.0,0.0957029817845778,0.0,50659888.59720659,True
A4_RULE_LLM_BLEND,2024-02-08,2024-02-13,117460,ETF_001,KODEX 에너지화학,14857.0,15033.0,2430.0,3748.0,1318.0,BUY,36102510.0,55684036.0,19581526.0,19581526.0,245100636.0,2937.2289,36765.0954,1017219291.2604272,1017182526.1650271,1020479541.8417456,0.0065264876228281,0.95,0.05,0.0576388888888888,0.0547569444444444,0.0354913736990435,0.0547434059941429,50916425.16502714,True
A4_RULE_LLM_BLEND,2024-02-08,2024-02-13,117680,ETF_002,KODEX 철강,8677.0,8616.0,21016.0,10595.0,-10421.0,SELL,182355832.0,91932815.0,-90423017.0,90423017.0,245100636.0,13563.45255,36765.0954,1017219291.2604272,1017182526.1650271,1020479541.8417456,0.0065264876228281,0.95,0.05,0.0951388888888889,0.0903819444444444,0.1792689477743236,0.09037986067909,50916425.16502714,True
A4_RULE_LLM_BLEND,2024-02-08,2024-02-13,139260,ETF_003,TIGER 200 IT,30795.0,31360.0,5825.0,6341.0,516.0,BUY,179380875.0,195271095.0,15890220.0,15890220.0,245100636.0,2383.5329999999994,36765.0954,1017219291.2604272,1017182526.1650271,1020479541.8417456,0.0065264876228281,0.95,0.05,0.2020833333333333,0.1919791666666666,0.1763443502705604,0.1919725221157793,50916425.16502714,True
A4_RULE_LLM_BLEND,2024-02-08,2024-02-13,139270,ETF_004,TIGER 200 금융,6986.0,6964.0,31602.0,27760.0,-3842.0,SELL,220771572.0,193931360.0,-26840212.0,26840212.0,245100636.0,4026.0318,36765.0954,1017219291.2604272,1017182526.1650271,1020479541.8417456,0.0065264876228281,0.95,0.05,0.2006944444444444,0.1906597222222222,0.2170343935636965,0.1906554182867831,50916425.16502714,True
A4_RULE_LLM_BLEND,2024-02-08,2024-02-13,227550,ETF_005,TIGER 200 산업재,6047.0,6080.0,16373.0,19309.0,2936.0,BUY,99007531.0,116761523.0,17753992.0,17753992.0,245100636.0,2663.0988,36765.0954,1017219291.2604272,1017182526.1650271,1020479541.8417456,0.0065264876228281,0.95,0.05,0.1208333333333333,0.1147916666666666,0.0973315506800118,0.114789155334995,50916425.16502714,True
A4_RULE_LLM_BLEND,2024-02-08,2024-02-13,266390,ETF_006,KODEX 경기소비재,8395.0,8328.0,24491.0,23900.0,-591.0,SELL,205601945.0,200640500.0,-4961445.0,4961445.0,245100636.0,744.2167499999999,36765.0954,1017219291.2604272,1017182526.1650271,1020479541.8417456,0.0065264876228281,0.95,0.05,0.2076388888888889,0.1972569444444444,0.2021215550731843,0.1972512256541145,50916425.16502714,True
A4_RULE_LLM_BLEND,2024-02-08,2024-02-13,266410,ETF_007,KODEX 필수소비재,6008.0,5927.0,4545.0,4467.0,-78.0,SELL,27306360.0,26837736.0,-468624.0,468624.0,245100636.0,70.2936,36765.0954,1017219291.2604272,1017182526.1650271,1020479541.8417456,0.0065264876228281,0.95,0.05,0.0277777777777777,0.0263888888888888,0.0268441232235823,0.0263843856040109,50916425.16502714,True
A4_RULE_LLM_BLEND,2024-02-08,2024-02-13,266420,ETF_008,KODEX 헬스케어,13388.0,13801.0,1197.0,3859.0,2662.0,BUY,16025436.0,51664292.0,35638856.0,35638856.0,245100636.0,5345.828399999999,36765.0954,1017219291.2604272,1017182526.1650271,1020479541.8417456,0.0065264876228281,0.95,0.05,0.0534722222222222,0.0507986111111111,0.0157541605214181,0.0507915646120901,50916425.16502714,True
A4_RULE_LLM_BLEND,2024-02-08,2024-02-13,315270,ETF_009,TIGER 200 커뮤니케이션서비스,17452.0,17471.0,0.0,1922.0,1922.0,BUY,0.0,33542744.0,33542744.0,33542744.0,245100636.0,5031.4116,36765.0954,1017219291.2604272,1017182526.1650271,1020479541.8417456,0.0065264876228281,0.95,0.05,0.0347222222222222,0.0329861111111111,0.0,0.0329761307702193,50916425.16502714,True
A4_RULE_LLM_BLEND,2024-02-13,2024-02-14,117460,ETF_001,KODEX 에너지화학,14636.0,14891.0,3748.0,1543.0,-2205.0,SELL,54855728.0,22583348.0,-32272380.0,32272380.0,290280446.0,4840.857,43542.0669,1007292767.8417456,1007249225.7748456,1007761116.6399616,-0.012463184885441,0.95,0.05,0.0236111111111111,0.0224305555555555,0.0544585742609226,0.0224208144539672,50412813.77484548,True
A4_RULE_LLM_BLEND,2024-02-13,2024-02-14,117680,ETF_002,KODEX 철강,8508.0,8541.0,10595.0,17417.0,6822.0,BUY,90142260.0,148183836.0,58041576.0,58041576.0,290280446.0,8706.2364,43542.0669,1007292767.8417456,1007249225.7748456,1007761116.6399616,-0.012463184885441,0.95,0.05,0.1548611111111111,0.1471180555555555,0.0894896328831402,0.1471173491208263,50412813.77484548,True
A4_RULE_LLM_BLEND,2024-02-13,2024-02-14,139260,ETF_003,TIGER 200 IT,30883.0,30922.0,6341.0,6562.0,221.0,BUY,195829103.0,202654246.0,6825143.0,6825143.0,290280446.0,1023.77145,43542.0669,1007292767.8417456,1007249225.7748456,1007761116.6399616,-0.012463184885441,0.95,0.05,0.2118055555555555,0.2012152777777777,0.1944113064760596,0.2011957327086594,50412813.77484548,True
A4_RULE_LLM_BLEND,2024-02-13,2024-02-14,139270,ETF_004,TIGER 200 금융,6941.0,6827.0,27760.0,18764.0,-8996.0,SELL,192682160.0,130240924.0,-62441236.0,62441236.0,290280446.0,9366.1854,43542.0669,1007292767.8417456,1007249225.7748456,1007761116.6399616,-0.012463184885441,0.95,0.05,0.136111111111111,0.1293055555555555,0.1912871472440394,0.1293035732043474,50412813.77484548,True
A4_RULE_LLM_BLEND,2024-02-13,2024-02-14,227550,ETF_005,TIGER 200 산업재,5914.0,5962.0,19309.0,12247.0,-7062.0,SELL,114193426.0,72428758.0,-41764668.0,41764668.0,290280446.0,6264.700199999999,43542.0669,1007292767.8417456,1007249225.7748456,1007761116.6399616,-0.012463184885441,0.95,0.05,0.0756944444444444,0.0719097222222222,0.1133666692005285,0.0719074844106063,50412813.77484548,True
A4_RULE_LLM_BLEND,2024-02-13,2024-02-14,266390,ETF_006,KODEX 경기소비재,8233.0,8214.0,23900.0,23568.0,-332.0,SELL,196768700.0,194035344.0,-2733356.0,2733356.0,290280446.0,410.0034,43542.0669,1007292767.8417456,1007249225.7748456,1007761116.6399616,-0.012463184885441,0.95,0.05,0.2027777777777777,0.1926388888888888,0.1953441008234401,0.1926388614006972,50412813.77484548,True
A4_RULE_LLM_BLEND,2024-02-13,2024-02-14,266410,ETF_007,KODEX 필수소비재,5898.0,5879.0,4467.0,7661.0,3194.0,BUY,26346366.0,45184578.0,18838212.0,18838212.0,290280446.0,2825.7318,43542.0669,1007292767.8417456,1007249225.7748456,1007761116.6399616,-0.012463184885441,0.95,0.05,0.0472222222222222,0.044861111111111,0.0261556191418414,0.0448593822102379,50412813.77484548,True
A4_RULE_LLM_BLEND,2024-02-13,2024-02-14,266420,ETF_008,KODEX 헬스케어,13527.0,13607.0,3859.0,3438.0,-421.0,SELL,52200693.0,46505826.0,-5694867.0,5694867.0,290280446.0,854.23005,43542.0669,1007292767.8417456,1007249225.7748456,1007761116.6399616,-0.012463184885441,0.95,0.05,0.0486111111111111,0.0461805555555555,0.0518227616305105,0.0461711211187325,50412813.77484548,True
A4_RULE_LLM_BLEND,2024-02-13,2024-02-14,315270,ETF_009,TIGER 200 커뮤니케이션서비스,17352.0,17562.0,1922.0,5476.0,3554.0,BUY,33350544.0,95019552.0,61669008.0,61669008.0,290280446.0,9250.3512,43542.0669,1007292767.8417456,1007249225.7748456,1007761116.6399616,-0.012463184885441,0.95,0.05,0.0993055555555555,0.0943402777777777,0.0331090871142238,0.094335691275319,50412813.77484548,True
A4_RULE_LLM_BLEND,2024-02-14,2024-02-15,117460,ETF_001,KODEX 에너지화학,14940.0,15156.0,1543.0,9213.0,7670.0,BUY,23052420.0,137642220.0,114589800.0,114589800.0,353666290.0,17188.469999999998,53049.9435,1013233517.6399616,1013180467.6964616,1010047604.0858616,0.0022688784158726,0.95,0.05,0.1430068434559452,0.1358565012831479,0.0227513397441628,0.1358516319535249,50712005.69646156,True
A4_RULE_LLM_BLEND,2024-02-14,2024-02-15,117680,ETF_002,KODEX 철강,8602.0,8555.0,17417.0,7813.0,-9604.0,SELL,149821034.0,67207426.0,-82613608.0,82613608.0,353666290.0,12392.041199999998,53049.9435,1013233517.6399616,1013180467.6964616,1010047604.0858616,0.0022688784158726,0.95,0.05,0.0698246364414029,0.0663334046193327,0.1478642695801905,0.0663331243966841,50712005.69646156,True
A4_RULE_LLM_BLEND,2024-02-14,2024-02-15,139260,ETF_003,TIGER 200 IT,31082.0,30785.0,6562.0,6698.0,136.0,BUY,203960084.0,208187236.0,4227152.0,4227152.0,353666290.0,634.0727999999999,53049.9435,1013233517.6399616,1013180467.6964616,1010047604.0858616,0.0022688784158726,0.95,0.05,0.216317365269461,0.205501497005988,0.2012962268313693,0.2054789276320423,50712005.69646156,True
A4_RULE_LLM_BLEND,2024-02-14,2024-02-15,139270,ETF_004,TIGER 200 금융,6791.0,6755.0,18764.0,26567.0,7803.0,BUY,127426324.0,180416497.0,52990173.0,52990173.0,353666290.0,7948.525949999999,53049.9435,1013233517.6399616,1013180467.6964616,1010047604.0858616,0.0022688784158726,0.95,0.05,0.1874465355004277,0.1780742087254063,0.1257620496968983,0.1780694582577078,50712005.69646156,True
A4_RULE_LLM_BLEND,2024-02-14,2024-02-15,227550,ETF_005,TIGER 200 산업재,6104.0,6109.0,12247.0,0.0,-12247.0,SELL,74755688.0,0.0,-74755688.0,74755688.0,353666290.0,11213.353199999998,53049.9435,1013233517.6399616,1013180467.6964616,1010047604.0858616,0.0022688784158726,0.95,0.05,0.0,0.0,0.073779327961951,0.0,50712005.69646156,True
A4_RULE_LLM_BLEND,2024-02-14,2024-02-15,266390,ETF_006,KODEX 경기소비재,8219.0,8157.0,23568.0,23241.0,-327.0,SELL,193705392.0,191017779.0,-2687613.0,2687613.0,353666290.0,403.14195,53049.9435,1013233517.6399616,1013180467.6964616,1010047604.0858616,0.0022688784158726,0.95,0.05,0.1984602224123182,0.1885372112917022,0.1911754680709551,0.1885328281488613,50712005.69646156,True
A4_RULE_LLM_BLEND,2024-02-14,2024-02-15,266410,ETF_007,KODEX 필수소비재,5912.0,5898.0,7661.0,5327.0,-2334.0,SELL,45291832.0,31493224.0,-13798608.0,13798608.0,353666290.0,2069.7912,53049.9435,1013233517.6399616,1013180467.6964616,1010047604.0858616,0.0022688784158726,0.95,0.05,0.0327202737382378,0.0310842600513259,0.0447002899247691,0.0310835285559759,50712005.69646156,True
A4_RULE_LLM_BLEND,2024-02-14,2024-02-15,266420,ETF_008,KODEX 헬스케어,13696.0,13498.0,3438.0,3208.0,-230.0,SELL,47086848.0,43936768.0,-3150080.0,3150080.0,353666290.0,472.512,53049.9435,1013233517.6399616,1013180467.6964616,1010047604.0858616,0.0022688784158726,0.95,0.05,0.0456586826347305,0.043375748502994,0.0464718617971456,0.0433651944553307,50712005.69646156,True
A4_RULE_LLM_BLEND,2024-02-14,2024-02-15,315270,ETF_009,TIGER 200 커뮤니케이션서비스,17844.0,17902.0,5476.0,5748.0,272.0,BUY,97713744.0,102567312.0,4853568.0,4853568.0,353666290.0,728.0351999999999,53049.9435,1013233517.6399616,1013180467.6964616,1010047604.0858616,0.0022688784158726,0.95,0.05,0.1065654405474764,0.1012371685201026,0.096437536164019,0.1012330135352827,50712005.69646156,True
A4_RULE_LLM_BLEND,2024-02-15,2024-02-16,117460,ETF_001,KODEX 에너지화학,15249.0,15425.0,9213.0,1808.0,-7405.0,SELL,140489037.0,27570192.0,-112918845.0,112918845.0,447108037.0,16937.82675,67066.20555,1019350821.0858616,1019283754.8803116,1026701462.6383908,0.0164881917299348,0.95,0.05,0.0284722222222222,0.0270486111111111,0.1378220668428405,0.0270485935520844,51015971.88031173,True
A4_RULE_LLM_BLEND,2024-02-15,2024-02-16,117680,ETF_002,KODEX 철강,8649.0,8794.0,7813.0,21069.0,13256.0,BUY,67574637.0,182225781.0,114651144.0,114651144.0,447108037.0,17197.6716,67066.20555,1019350821.0858616,1019283754.8803116,1026701462.6383908,0.0164881917299348,0.95,0.05,0.1881944444444444,0.1787847222222222,0.066291835550803,0.1787782647643566,51015971.88031173,True
A4_RULE_LLM_BLEND,2024-02-15,2024-02-16,139260,ETF_003,TIGER 200 IT,31131.0,31238.0,6698.0,6890.0,192.0,BUY,208515438.0,214492590.0,5977152.0,5977152.0,447108037.0,896.5727999999999,67066.20555,1019350821.0858616,1019283754.8803116,1026701462.6383908,0.0164881917299348,0.95,0.05,0.2215277777777777,0.2104513888888888,0.2045570903429295,0.2104346203625962,51015971.88031173,True
A4_RULE_LLM_BLEND,2024-02-15,2024-02-16,139270,ETF_004,TIGER 200 금융,6877.0,6977.0,26567.0,25912.0,-655.0,SELL,182701259.0,178196824.0,-4504435.0,4504435.0,447108037.0,675.66525,67066.20555,1019350821.0858616,1019283754.8803116,1026701462.6383908,0.0164881917299348,0.95,0.05,0.1840277777777778,0.1748263888888889,0.1792329541711437,0.1748255313074469,51015971.88031173,True
A4_RULE_LLM_BLEND,2024-02-15,2024-02-16,227550,ETF_005,TIGER 200 산업재,6123.0,6166.0,0.0,15155.0,15155.0,BUY,0.0,92794065.0,92794065.0,92794065.0,447108037.0,13919.10975,67066.20555,1019350821.0858616,1019283754.8803116,1026701462.6383908,0.0164881917299348,0.95,0.05,0.0958333333333333,0.0910416666666666,0.0,0.0910385008646549,51015971.88031173,True
A4_RULE_LLM_BLEND,2024-02-15,2024-02-16,266390,ETF_006,KODEX 경기소비재,8223.0,8223.0,23241.0,24451.0,1210.0,BUY,191110743.0,201060573.0,9949830.0,9949830.0,447108037.0,1492.4745,67066.20555,1019350821.0858616,1019283754.8803116,1026701462.6383908,0.0164881917299348,0.95,0.05,0.2076388888888888,0.1972569444444444,0.1874827969397421,0.1972567227107522,51015971.88031173,True
A4_RULE_LLM_BLEND,2024-02-15,2024-02-16,266410,ETF_007,KODEX 필수소비재,5960.0,5955.0,5327.0,4513.0,-814.0,SELL,31748920.0,26897480.0,-4851440.0,4851440.0,447108037.0,727.716,67066.20555,1019350821.0858616,1019283754.8803116,1026701462.6383908,0.0164881917299348,0.95,0.05,0.0277777777777777,0.0263888888888888,0.0311462151628813,0.0263886085412578,51015971.88031173,True
A4_RULE_LLM_BLEND,2024-02-15,2024-02-16,266420,ETF_008,KODEX 헬스케어,13572.0,13612.0,3208.0,2080.0,-1128.0,SELL,43538976.0,28229760.0,-15309216.0,15309216.0,447108037.0,2296.3824,67066.20555,1019350821.0858616,1019283754.8803116,1026701462.6383908,0.0164881917299348,0.95,0.05,0.0291666666666666,0.0277083333333333,0.0427124549265778,0.0276956832332865,51015971.88031173,True
A4_RULE_LLM_BLEND,2024-02-15,2024-02-16,315270,ETF_009,TIGER 200 커뮤니케이션서비스,17911.0,17907.0,5748.0,938.0,-4810.0,SELL,102952428.0,16800518.0,-86151910.0,86151910.0,447108037.0,12922.7865,67066.20555,1019350821.0858616,1019283754.8803116,1026701462.6383908,0.0164881917299348,0.95,0.05,0.0173611111111111,0.0164930555555555,0.1009980331308607,0.0164826702275587,51015971.88031173,True
A4_RULE_LLM_BLEND,2024-02-16,2024-02-19,117460,ETF_001,KODEX 에너지화학,15425.0,15533.0,1808.0,4932.0,3124.0,BUY,27888400.0,76076100.0,48187700.0,48187700.0,326095704.0,7228.154999999999,48914.3556,1029827698.6383908,1029778784.2827908,1041533553.5965122,0.0144463522239524,0.95,0.05,0.0777777777777777,0.0738888888888889,0.0270806466332894,0.0738761578322713,51537390.28279078,True
A4_RULE_LLM_BLEND,2024-02-16,2024-02-19,117680,ETF_002,KODEX 철강,8794.0,8915.0,21069.0,16532.0,-4537.0,SELL,185280786.0,145382408.0,-39898378.0,39898378.0,326095704.0,5984.756699999999,48914.3556,1029827698.6383908,1029778784.2827908,1041533553.5965122,0.0144463522239524,0.95,0.05,0.1486111111111111,0.1411805555555556,0.1799143548430218,0.141178290152146,51537390.28279078,True
A4_RULE_LLM_BLEND,2024-02-16,2024-02-19,139260,ETF_003,TIGER 200 IT,31233.0,31720.0,6890.0,3850.0,-3040.0,SELL,215195370.0,120247050.0,-94948320.0,94948320.0,326095704.0,14242.248,48914.3556,1029827698.6383908,1029778784.2827908,1041533553.5965122,0.0144463522239524,0.95,0.05,0.1229166666666666,0.1167708333333333,0.208962499537083,0.1167697876818741,51537390.28279078,True
A4_RULE_LLM_BLEND,2024-02-16,2024-02-19,139270,ETF_004,TIGER 200 금융,6977.0,7154.0,25912.0,28432.0,2520.0,BUY,180788024.0,198370064.0,17582040.0,17582040.0,326095704.0,2637.306,48914.3556,1029827698.6383908,1029778784.2827908,1041533553.5965122,0.0144463522239524,0.95,0.05,0.2027777777777778,0.1926388888888889,0.1755517201945848,0.1926336675678928,51537390.28279078,True
A4_RULE_LLM_BLEND,2024-02-16,2024-02-19,227550,ETF_005,TIGER 200 산업재,6209.0,6185.0,15155.0,15099.0,-56.0,SELL,94097395.0,93749691.0,-347704.0,347704.0,326095704.0,52.15559999999999,48914.3556,1029827698.6383908,1029778784.2827908,1041533553.5965122,0.0144463522239524,0.95,0.05,0.0958333333333333,0.0910416666666666,0.0913719791421544,0.0910386700822291,51537390.28279078,True
A4_RULE_LLM_BLEND,2024-02-16,2024-02-19,266390,ETF_006,KODEX 경기소비재,8319.0,8362.0,24451.0,21069.0,-3382.0,SELL,203407869.0,175273011.0,-28134858.0,28134858.0,326095704.0,4220.2287,48914.3556,1029827698.6383908,1029778784.2827908,1041533553.5965122,0.0144463522239524,0.95,0.05,0.1791666666666667,0.1702083333333333,0.1975164090740035,0.1702045271034324,51537390.28279078,True
A4_RULE_LLM_BLEND,2024-02-16,2024-02-19,266410,ETF_007,KODEX 필수소비재,5974.0,6008.0,4513.0,6823.0,2310.0,BUY,26960662.0,40760602.0,13799940.0,13799940.0,326095704.0,2069.991,48914.3556,1029827698.6383908,1029778784.2827908,1041533553.5965122,0.0144463522239524,0.95,0.05,0.0416666666666666,0.0395833333333333,0.0261797794287788,0.0395819011054772,51537390.28279078,True
A4_RULE_LLM_BLEND,2024-02-16,2024-02-19,266420,ETF_008,KODEX 헬스케어,13612.0,13801.0,2080.0,7785.0,5705.0,BUY,28312960.0,105969420.0,77656460.0,77656460.0,326095704.0,11648.469,48914.3556,1029827698.6383908,1029778784.2827908,1041533553.5965122,0.0144463522239524,0.95,0.05,0.1083333333333333,0.1029166666666666,0.0274929097726101,0.102905033214298,51537390.28279078,True
A4_RULE_LLM_BLEND,2024-02-16,2024-02-19,315270,ETF_009,TIGER 200 커뮤니케이션서비스,17988.0,18036.0,938.0,1246.0,308.0,BUY,16872744.0,22413048.0,5540304.0,5540304.0,326095704.0,831.0455999999999,48914.3556,1029827698.6383908,1029778784.2827908,1041533553.5965122,0.0144463522239524,0.95,0.05,0.0229166666666666,0.0217708333333333,0.0163840456246308,0.0217649152828585,51537390.28279078,True
A4_RULE_LLM_BLEND,2024-02-19,2024-02-20,117460,ETF_001,KODEX 에너지화학,15533.0,15504.0,4932.0,5273.0,341.0,BUY,76608756.0,81905509.0,5296753.0,5296753.0,314821751.0,794.5129499999999,47223.26265,1043412923.5965122,1043365700.3338622,1031025816.0348514,-0.0100887172817203,0.95,0.05,0.0826388888888888,0.0785069444444444,0.073421321767742,0.0785012474281945,52251393.333862185,True
A4_RULE_LLM_BLEND,2024-02-19,2024-02-20,117680,ETF_002,KODEX 철강,8906.0,8892.0,16532.0,14329.0,-2203.0,SELL,147233992.0,127614074.0,-19619918.0,19619918.0,314821751.0,2942.9877,47223.26265,1043412923.5965122,1043365700.3338622,1031025816.0348514,-0.0100887172817203,0.95,0.05,0.1287499999999999,0.1223124999999999,0.1411080777996338,0.1223100145607291,52251393.333862185,True
A4_RULE_LLM_BLEND,2024-02-19,2024-02-20,139260,ETF_003,TIGER 200 IT,31686.0,31394.0,3850.0,3375.0,-475.0,SELL,121991100.0,106940250.0,-15050850.0,15050850.0,314821751.0,2257.6275,47223.26265,1043412923.5965122,1043365700.3338622,1031025816.0348514,-0.0100887172817203,0.95,0.05,0.1079166666666666,0.1025208333333333,0.1169154581481626,0.1024954624881579,52251393.333862185,True
A4_RULE_LLM_BLEND,2024-02-19,2024-02-20,139270,ETF_004,TIGER 200 금융,7254.0,6973.0,28432.0,30364.0,1932.0,BUY,206245728.0,220260456.0,14014728.0,14014728.0,314821751.0,2102.2092,47223.26265,1043412923.5965122,1043365700.3338622,1031025816.0348514,-0.0100887172817203,0.95,0.05,0.2222222222222222,0.211111111111111,0.1976645327423175,0.2111057090812164,52251393.333862185,True
A4_RULE_LLM_BLEND,2024-02-19,2024-02-20,227550,ETF_005,TIGER 200 산업재,6175.0,6237.0,15099.0,2786.0,-12313.0,SELL,93236325.0,17203550.0,-76032775.0,76032775.0,314821751.0,11404.916249999998,47223.26265,1043412923.5965122,1043365700.3338622,1031025816.0348514,-0.0100887172817203,0.95,0.05,0.0173611111111111,0.0164930555555555,0.0893570732080126,0.0164885140411411,52251393.333862185,True
A4_RULE_LLM_BLEND,2024-02-19,2024-02-20,266390,ETF_006,KODEX 경기소비재,8324.0,8266.0,21069.0,20143.0,-926.0,SELL,175378356.0,167670332.0,-7708024.0,7708024.0,314821751.0,1156.2036,47223.26265,1043412923.5965122,1043365700.3338622,1031025816.0348514,-0.0100887172817203,0.95,0.05,0.1691666666666666,0.1607083333333333,0.1680814489008752,0.1607014031095213,52251393.333862185,True
A4_RULE_LLM_BLEND,2024-02-19,2024-02-20,266410,ETF_007,KODEX 필수소비재,6022.0,5989.0,6823.0,4343.0,-2480.0,SELL,41088106.0,26153546.0,-14934560.0,14934560.0,314821751.0,2240.184,47223.26265,1043412923.5965122,1043365700.3338622,1031025816.0348514,-0.0100887172817203,0.95,0.05,0.0263888888888888,0.0250694444444444,0.0393785672678602,0.0250665188549242,52251393.333862185,True
A4_RULE_LLM_BLEND,2024-02-19,2024-02-20,266420,ETF_008,KODEX 헬스케어,13801.0,13831.0,7785.0,6014.0,-1771.0,SELL,107440785.0,82999214.0,-24441571.0,24441571.0,314821751.0,3666.23565,47223.26265,1043412923.5965122,1043365700.3338622,1031025816.0348514,-0.0100887172817203,0.95,0.05,0.0837499999999999,0.0795625,0.1029705331132618,0.0795494944614735,52251393.333862185,True
A4_RULE_LLM_BLEND,2024-02-19,2024-02-20,315270,ETF_009,TIGER 200 커뮤니케이션서비스,18174.0,18002.0,1246.0,8824.0,7578.0,BUY,22644804.0,160367376.0,137722572.0,137722572.0,314821751.0,20658.3858,47223.26265,1043412923.5965122,1043365700.3338622,1031025816.0348514,-0.0100887172817203,0.95,0.05,0.1618055555555555,0.1537152777777777,0.0217026294076809,0.1537019819116966,52251393.333862185,True
A4_RULE_LLM_BLEND,2024-02-20,2024-02-21,117460,ETF_001,KODEX 에너지화학,15278.0,15489.0,5273.0,10689.0,5416.0,BUY,80560894.0,163306542.0,82745648.0,82745648.0,418806605.0,12411.8472,62820.99075,1031042867.0348514,1030980046.0441016,1032867672.2022318,0.0017864306972097,0.95,0.05,0.1667421064252594,0.1584050011039964,0.0781353487577901,0.1583993236596689,51588273.04410148,True
A4_RULE_LLM_BLEND,2024-02-20,2024-02-21,117680,ETF_002,KODEX 철강,8892.0,8948.0,14329.0,18840.0,4511.0,BUY,127413468.0,167525280.0,40111812.0,40111812.0,418806605.0,6016.7718,62820.99075,1031042867.0348514,1030980046.0441016,1032867672.2022318,0.0017864306972097,0.95,0.05,0.1710476926473835,0.1624953080150143,0.1235772750811273,0.1624912922832979,51588273.04410148,True
A4_RULE_LLM_BLEND,2024-02-20,2024-02-21,139260,ETF_003,TIGER 200 IT,31477.0,31442.0,3375.0,3431.0,56.0,BUY,106234875.0,107997587.0,1762712.0,1762712.0,418806605.0,264.4068,62820.99075,1031042867.0348514,1030980046.0441016,1032867672.2022318,0.0017864306972097,0.95,0.05,0.1102782071097372,0.1047642967542503,0.1030363318506029,0.1047523542423441,51588273.04410148,True
A4_RULE_LLM_BLEND,2024-02-20,2024-02-21,139270,ETF_004,TIGER 200 금융,6995.0,6954.0,30364.0,32342.0,1978.0,BUY,212396180.0,226232290.0,13836110.0,13836110.0,418806605.0,2075.4165,62820.99075,1031042867.0348514,1030980046.0441016,1032867672.2022318,0.0017864306972097,0.95,0.05,0.2309836608522852,0.219434477809671,0.2060013087630628,0.2194342081285273,51588273.04410148,True
A4_RULE_LLM_BLEND,2024-02-20,2024-02-21,227550,ETF_005,TIGER 200 산업재,6242.0,6275.0,2786.0,4590.0,1804.0,BUY,17390212.0,28650780.0,11260568.0,11260568.0,418806605.0,1689.0852,62820.99075,1031042867.0348514,1030980046.0441016,1032867672.2022318,0.0017864306972097,0.95,0.05,0.0292559063810995,0.0277931110620446,0.0168666236448655,0.0277898491924589,51588273.04410148,True
